<?xml version="1.0" encoding="UTF-8"?>
<map version="1.10" tiledversion="1.10.1" orientation="orthogonal" renderorder="right-down" width="32" height="32" tilewidth="32" tileheight="32" infinite="1" nextlayerid="6" nextobjectid="1">
 <tileset firstgid="1" source="level_tileset.tsx"/>
 <tileset firstgid="82" source="decor_tiles.tsx"/>
 <layer id="3" name="Exterior" width="32" height="32">
  <data encoding="csv">
   <chunk x="-48" y="-80" width="16" height="16">
27,27,27,27,27,27,27,27,27,27,27,27,27,27,27,27,
27,27,27,27,27,27,27,27,27,27,27,27,27,27,27,27,
27,27,27,27,27,27,27,27,27,27,27,27,27,27,27,27,
27,27,27,27,27,27,27,27,27,27,27,27,27,27,27,27,
27,27,27,27,27,27,27,27,27,27,27,27,27,27,27,27,
27,27,27,27,27,27,27,27,27,27,27,27,27,27,27,27,
27,27,27,27,27,27,27,27,27,27,27,27,27,27,27,27,
27,27,27,27,27,27,27,27,27,27,27,27,27,27,27,27,
27,27,27,27,27,27,27,27,27,27,27,27,27,27,27,27,
27,27,27,27,27,27,27,27,27,27,27,27,27,27,27,27,
27,27,27,27,27,27,27,27,27,27,27,27,27,27,27,27,
27,27,27,27,27,27,27,27,27,27,27,27,27,27,27,27,
27,27,27,27,27,27,27,27,27,27,27,27,27,27,27,27,
27,27,27,27,27,27,27,27,27,27,27,27,27,27,27,27,
27,27,27,27,27,27,27,27,27,27,27,27,27,27,27,27,
27,27,27,27,27,27,27,27,27,27,27,27,27,27,27,27
</chunk>
   <chunk x="-32" y="-80" width="16" height="16">
27,27,27,27,27,27,27,27,27,27,27,27,27,27,27,27,
27,27,27,27,27,27,27,27,27,27,27,27,27,27,27,27,
27,27,27,27,27,27,27,27,27,27,27,27,27,27,27,27,
27,27,27,27,27,27,27,27,27,27,27,27,27,27,27,27,
27,27,27,27,27,27,27,27,27,27,27,27,27,27,27,27,
27,27,27,27,27,27,27,27,27,27,27,27,27,27,27,27,
27,27,27,27,27,27,27,27,27,27,27,27,27,27,27,27,
27,27,27,27,27,27,27,27,27,27,27,27,27,27,27,27,
27,27,27,27,27,27,27,27,27,27,27,27,27,27,27,27,
27,27,27,27,27,27,27,27,27,27,27,27,27,27,27,27,
27,27,27,27,27,27,27,27,27,27,27,27,27,27,27,27,
27,27,27,27,27,27,27,27,27,27,27,27,27,27,27,27,
27,27,27,27,27,27,27,27,27,27,27,27,27,27,27,27,
27,27,27,27,27,27,27,27,27,27,27,27,27,27,27,27,
27,27,27,27,27,27,27,27,27,27,27,27,27,27,27,27,
27,27,27,27,27,27,27,27,27,27,27,27,27,27,27,27
</chunk>
   <chunk x="-16" y="-80" width="16" height="16">
27,27,27,27,27,27,27,27,27,27,27,27,27,27,27,27,
27,27,27,27,27,27,27,27,27,27,27,27,27,27,27,27,
27,27,27,27,27,27,27,27,27,27,27,27,27,27,27,27,
27,27,27,27,27,27,27,27,27,27,27,27,27,27,27,27,
27,27,27,27,27,27,27,27,27,27,27,27,27,27,27,27,
27,27,27,27,27,27,27,27,27,27,27,27,27,27,27,27,
27,27,27,27,27,27,27,27,27,27,27,27,27,27,27,27,
27,27,27,27,27,27,27,27,27,27,27,27,27,27,27,27,
27,27,27,27,27,27,27,27,27,27,27,27,27,27,27,27,
27,27,27,27,27,27,27,27,27,27,27,27,27,27,27,27,
27,27,27,27,27,27,27,27,27,27,27,27,27,27,27,27,
27,27,27,27,27,27,27,27,27,27,27,27,27,27,27,27,
27,27,27,27,27,27,27,27,27,27,27,27,27,27,27,27,
27,27,27,27,27,27,27,27,27,27,27,27,27,27,27,27,
27,27,27,27,27,27,27,27,27,27,27,27,27,27,27,27,
27,27,27,27,27,27,27,27,27,27,27,27,27,27,27,27
</chunk>
   <chunk x="0" y="-80" width="16" height="16">
27,27,27,27,27,27,27,27,27,27,27,27,27,27,27,27,
27,27,27,27,27,27,27,27,27,27,27,27,27,27,27,27,
27,27,27,27,27,27,27,27,27,27,27,27,27,27,27,27,
27,27,27,27,27,27,27,27,27,27,27,27,27,27,27,27,
27,27,27,27,27,27,27,27,27,27,27,27,27,27,27,27,
27,27,27,27,27,27,27,27,27,27,27,27,27,27,27,27,
27,27,27,27,27,27,27,27,27,27,27,27,27,27,27,27,
27,27,27,27,27,27,27,27,27,27,27,27,27,27,27,27,
27,27,27,27,27,27,27,27,27,27,27,27,27,27,27,27,
27,27,27,27,27,27,27,27,27,27,27,27,27,27,27,27,
27,27,27,27,27,27,27,27,27,27,27,27,27,27,27,27,
27,27,27,27,27,27,27,27,27,27,27,27,27,27,27,27,
27,27,27,27,27,27,27,27,27,27,27,27,27,27,27,27,
27,27,27,27,27,27,27,27,27,27,27,27,27,27,27,27,
27,27,27,27,27,27,27,27,27,27,27,27,27,27,27,27,
27,27,27,27,27,27,27,27,27,27,27,27,27,27,27,27
</chunk>
   <chunk x="16" y="-80" width="16" height="16">
27,27,27,27,27,27,27,27,27,27,27,27,27,27,27,27,
27,27,27,27,27,27,27,27,27,27,27,27,27,27,27,27,
27,27,27,27,27,27,27,27,27,27,27,27,27,27,27,27,
27,27,27,27,27,27,27,27,27,27,27,27,27,27,27,27,
27,27,27,27,27,27,27,27,27,27,27,27,27,27,27,27,
27,27,27,27,27,27,27,27,27,27,27,27,27,27,27,27,
27,27,27,27,27,27,27,27,27,27,27,27,27,27,27,27,
27,27,27,27,27,27,27,27,27,27,27,27,27,27,27,27,
27,27,27,27,27,27,27,27,27,27,27,27,27,27,27,27,
27,27,27,27,27,27,27,27,27,27,27,27,27,27,27,27,
27,27,27,27,27,27,27,27,27,27,27,27,27,27,27,27,
27,27,27,27,27,27,27,27,27,27,27,27,27,27,27,27,
27,27,27,27,27,27,27,27,27,27,27,27,27,27,27,27,
27,27,27,27,27,27,27,27,27,27,27,27,27,27,27,27,
27,27,27,27,27,27,27,27,27,27,27,27,27,27,27,27,
27,27,27,27,27,27,27,27,27,27,27,27,27,27,27,27
</chunk>
   <chunk x="32" y="-80" width="16" height="16">
27,27,27,27,27,27,27,27,27,27,27,27,27,27,27,27,
27,27,27,27,27,27,27,27,27,27,27,27,27,27,27,27,
27,27,27,27,27,27,27,27,27,27,27,27,27,27,27,27,
27,27,27,27,27,27,27,27,27,27,27,27,27,27,27,27,
27,27,27,27,27,27,27,27,27,27,27,27,27,27,27,27,
27,27,27,27,27,27,27,27,27,27,27,27,27,27,27,27,
27,27,27,27,27,27,27,27,27,27,27,27,27,27,27,27,
27,27,27,27,27,27,27,27,27,27,27,27,27,27,27,27,
27,27,27,27,27,27,27,27,27,27,27,27,27,27,27,27,
27,27,27,27,27,27,27,27,27,27,27,27,27,27,27,27,
27,27,27,27,27,27,27,27,27,27,27,27,27,27,27,27,
27,27,27,27,27,27,27,27,27,27,27,27,27,27,27,27,
27,27,27,27,27,27,27,27,27,27,27,27,27,27,27,27,
27,27,27,27,27,27,27,27,27,27,27,27,27,27,27,27,
27,27,27,27,27,27,27,27,27,27,27,27,27,27,27,27,
27,27,27,27,27,27,27,27,27,27,27,27,27,27,27,27
</chunk>
   <chunk x="48" y="-80" width="16" height="16">
27,27,27,27,27,27,27,27,27,27,27,27,27,27,27,27,
27,27,27,27,27,27,27,27,27,27,27,27,27,27,27,27,
27,27,27,27,27,27,27,27,27,27,27,27,27,27,27,27,
27,27,27,27,27,27,27,27,27,27,27,27,27,27,27,27,
27,27,27,27,27,27,27,27,27,27,27,27,27,27,27,27,
27,27,27,27,27,27,27,27,27,27,27,27,27,27,27,27,
27,27,27,27,27,27,27,27,27,27,27,27,27,27,27,27,
27,27,27,27,27,27,27,27,27,27,27,27,27,27,27,27,
27,27,27,27,27,27,27,27,27,27,27,27,27,27,27,27,
27,27,27,27,27,27,27,27,27,27,27,27,27,27,27,27,
27,27,27,27,27,27,27,27,27,27,27,27,27,27,27,27,
27,27,27,27,27,27,27,27,27,27,27,27,27,27,27,27,
27,27,27,27,27,27,27,27,27,27,27,27,27,27,27,27,
27,27,27,27,27,27,27,27,27,27,27,27,27,27,27,27,
27,27,27,27,27,27,27,27,27,27,27,27,27,27,27,27,
27,27,27,27,27,27,27,27,27,27,27,27,27,27,27,27
</chunk>
   <chunk x="64" y="-80" width="16" height="16">
27,27,27,27,27,27,27,27,27,27,27,27,27,27,27,27,
27,27,27,27,27,27,27,27,27,27,27,27,27,27,27,27,
27,27,27,27,27,27,27,27,27,27,27,27,27,27,27,27,
27,27,27,27,27,27,27,27,27,27,27,27,27,27,27,27,
27,27,27,27,27,27,27,27,27,27,27,27,27,27,27,27,
27,27,27,27,27,27,27,27,27,27,27,27,27,27,27,27,
27,27,27,27,27,27,27,27,27,27,27,27,27,27,27,27,
27,27,27,27,27,27,27,27,27,27,27,27,27,27,27,27,
27,27,27,27,27,27,27,27,27,27,27,27,27,27,27,27,
27,27,27,27,27,27,27,27,27,27,27,27,27,27,27,27,
27,27,27,27,27,27,27,27,27,27,27,27,27,27,27,27,
27,27,27,27,27,27,27,27,27,27,27,27,27,27,27,27,
27,27,27,27,27,27,27,27,27,27,27,27,27,27,27,27,
27,27,27,27,27,27,27,27,27,27,27,27,27,27,27,27,
27,27,27,27,27,27,27,27,27,27,27,27,27,27,27,27,
27,27,27,27,27,27,27,27,27,27,27,27,27,27,27,27
</chunk>
   <chunk x="80" y="-80" width="16" height="16">
27,27,27,27,27,27,27,27,27,27,27,27,27,27,27,27,
27,27,27,27,27,27,27,27,27,27,27,27,27,27,27,27,
27,27,27,27,27,27,27,27,27,27,27,27,27,27,27,27,
27,27,27,27,27,27,27,27,27,27,27,27,27,27,27,27,
27,27,27,27,27,27,27,27,27,27,27,27,27,27,27,27,
27,27,27,27,27,27,27,27,27,27,27,27,27,27,27,27,
27,27,27,27,27,27,27,27,27,27,27,27,27,27,27,27,
27,27,27,27,27,27,27,27,27,27,27,27,27,27,27,27,
27,27,27,27,27,27,27,27,27,27,27,27,27,27,27,27,
27,27,27,27,27,27,27,27,27,27,27,27,27,27,27,27,
27,27,27,27,27,27,27,27,27,27,27,27,27,27,27,27,
27,27,27,27,27,27,27,27,27,27,27,27,27,27,27,27,
27,27,27,27,27,27,27,27,27,27,27,27,27,27,27,27,
27,27,27,27,27,27,27,27,27,27,27,27,27,27,27,27,
27,27,27,27,27,27,27,27,27,27,27,27,27,27,27,27,
27,27,27,27,27,27,27,27,27,27,27,27,27,27,27,27
</chunk>
   <chunk x="96" y="-80" width="16" height="16">
27,27,27,27,27,27,27,27,27,27,27,27,27,27,27,27,
27,27,27,27,27,27,27,27,27,27,27,27,27,27,27,27,
27,27,27,27,27,27,27,27,27,27,27,27,27,27,27,27,
27,27,27,27,27,27,27,27,27,27,27,27,27,27,27,27,
27,27,27,27,27,27,27,27,27,27,27,27,27,27,27,27,
27,27,27,27,27,27,27,27,27,27,27,27,27,27,27,27,
27,27,27,27,27,27,27,27,27,27,27,27,27,27,27,27,
27,27,27,27,27,27,27,27,27,27,27,27,27,27,27,27,
27,27,27,27,27,27,27,27,27,27,27,27,27,27,27,27,
27,27,27,27,27,27,27,27,27,27,27,27,27,27,27,27,
27,27,27,27,27,27,27,27,27,27,27,27,27,27,27,27,
27,27,27,27,27,27,27,27,27,27,27,27,27,27,27,27,
27,27,27,27,27,27,27,27,27,27,27,27,27,27,27,27,
27,27,27,27,27,27,27,27,27,27,27,27,27,27,27,27,
27,27,27,27,27,27,27,27,27,27,27,27,27,27,27,27,
27,27,27,27,27,0,27,27,27,27,27,27,27,27,27,27
</chunk>
   <chunk x="112" y="-80" width="16" height="16">
27,27,27,27,27,27,27,27,27,27,27,27,27,27,27,27,
27,27,27,27,27,27,27,27,27,27,27,27,27,27,27,27,
27,27,27,27,27,27,27,27,27,27,27,27,27,27,27,27,
27,27,27,27,27,27,27,27,27,27,27,27,27,27,27,27,
27,27,27,27,27,27,27,27,27,27,27,27,27,27,27,27,
27,27,27,27,27,27,27,27,27,27,27,27,27,27,27,27,
27,27,27,27,27,27,27,27,27,27,27,27,27,27,27,27,
27,27,27,27,27,27,27,27,27,27,27,27,27,27,27,27,
27,27,27,27,27,27,27,27,27,27,27,27,27,27,27,27,
27,27,27,27,27,27,27,27,27,27,27,27,27,27,27,27,
27,27,27,27,27,27,27,27,27,27,27,27,27,27,27,27,
27,27,27,27,27,27,27,27,27,27,27,27,27,27,27,27,
27,27,27,27,27,27,27,27,27,27,27,27,27,27,27,27,
27,27,27,27,27,27,27,27,27,27,27,27,27,27,27,27,
27,27,27,27,27,27,27,27,27,27,27,27,27,27,27,27,
27,27,27,27,27,27,27,27,27,27,27,27,27,27,27,27
</chunk>
   <chunk x="-48" y="-64" width="16" height="16">
27,27,27,27,27,27,27,27,27,27,27,27,27,27,27,27,
27,27,27,27,27,27,27,27,27,27,27,27,27,27,27,27,
27,27,27,27,27,27,27,27,27,27,27,27,27,27,27,27,
27,27,27,27,27,27,27,27,27,27,27,27,27,27,27,27,
27,27,27,27,27,27,27,27,27,27,27,27,27,27,27,27,
27,27,27,27,27,27,27,27,27,27,27,27,27,27,27,27,
27,27,27,27,27,27,27,27,27,27,27,27,27,27,27,27,
27,27,27,27,27,27,27,27,27,27,27,27,27,27,27,27,
27,27,27,27,27,27,27,27,27,27,27,27,27,27,27,27,
27,27,27,27,27,27,27,27,27,27,27,27,27,27,27,27,
27,27,27,27,27,27,27,27,27,27,27,27,27,27,27,27,
27,27,27,27,27,27,27,27,27,27,27,27,27,27,27,27,
27,27,27,27,27,27,27,27,27,27,27,27,27,27,27,27,
27,27,27,27,27,27,27,27,27,27,27,27,27,27,27,27,
27,27,27,27,27,27,27,27,27,27,27,27,27,27,27,27,
27,27,27,27,27,27,27,27,27,27,27,27,27,27,27,27
</chunk>
   <chunk x="-32" y="-64" width="16" height="16">
27,27,27,27,27,27,27,27,27,27,27,27,27,27,27,27,
27,27,27,27,27,27,27,27,27,27,27,27,27,27,27,27,
27,27,27,27,27,27,27,27,27,27,27,27,27,27,27,27,
27,27,27,27,27,27,27,27,27,27,27,27,27,27,27,27,
27,27,27,27,27,27,27,27,27,27,27,27,27,27,27,27,
27,27,27,27,27,27,27,27,27,27,27,27,27,27,27,27,
27,27,27,27,27,27,27,27,27,27,27,27,27,27,27,27,
27,27,27,27,27,27,27,27,27,27,27,27,27,27,27,27,
27,27,27,27,27,27,27,27,27,27,27,27,27,27,27,27,
27,27,27,27,27,27,27,27,27,27,27,27,27,27,27,27,
27,27,27,27,27,27,27,27,27,27,27,27,27,27,27,27,
27,27,27,27,27,27,27,27,27,27,27,27,27,27,27,27,
27,27,27,27,27,27,27,27,27,27,27,27,27,27,27,27,
27,27,27,27,27,27,27,27,27,27,27,27,27,27,27,27,
27,27,27,27,27,27,27,27,27,27,27,27,27,27,27,27,
27,27,27,27,27,27,27,27,27,27,27,27,27,27,27,27
</chunk>
   <chunk x="-16" y="-64" width="16" height="16">
27,27,27,27,27,27,27,27,27,27,27,27,27,27,27,27,
27,27,27,27,27,27,27,27,27,27,27,27,27,27,27,27,
27,27,27,27,27,27,27,27,27,27,27,27,27,27,27,27,
27,27,27,27,27,27,27,27,27,27,27,27,27,27,27,27,
27,27,27,27,27,27,27,27,27,27,27,27,27,27,27,27,
27,27,27,27,27,27,27,27,27,27,27,27,27,27,27,27,
27,27,27,27,27,27,27,27,27,27,27,27,27,27,27,27,
27,27,27,27,27,27,27,27,27,27,27,27,27,27,27,27,
27,27,27,27,27,27,27,27,27,27,27,27,27,27,27,27,
27,27,27,27,27,27,27,27,27,27,27,27,27,27,27,27,
27,27,27,27,27,27,27,27,27,27,27,27,27,27,27,27,
27,27,27,27,27,27,27,27,27,27,27,27,27,27,27,27,
27,27,27,27,27,27,27,27,27,27,27,27,27,27,27,27,
27,27,27,27,27,27,27,27,27,27,27,27,27,27,27,27,
27,27,27,27,27,27,27,27,27,27,27,27,27,27,27,27,
27,27,27,27,27,27,27,27,27,27,27,27,27,27,27,27
</chunk>
   <chunk x="0" y="-64" width="16" height="16">
27,27,27,27,27,27,27,27,27,27,27,27,27,27,27,27,
27,27,27,27,27,27,27,27,27,27,27,27,27,27,27,27,
27,27,27,27,27,27,27,27,27,27,27,27,27,27,27,27,
27,27,27,27,27,27,27,27,27,27,27,27,27,27,27,27,
27,27,27,27,27,27,27,27,27,27,27,27,27,27,27,27,
27,27,27,27,27,27,27,27,27,27,27,27,27,27,27,27,
27,27,27,27,27,27,27,27,27,27,27,27,27,27,27,27,
27,27,27,27,27,27,27,27,27,27,27,27,27,27,27,27,
27,27,27,27,27,27,27,27,27,27,27,27,27,27,27,27,
27,27,27,27,27,27,27,27,27,27,27,27,27,27,27,27,
27,27,27,27,27,27,27,27,27,27,27,27,27,27,27,27,
27,27,27,27,27,27,27,27,27,27,27,27,27,27,27,27,
27,27,27,27,27,27,27,27,27,27,27,27,27,27,27,27,
27,27,27,27,27,27,27,27,27,27,27,27,27,27,27,27,
27,27,27,27,27,27,27,27,27,27,27,27,27,27,27,27,
27,27,27,27,27,27,27,27,27,27,27,27,27,27,27,27
</chunk>
   <chunk x="16" y="-64" width="16" height="16">
27,27,27,27,27,27,27,27,27,27,27,27,27,27,27,27,
27,27,27,27,27,27,27,27,27,27,27,27,27,27,27,27,
27,27,27,27,27,27,27,27,27,27,27,27,27,27,27,27,
27,27,27,27,27,27,27,27,27,27,27,27,27,27,27,27,
27,27,27,27,27,27,27,27,27,27,27,27,27,27,27,27,
27,27,27,27,27,27,27,27,27,27,27,27,27,27,27,27,
27,27,27,27,27,27,27,27,27,27,27,27,27,27,27,27,
27,27,27,27,27,27,27,27,27,27,27,27,27,27,27,27,
27,27,27,27,27,27,27,27,27,27,27,27,27,27,27,27,
27,27,27,27,27,27,27,27,27,27,27,27,27,27,27,27,
27,27,27,27,27,27,27,27,27,27,27,27,27,27,27,27,
27,27,27,27,27,27,27,27,27,27,27,27,27,27,27,27,
27,27,27,27,27,27,27,27,27,27,27,27,27,27,27,27,
27,27,27,27,27,27,27,27,27,27,27,27,27,27,27,27,
27,27,27,27,27,27,27,27,27,27,27,27,27,27,27,27,
27,27,27,27,27,27,27,27,27,27,27,27,27,27,27,27
</chunk>
   <chunk x="32" y="-64" width="16" height="16">
27,27,27,27,27,27,27,27,27,27,27,27,27,27,27,27,
27,27,27,27,27,27,27,27,27,27,27,27,27,27,27,27,
27,27,27,27,27,27,27,27,27,27,27,27,27,27,27,27,
27,27,27,27,27,27,27,27,27,27,27,27,27,27,27,27,
27,27,27,27,27,27,27,27,27,27,27,27,27,27,27,27,
27,27,27,27,27,27,27,27,27,27,27,27,27,27,27,27,
27,27,27,27,27,27,27,27,27,27,27,27,27,27,27,27,
27,27,27,27,27,27,27,27,27,27,27,27,27,27,27,27,
27,27,27,27,27,27,27,27,27,27,27,27,27,27,27,27,
27,27,27,27,27,27,27,27,27,27,27,27,27,27,27,27,
27,27,27,27,27,27,27,27,27,27,27,27,27,27,27,27,
27,27,27,27,27,27,27,27,27,27,27,27,27,27,27,27,
27,27,27,27,27,27,27,27,27,27,27,27,27,27,27,27,
27,27,27,27,27,27,27,27,27,27,27,27,27,27,27,27,
27,27,27,27,27,27,27,27,27,27,27,27,27,27,27,27,
27,27,27,27,27,27,27,27,27,27,27,27,27,27,27,27
</chunk>
   <chunk x="48" y="-64" width="16" height="16">
27,27,27,27,27,27,27,27,27,27,27,27,27,27,27,27,
27,27,27,27,27,27,27,27,27,27,27,27,27,27,27,27,
27,27,27,27,27,27,27,27,27,27,27,27,27,27,27,27,
27,27,27,27,27,27,27,27,27,27,27,27,27,27,27,27,
27,27,27,27,27,27,27,27,27,27,27,27,27,27,27,27,
27,27,27,27,27,27,27,27,27,27,27,27,27,27,27,27,
27,27,27,27,27,27,27,27,27,27,27,27,27,27,27,27,
27,27,27,27,27,27,27,27,27,27,27,27,27,27,27,27,
27,27,27,27,27,27,27,27,27,27,27,27,27,27,27,27,
27,27,27,27,27,27,27,27,27,27,27,27,27,27,27,27,
27,27,27,27,27,27,27,27,27,27,27,27,27,27,27,27,
27,27,27,27,27,27,27,27,27,27,27,27,27,27,27,27,
27,27,27,27,27,27,27,27,27,27,27,27,27,27,27,27,
27,27,27,27,27,27,27,27,27,27,27,27,27,27,27,27,
27,27,27,27,27,27,27,27,27,27,27,27,27,27,27,27,
27,27,27,27,27,27,27,27,27,27,27,27,27,27,27,27
</chunk>
   <chunk x="64" y="-64" width="16" height="16">
27,27,27,27,27,27,27,27,27,27,27,27,27,27,27,27,
27,27,27,27,27,27,27,27,27,27,27,27,27,27,27,27,
27,27,27,27,27,27,27,27,27,27,27,27,27,27,27,27,
27,27,27,27,27,27,27,27,27,27,27,27,27,27,27,27,
27,27,27,27,27,27,27,27,27,27,27,27,27,27,27,27,
27,27,27,27,27,27,27,27,27,27,27,27,27,27,27,27,
27,27,27,27,27,27,27,27,27,27,27,27,27,27,27,27,
27,27,27,27,27,27,27,27,27,27,27,27,27,27,27,27,
27,27,27,27,27,27,27,27,27,27,27,27,27,27,27,27,
27,27,27,27,27,27,27,27,27,27,27,27,27,27,27,27,
27,27,27,27,27,27,27,27,27,27,27,27,27,27,27,27,
27,27,27,27,27,27,27,27,27,27,27,27,27,27,27,27,
27,27,27,27,27,27,27,27,27,27,27,27,27,27,27,27,
27,27,27,27,27,27,27,27,27,27,27,27,27,27,27,27,
27,27,27,27,27,27,27,27,27,27,27,27,27,27,27,27,
27,27,27,27,27,27,27,27,27,27,27,27,27,27,27,27
</chunk>
   <chunk x="80" y="-64" width="16" height="16">
27,27,27,27,27,27,27,27,27,27,27,27,27,27,27,27,
27,27,27,27,27,27,27,27,27,27,27,27,27,27,27,27,
27,27,27,27,27,27,27,27,27,27,27,27,27,27,27,27,
27,27,27,27,27,27,27,27,27,27,27,27,27,27,27,27,
27,27,27,27,27,27,27,27,27,27,27,27,27,27,27,27,
27,27,27,27,27,27,27,27,27,27,27,27,27,27,27,27,
27,27,27,27,27,27,27,27,27,27,27,27,27,27,27,27,
27,27,27,27,27,27,27,27,27,27,27,27,27,27,27,27,
27,27,27,27,27,27,27,27,27,27,27,27,27,27,27,27,
27,27,27,27,27,27,27,27,27,27,27,27,27,27,27,27,
27,27,27,27,27,27,27,27,27,27,27,27,27,27,27,27,
27,27,27,27,27,27,27,27,27,27,27,27,27,27,27,27,
27,27,27,27,27,27,27,27,27,27,27,27,27,27,27,27,
27,27,27,27,27,27,27,27,27,27,27,27,27,27,27,27,
27,27,27,27,27,27,27,27,27,27,27,27,27,27,27,27,
27,27,27,27,27,27,27,27,27,27,27,27,27,27,27,27
</chunk>
   <chunk x="96" y="-64" width="16" height="16">
27,27,27,27,0,0,27,27,27,27,27,27,27,27,27,27,
27,27,27,0,0,27,27,27,27,27,27,27,27,27,27,27,
27,27,27,0,0,27,27,27,27,27,27,27,27,27,27,27,
27,27,27,27,0,0,27,27,27,27,27,27,27,27,27,27,
27,27,27,27,0,0,27,27,27,27,27,27,27,27,27,27,
27,27,27,27,0,0,27,27,27,27,27,27,27,27,27,27,
27,27,27,27,0,0,27,27,27,27,27,27,27,27,27,27,
27,27,27,27,0,0,27,27,27,27,27,27,27,27,27,27,
27,27,27,27,0,0,27,27,27,27,27,27,27,27,27,27,
27,27,27,27,0,0,0,27,27,27,27,27,27,27,27,27,
27,27,27,27,0,0,0,27,27,27,27,27,27,27,27,27,
27,27,27,27,0,0,0,27,27,27,27,27,27,27,27,27,
27,27,27,27,0,0,0,27,27,27,27,27,27,27,27,27,
27,27,27,27,0,0,0,27,27,27,27,27,27,27,27,27,
27,27,27,27,0,0,0,27,27,27,27,27,27,27,27,27,
27,27,27,27,0,0,0,0,27,27,27,27,27,27,27,27
</chunk>
   <chunk x="112" y="-64" width="16" height="16">
27,27,27,27,27,27,27,27,27,27,27,27,27,27,27,27,
27,27,27,27,27,27,27,27,27,27,27,27,27,27,27,27,
27,27,27,27,27,27,27,27,27,27,27,27,27,27,27,27,
27,27,27,27,27,27,27,27,27,27,27,27,27,27,27,27,
27,27,27,27,27,27,27,27,27,27,27,27,27,27,27,27,
27,27,27,27,27,27,27,27,27,27,27,27,27,27,27,27,
27,27,27,27,27,27,27,27,27,27,27,27,27,27,27,27,
27,27,27,27,27,27,27,27,27,27,27,27,27,27,27,27,
27,27,27,27,27,27,27,27,27,27,27,27,27,27,27,27,
27,27,27,27,27,27,27,27,27,27,27,27,27,27,27,27,
27,27,27,27,27,27,27,27,27,27,27,27,27,27,27,27,
27,27,27,27,27,27,27,27,27,27,27,27,27,27,27,27,
27,27,27,27,27,27,27,27,27,27,27,27,27,27,27,27,
27,27,27,27,27,27,27,27,27,27,27,27,27,27,27,27,
27,27,27,27,27,27,27,27,27,27,27,27,27,27,27,27,
27,27,27,27,27,27,27,27,27,27,27,27,27,27,27,27
</chunk>
   <chunk x="-80" y="-48" width="16" height="16">
0,0,0,0,0,0,0,0,0,0,0,0,0,0,0,0,
0,0,0,0,0,0,0,0,0,0,0,0,0,0,0,0,
0,0,0,0,0,0,0,0,0,0,0,0,0,0,0,0,
0,0,0,0,0,0,0,0,0,0,0,0,0,0,0,0,
0,0,0,0,0,0,0,0,0,0,0,0,0,0,0,0,
0,0,0,0,0,0,0,0,0,0,0,0,0,0,0,0,
0,0,0,0,0,0,0,0,0,0,0,0,0,0,0,0,
0,0,0,0,0,0,0,0,0,0,0,0,0,0,0,0,
0,0,0,0,0,0,0,0,0,0,21,21,21,21,21,21,
0,0,0,0,0,0,0,0,0,0,21,21,21,21,21,21,
0,0,0,0,0,0,0,0,0,0,21,21,21,21,21,21,
0,0,0,0,0,0,0,0,0,0,21,21,21,21,21,21,
0,0,0,0,0,0,0,0,0,0,21,21,21,21,21,21,
0,0,0,0,0,0,0,0,0,0,21,21,21,21,21,21,
0,0,0,0,0,0,0,0,0,0,21,21,21,21,21,21,
0,0,0,0,0,0,0,0,0,0,21,21,21,21,21,21
</chunk>
   <chunk x="-64" y="-48" width="16" height="16">
0,0,0,0,0,0,0,0,0,0,0,0,0,0,0,0,
0,0,0,0,0,0,0,0,0,0,0,0,0,0,0,0,
0,0,0,0,0,0,0,0,0,0,0,0,0,0,0,0,
0,0,0,0,0,0,0,0,0,0,0,0,0,0,0,0,
0,0,0,0,0,0,0,0,0,0,0,0,0,0,0,0,
0,0,0,0,0,0,0,0,0,0,0,0,0,0,0,0,
0,0,0,0,0,0,0,0,0,0,0,0,0,0,0,0,
0,0,0,0,0,0,0,0,0,0,0,0,0,0,0,0,
21,21,21,21,21,21,21,21,21,21,21,21,21,21,21,21,
21,21,21,21,21,21,21,21,21,21,21,21,21,21,21,21,
21,21,21,21,21,21,21,21,21,21,21,21,21,21,21,21,
21,21,21,21,21,21,21,21,21,21,21,21,21,21,21,21,
21,21,21,21,21,21,21,21,21,21,21,21,21,21,21,21,
21,21,21,21,21,21,21,21,21,21,21,21,21,21,21,21,
21,21,21,21,21,21,21,21,21,21,21,21,21,21,21,21,
21,21,21,21,21,21,21,21,21,21,21,21,21,21,21,21
</chunk>
   <chunk x="-48" y="-48" width="16" height="16">
27,27,27,27,27,27,27,27,27,27,27,27,27,27,27,27,
27,27,27,27,27,27,27,27,27,27,27,27,27,27,27,27,
27,27,27,27,27,27,27,27,27,27,27,27,27,27,27,27,
27,27,27,27,27,27,27,27,27,27,27,27,27,27,27,27,
27,27,27,27,27,27,27,27,27,27,27,27,27,27,27,27,
27,27,27,27,27,27,27,27,27,27,27,27,27,27,27,27,
27,27,27,27,27,27,27,27,27,27,27,27,27,27,27,27,
0,0,0,0,0,0,0,0,0,0,0,0,0,0,0,0,
21,21,21,21,21,21,21,21,21,21,21,21,21,21,21,21,
21,21,21,21,21,21,21,21,21,21,21,21,21,21,21,21,
21,21,21,21,21,21,21,21,21,21,21,21,21,21,21,21,
21,21,21,21,21,21,21,21,21,21,21,21,21,21,21,21,
21,21,21,21,21,21,21,21,21,21,21,21,21,21,21,21,
21,21,21,21,21,21,21,21,21,21,21,21,21,21,21,21,
21,21,21,21,21,21,21,21,21,21,21,21,21,21,21,21,
21,21,21,21,21,21,21,21,21,21,21,21,21,21,21,21
</chunk>
   <chunk x="-32" y="-48" width="16" height="16">
27,27,27,27,27,27,27,27,27,27,27,27,27,27,27,27,
27,27,27,27,27,27,27,27,27,27,27,27,27,27,27,27,
27,27,27,27,27,27,27,27,27,27,27,27,27,27,27,27,
27,27,27,27,27,27,27,27,27,27,27,27,27,27,27,27,
27,27,27,27,27,27,27,27,27,27,27,27,27,27,27,27,
27,27,27,27,27,27,27,27,27,27,27,27,27,27,27,27,
27,27,27,27,27,27,27,27,27,27,27,27,27,27,27,27,
0,0,0,0,0,0,0,0,0,0,0,0,0,0,0,0,
21,21,21,21,21,21,21,21,21,21,21,21,21,21,21,21,
21,21,21,21,21,21,21,21,21,21,21,21,21,21,21,21,
21,21,21,21,21,21,21,21,21,21,21,21,21,21,21,21,
21,21,21,21,21,21,21,21,21,21,21,21,21,21,21,21,
21,21,21,21,21,21,21,21,21,21,21,21,21,21,21,21,
21,21,21,21,21,21,21,21,21,21,21,21,21,21,21,21,
21,21,21,21,21,21,21,21,21,21,21,21,21,21,21,21,
21,21,21,21,21,21,21,21,21,21,21,21,21,21,21,21
</chunk>
   <chunk x="-16" y="-48" width="16" height="16">
27,27,27,27,27,27,27,27,27,27,27,27,27,27,27,27,
27,27,27,27,27,27,27,27,27,27,27,27,27,27,27,27,
27,27,27,27,27,27,27,27,27,27,27,27,27,27,27,27,
27,27,27,27,27,27,27,27,27,27,27,27,27,27,27,27,
27,27,27,27,27,27,27,27,27,27,27,27,27,27,27,27,
27,0,0,0,0,0,0,0,0,0,0,0,0,0,0,27,
0,0,0,0,0,0,0,0,0,0,0,0,0,0,0,0,
0,0,0,0,0,0,0,0,0,0,0,0,0,0,0,0,
21,21,21,21,21,21,21,21,21,21,21,21,21,21,21,21,
21,21,21,21,21,21,21,21,21,21,21,21,21,21,21,21,
21,21,21,21,21,21,21,21,21,21,21,21,21,21,21,21,
21,21,21,21,21,21,21,21,21,21,21,21,21,21,21,21,
21,21,21,21,21,21,21,21,21,21,21,21,21,21,21,21,
21,21,21,21,21,21,21,21,21,21,21,21,21,21,21,21,
21,21,21,21,21,21,21,21,21,21,21,21,21,21,21,21,
21,21,21,21,21,21,21,21,21,21,21,21,21,21,21,21
</chunk>
   <chunk x="0" y="-48" width="16" height="16">
27,27,27,27,27,27,27,27,27,27,27,27,27,27,27,27,
27,27,27,27,27,27,27,27,27,27,27,27,27,27,27,27,
27,27,27,27,27,27,27,27,27,27,27,27,27,27,27,27,
27,27,27,27,27,27,27,27,27,27,27,27,27,27,27,27,
27,27,27,27,27,27,27,27,27,27,27,27,27,27,27,27,
27,27,27,27,27,27,27,27,27,27,27,27,27,27,27,27,
27,27,27,27,27,27,27,27,27,27,27,27,27,27,27,27,
0,0,0,0,0,0,0,0,0,0,0,0,0,0,0,0,
21,21,21,21,21,21,21,21,21,21,21,21,21,21,21,21,
21,21,21,21,21,21,21,21,21,21,21,21,21,21,21,21,
21,21,21,21,21,21,21,21,21,21,21,21,21,21,21,21,
21,21,21,21,21,21,21,21,21,21,21,21,21,21,21,21,
21,21,21,21,21,21,21,21,21,21,21,21,21,21,21,21,
21,21,21,21,21,21,21,21,21,21,21,21,21,21,21,21,
21,21,21,21,21,21,21,21,21,21,21,21,21,21,21,21,
21,21,21,21,21,21,21,21,21,21,21,21,21,21,21,21
</chunk>
   <chunk x="16" y="-48" width="16" height="16">
27,27,27,27,27,27,27,27,27,27,27,27,27,27,27,27,
27,27,27,27,27,27,27,27,27,27,27,27,27,27,27,27,
27,27,27,27,27,27,27,27,27,27,27,27,27,27,27,27,
27,27,27,27,27,27,27,27,27,27,27,27,27,27,27,27,
27,27,27,27,27,27,27,27,27,27,27,27,27,27,27,27,
27,27,27,27,27,27,27,27,27,27,27,27,27,27,27,27,
27,27,27,27,27,27,27,27,27,27,27,27,27,27,27,27,
0,0,0,0,0,0,0,0,0,0,0,0,0,0,0,0,
21,21,21,21,21,21,21,21,21,21,21,21,21,21,21,21,
21,21,21,21,21,21,21,21,21,21,21,21,21,21,21,21,
21,21,21,21,21,21,21,21,21,21,21,21,21,21,21,21,
21,21,21,21,21,21,21,21,21,21,21,21,21,21,21,21,
21,21,21,21,21,21,21,21,21,21,21,21,21,21,21,21,
21,21,21,21,21,21,21,21,21,21,21,21,21,21,21,21,
21,21,21,21,21,21,21,21,21,21,21,21,21,21,21,21,
21,21,21,21,21,21,21,21,21,21,21,21,21,21,21,21
</chunk>
   <chunk x="32" y="-48" width="16" height="16">
27,27,27,27,27,27,27,27,27,27,27,27,27,27,27,27,
27,27,27,27,27,27,27,27,27,27,27,27,27,27,27,27,
27,27,27,27,27,27,27,27,27,27,27,27,27,27,27,27,
27,27,27,27,27,27,27,27,27,27,27,27,27,27,27,27,
27,27,27,27,27,27,27,27,27,27,27,27,27,27,27,27,
27,27,27,27,27,27,27,27,27,27,27,27,27,27,27,27,
27,27,27,27,27,27,27,27,27,27,27,27,27,27,27,27,
0,0,0,0,0,0,0,0,0,0,0,0,0,0,0,0,
21,21,21,21,21,21,21,21,21,21,21,21,21,21,21,21,
21,21,21,21,21,21,21,21,21,21,21,21,21,21,21,21,
21,21,21,21,21,21,21,21,21,21,21,21,21,21,21,21,
21,21,21,21,21,21,21,21,21,21,21,21,21,21,21,21,
21,21,21,21,21,21,21,21,21,21,21,21,21,21,21,21,
21,21,21,21,21,21,21,21,21,21,21,21,21,21,21,21,
21,21,21,21,21,21,21,21,21,21,21,21,21,21,21,21,
21,21,21,21,21,21,21,21,21,21,21,21,21,21,21,21
</chunk>
   <chunk x="48" y="-48" width="16" height="16">
27,27,27,27,27,27,27,27,27,27,27,27,27,27,27,27,
27,27,27,27,27,27,27,27,27,27,27,27,27,27,27,27,
27,27,27,27,27,27,27,27,27,27,27,27,27,27,27,27,
27,27,27,27,27,27,27,27,27,27,27,27,27,27,27,27,
27,27,27,27,27,27,27,27,27,27,27,27,27,27,27,27,
27,27,27,27,27,27,27,27,27,27,27,27,27,27,27,27,
27,27,27,27,27,27,27,27,27,27,27,27,27,27,27,27,
0,0,0,0,0,0,0,0,0,0,0,0,0,0,0,0,
21,21,21,21,21,21,21,21,21,21,21,21,21,21,21,21,
21,21,21,21,21,21,21,21,21,21,21,21,21,21,21,21,
21,21,21,21,21,21,21,21,21,21,21,21,21,21,21,21,
21,21,21,21,21,21,21,21,21,21,21,21,21,21,21,21,
21,21,21,21,21,21,21,21,21,21,21,21,21,21,21,21,
21,21,21,21,21,21,21,21,21,21,21,21,21,21,21,21,
21,21,21,21,21,21,21,21,21,21,21,21,21,21,21,21,
21,21,21,21,21,21,21,21,21,21,21,21,21,21,21,21
</chunk>
   <chunk x="64" y="-48" width="16" height="16">
27,27,27,27,27,27,27,27,27,27,27,27,27,27,27,27,
27,27,27,27,27,27,27,27,27,27,27,27,27,27,27,27,
27,27,27,27,27,27,27,27,27,27,27,27,27,27,27,27,
27,27,27,27,27,27,27,27,27,27,27,27,27,27,27,27,
27,27,27,27,27,27,27,27,27,27,27,27,27,27,27,27,
27,27,27,27,27,27,27,27,27,27,27,27,27,27,27,27,
27,27,27,27,27,27,27,27,27,27,27,27,27,27,27,27,
0,0,0,0,0,0,0,0,0,0,0,0,0,0,0,0,
21,21,21,21,21,21,21,21,21,21,21,21,21,21,21,21,
21,21,21,21,21,21,21,21,21,21,21,21,21,21,21,21,
21,21,21,21,21,21,21,21,21,21,21,21,21,21,21,21,
21,21,21,21,21,21,21,21,21,21,21,21,21,21,21,21,
21,21,21,21,21,21,21,21,21,21,21,21,21,21,21,21,
21,21,21,21,21,21,21,21,21,21,21,21,21,21,21,21,
21,21,21,21,21,21,21,21,21,21,21,21,21,21,21,21,
21,21,21,21,21,21,21,21,21,21,21,21,21,21,21,21
</chunk>
   <chunk x="80" y="-48" width="16" height="16">
27,27,27,27,27,27,27,27,27,27,27,27,27,27,27,27,
27,27,27,27,27,27,27,27,27,27,27,27,27,27,27,27,
27,27,27,27,27,27,27,27,27,27,27,27,27,27,27,27,
27,27,27,27,27,27,27,27,27,27,27,27,27,27,27,27,
27,27,27,27,27,27,27,27,27,27,27,27,27,27,27,27,
27,27,27,27,27,0,0,0,0,0,0,0,0,0,0,0,
27,27,27,27,27,27,27,27,27,0,0,0,0,0,0,0,
0,0,0,0,0,0,0,0,0,0,0,0,0,0,0,0,
21,21,21,21,21,21,21,21,21,21,21,21,21,21,21,21,
21,21,21,21,21,21,21,21,21,21,21,21,21,21,21,21,
21,21,21,21,21,21,21,21,21,21,21,21,21,21,21,21,
21,21,21,21,21,21,21,21,21,21,21,21,21,21,21,21,
21,21,21,21,21,21,21,21,21,21,21,21,21,21,21,21,
21,21,21,21,21,21,21,21,21,21,21,21,21,21,21,21,
21,21,21,21,21,21,21,21,21,21,21,21,21,21,21,21,
21,21,21,21,21,21,21,21,21,21,21,21,21,21,21,21
</chunk>
   <chunk x="96" y="-48" width="16" height="16">
27,27,27,27,0,0,0,0,27,27,27,27,27,27,27,27,
27,27,27,27,0,0,0,0,27,27,27,27,27,27,27,27,
27,27,27,27,0,0,0,0,27,27,27,27,27,27,27,27,
27,27,27,27,0,0,0,0,27,27,27,27,27,27,27,27,
27,27,27,27,0,0,0,0,0,27,27,27,27,27,27,27,
0,0,0,27,0,0,0,0,0,0,27,27,27,27,27,27,
0,0,0,27,0,0,0,0,0,0,0,27,27,27,27,27,
0,0,0,0,0,0,0,0,0,27,27,27,27,27,27,27,
21,21,21,21,21,21,21,21,21,21,21,21,21,21,27,27,
21,21,21,21,21,21,21,21,21,21,21,21,21,21,27,27,
21,21,21,21,21,21,21,21,21,21,21,21,21,21,27,27,
21,21,21,21,21,21,21,21,21,21,21,21,21,21,27,27,
21,21,21,21,21,21,21,21,21,21,21,21,21,21,27,27,
21,21,21,21,21,21,21,21,21,21,21,21,21,21,27,27,
21,21,21,21,21,21,21,21,21,21,21,21,21,21,27,27,
21,21,21,21,21,21,21,21,21,21,21,21,21,21,27,27
</chunk>
   <chunk x="112" y="-48" width="16" height="16">
27,27,27,27,27,27,27,27,27,27,27,27,27,27,27,27,
27,27,27,27,27,27,27,27,27,27,27,27,27,27,27,27,
27,27,27,27,27,27,27,27,27,27,27,27,27,27,27,27,
27,27,27,27,27,27,27,27,27,27,27,27,27,27,27,27,
27,27,27,27,27,27,27,27,27,27,27,27,27,27,27,27,
27,27,27,27,27,27,27,27,27,27,27,27,27,27,27,27,
27,27,27,27,27,27,27,27,27,27,27,27,27,27,27,27,
27,27,27,27,27,27,27,27,27,27,27,27,27,27,27,27,
27,27,27,27,27,27,27,27,27,27,27,27,27,27,27,27,
27,27,27,27,27,27,27,27,27,27,27,27,27,27,27,27,
27,27,27,27,27,27,27,27,27,27,27,27,27,27,27,27,
27,27,27,27,27,27,27,27,27,27,27,27,27,27,27,27,
27,27,27,27,27,27,27,27,27,27,27,27,27,27,27,27,
27,27,27,27,27,27,27,27,27,27,27,27,27,27,27,27,
27,27,27,27,27,27,27,27,27,27,27,27,27,27,27,27,
27,27,27,27,27,27,27,27,27,27,27,27,27,27,27,27
</chunk>
   <chunk x="-80" y="-32" width="16" height="16">
0,0,0,0,0,0,0,0,0,0,21,21,21,21,21,21,
0,0,0,0,0,0,0,0,0,0,21,21,21,21,21,21,
0,0,0,0,0,0,0,0,0,0,21,21,21,21,21,21,
0,0,0,0,0,0,0,0,0,0,21,21,21,21,21,21,
0,0,0,0,0,0,0,0,0,0,21,21,21,21,21,21,
0,0,0,0,0,0,0,0,0,0,21,21,21,21,21,21,
0,0,0,0,0,0,0,0,0,0,21,21,21,21,21,21,
0,0,0,0,0,0,0,0,0,0,21,21,21,21,21,21,
0,0,0,0,0,0,0,0,0,0,21,21,21,21,21,21,
0,0,0,0,0,0,0,0,0,0,21,21,21,21,21,21,
0,0,0,0,0,0,0,0,0,0,21,21,21,21,21,21,
0,0,0,0,0,0,0,0,0,0,21,21,21,21,21,21,
0,0,0,0,0,0,0,0,0,0,21,21,21,21,21,21,
0,0,0,0,0,0,0,0,0,0,21,21,21,21,21,21,
0,0,0,0,0,0,0,0,0,0,21,21,21,21,21,21,
0,0,0,0,0,0,0,0,0,0,21,21,21,21,21,21
</chunk>
   <chunk x="-64" y="-32" width="16" height="16">
21,21,21,21,21,21,21,21,21,21,21,21,21,21,21,21,
21,21,21,21,21,21,21,21,21,21,21,21,21,21,21,21,
21,21,21,21,21,21,21,21,21,21,21,21,21,21,21,21,
21,21,21,21,21,21,21,21,21,21,21,21,21,21,21,21,
21,21,21,21,21,21,21,21,21,21,21,21,21,21,21,21,
21,21,21,21,21,21,21,21,21,21,21,21,21,21,21,21,
21,21,21,21,21,21,21,21,21,21,21,21,21,21,21,21,
21,21,21,21,21,21,21,21,21,21,21,21,21,21,21,21,
21,21,21,21,21,21,21,21,21,21,21,21,21,21,21,21,
21,21,21,21,21,21,21,21,21,21,21,21,21,21,21,21,
21,21,21,21,21,21,21,21,21,21,21,21,21,21,21,21,
21,21,21,21,21,21,21,21,21,21,21,21,21,21,21,21,
21,21,21,21,21,21,21,21,21,21,21,21,21,21,21,21,
21,21,21,21,21,21,21,21,21,21,21,21,21,21,21,21,
21,21,21,21,21,21,21,21,21,21,21,21,21,21,21,21,
21,21,21,21,21,21,21,21,21,21,21,21,21,21,21,21
</chunk>
   <chunk x="-48" y="-32" width="16" height="16">
21,21,21,21,21,21,21,21,21,21,21,21,21,21,21,21,
21,21,21,21,21,21,21,21,21,21,21,21,21,21,21,21,
21,21,21,21,21,21,21,21,21,21,21,21,21,21,21,21,
21,21,21,21,21,21,21,21,21,21,21,21,21,21,21,21,
21,21,21,21,21,21,21,21,21,21,21,21,21,21,21,21,
21,21,21,21,21,21,21,21,21,21,21,21,21,21,21,21,
21,21,21,21,21,21,21,21,21,21,21,21,21,21,21,21,
21,21,21,21,21,21,21,21,21,21,21,21,21,21,21,21,
21,21,21,21,21,21,21,21,21,21,21,21,21,21,21,21,
21,21,21,21,21,21,21,21,21,21,21,21,21,21,21,21,
21,21,21,21,21,21,21,21,21,21,21,21,21,21,21,21,
21,21,21,21,21,21,21,21,21,21,21,21,21,21,21,21,
21,21,21,21,21,21,21,21,21,21,21,21,21,21,21,21,
21,21,21,21,21,21,21,21,21,21,21,21,21,21,21,21,
21,21,21,21,21,21,21,21,21,21,21,21,21,21,21,21,
21,21,21,21,21,21,21,21,21,21,21,21,21,21,21,21
</chunk>
   <chunk x="-32" y="-32" width="16" height="16">
21,21,21,21,21,21,21,21,21,21,21,21,21,21,21,21,
21,21,21,21,21,21,21,21,21,21,21,21,21,21,21,21,
21,21,21,21,21,21,21,21,21,21,21,21,21,21,21,21,
21,21,21,21,21,21,21,21,21,21,21,21,21,21,21,21,
21,21,21,21,21,21,21,21,21,21,21,21,21,21,21,21,
21,21,21,21,21,21,21,21,21,21,21,21,21,21,21,21,
21,21,21,21,21,21,21,21,21,21,21,21,21,21,21,21,
21,21,21,21,21,21,21,21,21,21,21,21,21,21,21,21,
21,21,21,21,21,21,21,21,21,21,21,21,21,21,21,21,
21,21,21,21,21,21,21,21,21,21,21,21,21,21,21,21,
21,21,21,21,21,21,21,21,21,21,21,21,21,21,21,21,
21,21,21,21,21,21,21,21,21,21,21,21,21,21,21,21,
21,21,21,21,21,21,21,21,21,21,21,21,21,21,21,21,
21,21,21,21,21,21,21,21,21,21,21,21,21,21,21,21,
21,21,21,21,21,21,21,21,21,21,21,21,21,21,21,21,
21,21,21,21,21,21,21,21,21,21,21,21,21,21,21,21
</chunk>
   <chunk x="-16" y="-32" width="16" height="16">
21,21,21,21,21,21,21,21,21,21,21,21,21,21,21,21,
21,21,21,21,21,21,21,21,21,21,21,21,21,21,21,21,
21,21,21,21,21,21,21,21,21,21,21,21,21,21,21,21,
21,21,21,21,21,21,21,21,21,21,21,21,21,21,21,21,
21,21,21,21,21,21,21,21,21,21,21,21,21,21,21,21,
21,21,21,21,21,21,21,21,21,21,21,21,21,21,21,21,
21,21,21,21,21,21,21,21,21,21,21,21,21,21,21,21,
21,21,21,21,21,21,21,21,21,21,21,21,21,21,21,21,
21,21,21,21,21,21,21,21,21,21,21,21,21,21,21,21,
21,21,21,21,21,21,21,21,21,21,21,21,21,21,21,21,
21,21,21,21,21,21,21,21,21,21,21,21,21,21,21,21,
21,21,21,21,21,21,21,21,21,21,21,21,21,21,21,21,
21,21,21,21,21,21,21,21,21,21,21,21,21,21,21,21,
21,21,21,21,21,21,21,21,21,21,21,21,21,21,21,21,
21,21,21,21,21,21,21,21,21,21,21,21,21,21,21,21,
21,21,21,21,21,21,21,21,21,21,21,21,21,21,21,21
</chunk>
   <chunk x="0" y="-32" width="16" height="16">
21,21,21,21,21,21,21,21,21,21,21,21,21,21,21,21,
21,21,21,21,21,21,21,21,21,21,21,21,21,21,21,21,
21,21,21,21,21,21,21,21,21,21,21,21,21,21,21,21,
21,21,21,21,21,21,21,21,21,21,21,21,21,21,21,21,
21,21,21,21,21,21,21,21,21,21,21,21,21,21,21,21,
21,21,21,21,21,21,21,21,21,21,21,21,21,21,21,21,
21,21,21,21,21,21,21,21,21,21,21,21,21,21,21,21,
21,21,21,21,21,21,21,21,21,21,21,21,21,21,21,21,
21,21,21,21,21,21,21,21,21,21,21,21,21,21,21,21,
21,21,21,21,21,21,21,21,21,21,21,21,21,21,21,21,
21,21,21,21,21,21,21,21,21,21,21,21,21,21,21,21,
21,21,21,21,21,21,21,21,21,21,21,21,21,21,21,21,
21,21,21,21,21,21,21,21,21,21,21,21,21,21,21,21,
21,21,21,21,21,21,21,21,21,21,21,21,21,21,21,21,
21,21,21,21,21,21,21,21,21,21,21,21,21,21,21,21,
21,21,21,21,21,21,21,21,21,21,21,21,21,21,21,21
</chunk>
   <chunk x="16" y="-32" width="16" height="16">
21,21,21,21,21,21,21,21,21,21,21,21,21,21,21,21,
21,21,21,21,21,21,21,21,21,21,21,21,21,21,21,21,
21,21,21,21,21,21,21,21,21,21,21,21,21,21,21,21,
21,21,21,21,21,21,21,21,21,21,21,21,21,21,21,21,
21,21,21,21,21,21,21,21,21,21,21,21,21,21,21,21,
21,21,21,21,21,21,21,21,21,21,21,21,21,21,21,21,
21,21,21,21,21,21,21,21,21,21,21,21,21,21,21,21,
21,21,21,21,21,21,21,21,21,21,21,21,21,21,21,21,
21,21,21,21,21,21,21,21,21,21,21,21,21,21,21,21,
21,21,21,21,21,21,21,21,21,21,21,21,21,21,21,21,
21,21,21,21,21,21,21,21,21,21,21,21,21,21,21,21,
21,21,21,21,21,21,21,21,21,21,21,21,21,21,21,21,
21,21,21,21,21,21,21,21,21,21,21,21,21,21,21,21,
21,21,21,21,21,21,21,21,21,21,21,21,21,21,21,21,
21,21,21,21,21,21,21,21,21,21,21,21,21,21,21,21,
21,21,21,21,21,21,21,21,21,21,21,21,21,21,21,21
</chunk>
   <chunk x="32" y="-32" width="16" height="16">
21,21,21,21,21,21,21,21,21,21,21,21,21,21,21,21,
21,21,21,21,21,21,21,21,21,21,21,21,21,21,21,21,
21,21,21,21,21,21,21,21,21,21,21,21,21,21,21,21,
21,21,21,21,21,21,21,21,21,21,21,21,21,21,21,21,
21,21,21,21,21,21,21,21,21,21,21,21,21,21,21,21,
21,21,21,21,21,21,21,21,21,21,21,21,21,21,21,21,
21,21,21,21,21,21,21,21,21,21,21,21,21,21,21,21,
21,21,21,21,21,21,21,21,21,21,21,21,21,21,21,21,
21,21,21,21,21,21,21,21,21,21,21,21,21,21,21,21,
21,21,21,21,21,21,21,21,21,21,21,21,21,21,21,21,
21,21,21,21,21,21,21,21,21,21,21,21,21,21,21,21,
21,21,21,21,21,21,21,21,21,21,21,21,21,21,21,21,
21,21,21,21,21,21,21,21,21,21,21,21,21,21,21,21,
21,21,21,21,21,21,21,21,21,21,21,21,21,21,21,21,
21,21,21,21,21,21,21,21,21,21,21,21,21,21,21,21,
21,21,21,21,21,21,21,21,21,21,21,21,21,21,21,21
</chunk>
   <chunk x="48" y="-32" width="16" height="16">
21,21,21,21,21,21,21,21,21,21,21,21,21,21,21,21,
21,21,21,21,21,21,21,21,21,21,21,21,21,21,21,21,
21,21,21,21,21,21,21,21,21,21,21,21,21,21,21,21,
21,21,21,21,21,21,21,21,21,21,21,21,21,21,21,21,
21,21,21,21,21,21,21,21,21,21,21,21,21,21,21,21,
21,21,21,21,21,21,21,21,21,21,21,21,21,21,21,21,
21,21,21,21,21,21,21,21,21,21,21,21,21,21,21,21,
21,21,21,21,21,21,21,21,21,21,21,21,21,21,21,21,
21,21,21,21,21,21,21,21,21,21,21,21,21,21,21,21,
21,21,21,21,21,21,21,21,21,21,21,21,21,21,21,21,
21,21,21,21,21,21,21,21,21,21,21,21,21,21,21,21,
21,21,21,21,21,21,21,21,21,21,21,21,21,21,21,21,
21,21,21,21,21,21,21,21,21,21,21,21,21,21,21,21,
21,21,21,21,21,21,21,21,21,21,21,21,21,21,21,21,
21,21,21,21,21,21,21,21,21,21,21,21,21,21,21,21,
21,21,21,21,21,21,21,21,21,21,21,21,21,21,21,21
</chunk>
   <chunk x="64" y="-32" width="16" height="16">
21,21,21,21,21,21,21,21,21,21,21,21,21,21,21,21,
21,21,21,21,21,21,21,21,21,21,21,21,21,21,21,21,
21,21,21,21,21,21,21,21,21,21,21,21,21,21,21,21,
21,21,21,21,21,21,21,21,21,21,21,21,21,21,21,21,
21,21,21,21,21,21,21,21,21,21,21,21,21,21,21,21,
21,21,21,21,21,21,21,21,21,21,21,21,21,21,21,21,
21,21,21,21,21,21,21,21,21,21,21,21,21,21,21,21,
21,21,21,21,21,21,21,21,21,21,21,21,21,21,21,21,
21,21,21,21,21,21,21,21,21,21,21,21,21,21,21,21,
21,21,21,21,21,21,21,21,21,21,21,21,21,21,21,21,
21,21,21,21,21,21,21,21,21,21,21,21,21,21,21,21,
21,21,21,21,21,21,21,21,21,21,21,21,21,21,21,21,
21,21,21,21,21,21,21,21,21,21,21,21,21,21,21,21,
21,21,21,21,21,21,21,21,21,21,21,21,21,21,21,21,
21,21,21,21,21,21,21,21,21,21,21,21,21,21,21,21,
21,21,21,21,21,21,21,21,21,21,21,21,21,21,21,21
</chunk>
   <chunk x="80" y="-32" width="16" height="16">
21,21,21,21,21,21,21,21,21,21,21,21,21,21,21,21,
21,21,21,21,21,21,21,21,21,21,21,21,21,21,21,21,
21,21,21,21,21,21,21,21,21,21,21,21,21,21,21,21,
21,21,21,21,21,21,21,21,21,21,21,21,21,21,21,21,
21,21,21,21,21,21,21,21,21,21,21,21,21,21,21,21,
21,21,21,21,21,21,21,21,21,21,21,21,21,21,21,21,
21,21,21,21,21,21,21,21,21,21,21,21,21,21,21,21,
21,21,21,21,21,21,21,21,21,21,21,21,21,21,21,21,
21,21,21,21,21,21,21,21,21,21,21,21,21,21,21,21,
21,21,21,21,21,21,21,21,21,21,21,21,21,21,21,21,
21,21,21,21,21,21,21,21,21,21,21,21,21,21,21,21,
21,21,21,21,21,21,21,21,21,21,21,21,21,21,21,21,
21,21,21,21,21,21,21,21,21,21,21,21,21,21,21,21,
21,21,21,21,21,21,21,21,21,21,21,21,21,21,21,21,
21,21,21,21,21,21,21,21,21,21,21,21,21,21,21,21,
21,21,21,21,21,21,21,21,21,21,21,21,21,21,21,21
</chunk>
   <chunk x="96" y="-32" width="16" height="16">
21,21,21,21,21,21,21,21,21,21,21,21,21,21,27,27,
21,21,21,21,21,21,21,21,21,21,21,21,21,21,27,27,
21,21,21,21,21,21,21,21,21,21,21,21,21,21,27,27,
21,21,21,21,21,21,21,21,21,21,21,21,21,21,27,27,
21,21,21,21,21,21,21,21,21,21,21,21,21,21,27,27,
21,21,21,21,21,21,21,21,21,21,21,21,21,21,27,27,
21,21,21,21,21,21,21,21,21,21,21,21,21,21,27,27,
21,21,21,21,21,21,21,21,21,21,21,21,21,21,27,27,
21,21,21,21,21,21,21,21,21,21,21,21,21,21,27,27,
21,21,21,21,21,21,21,21,21,21,21,21,21,21,27,27,
21,21,21,21,21,21,21,21,21,21,21,21,21,21,27,27,
21,21,21,21,21,21,21,21,21,21,21,21,21,21,27,27,
21,21,21,21,21,21,21,21,21,21,21,21,21,21,27,27,
21,21,21,21,21,21,21,21,21,21,21,21,21,21,27,27,
21,21,21,21,21,21,21,21,21,21,21,21,21,21,27,27,
21,21,21,21,21,21,21,21,21,21,21,21,21,21,27,27
</chunk>
   <chunk x="112" y="-32" width="16" height="16">
27,27,27,27,27,27,27,27,27,27,27,27,27,27,27,27,
27,27,27,27,27,27,27,27,27,27,27,27,27,27,27,27,
27,27,27,27,27,27,27,27,27,27,27,27,27,27,27,27,
27,27,27,27,27,27,27,27,27,27,27,27,27,27,27,27,
27,27,27,27,27,27,27,27,27,27,27,27,27,27,27,27,
27,27,27,27,27,27,27,27,27,27,27,27,27,27,27,27,
27,27,27,27,27,27,27,27,27,27,27,27,27,27,27,27,
27,27,27,27,27,27,27,27,27,27,27,27,27,27,27,27,
27,27,27,27,27,27,27,27,27,27,27,27,27,27,27,27,
27,27,27,27,27,27,27,27,27,27,27,27,27,27,27,27,
27,27,27,27,27,27,27,27,27,27,27,27,27,27,27,27,
27,27,27,27,27,27,27,27,27,27,27,27,27,27,27,27,
27,27,27,27,27,27,27,27,27,27,27,27,27,27,27,27,
27,27,27,27,27,27,27,27,27,27,27,27,27,27,27,27,
27,27,27,27,27,27,27,27,27,27,27,27,27,27,27,27,
27,27,27,27,27,27,27,27,27,27,27,27,27,27,27,27
</chunk>
   <chunk x="-80" y="-16" width="16" height="16">
0,0,0,0,0,0,0,0,0,0,21,21,21,21,21,21,
0,0,0,0,0,0,0,0,0,0,21,21,21,21,21,21,
0,0,0,0,0,0,0,0,0,0,21,21,21,21,21,21,
0,0,0,0,0,0,0,0,0,0,21,21,21,21,21,21,
0,0,0,0,0,0,0,0,0,0,21,21,21,21,21,21,
0,0,0,0,0,0,0,0,0,0,21,21,21,21,21,21,
0,0,0,0,0,0,0,0,0,0,21,21,21,21,21,21,
0,0,0,0,0,0,0,0,0,0,21,21,21,21,21,21,
0,0,0,0,0,0,0,0,0,0,21,21,21,21,21,21,
0,0,0,0,0,0,0,0,0,0,21,21,21,21,21,21,
0,0,0,0,0,0,0,0,0,0,21,21,21,21,21,21,
0,0,0,0,0,0,0,0,0,0,21,21,21,21,21,21,
0,0,0,0,0,0,0,0,0,0,21,21,21,21,21,21,
0,0,0,0,0,0,0,0,0,0,21,21,21,21,21,21,
0,0,0,0,0,0,0,0,0,0,21,21,21,21,21,21,
0,0,0,0,0,0,0,0,0,0,21,21,21,21,21,21
</chunk>
   <chunk x="-64" y="-16" width="16" height="16">
21,21,21,21,21,21,21,21,21,21,21,21,21,21,21,21,
21,21,21,21,21,21,21,21,21,21,21,21,21,21,21,21,
21,21,21,21,21,21,21,21,21,21,21,21,21,21,21,21,
21,21,21,21,21,21,21,21,21,21,21,21,21,21,21,21,
21,21,21,21,21,21,21,21,21,21,21,21,21,21,21,21,
21,21,21,21,21,21,21,21,21,21,21,21,21,21,21,21,
21,21,21,21,21,21,21,21,21,21,21,21,21,21,21,21,
21,21,21,21,21,21,21,21,21,21,21,21,21,21,21,21,
21,21,21,21,21,21,21,21,21,21,21,21,21,21,21,21,
21,21,21,21,21,21,21,21,21,21,21,21,21,21,21,21,
21,21,21,21,21,21,21,21,21,21,21,21,21,21,21,21,
21,21,21,21,21,21,21,21,21,21,21,21,21,21,21,21,
21,21,21,21,21,21,21,21,21,21,21,21,21,21,21,21,
21,21,21,21,21,21,21,21,21,21,21,21,21,21,21,21,
21,21,21,21,21,21,21,21,21,21,21,21,21,21,21,21,
21,21,21,21,21,21,21,21,21,21,21,21,21,21,21,21
</chunk>
   <chunk x="-48" y="-16" width="16" height="16">
21,21,21,21,21,21,21,21,21,21,21,21,21,21,21,21,
21,21,21,21,21,21,21,21,21,21,21,21,21,21,21,21,
21,21,21,21,21,21,21,21,21,21,21,21,21,21,21,21,
21,21,21,21,21,21,21,21,21,21,21,21,21,21,21,21,
21,21,21,21,21,21,21,21,21,21,21,21,21,21,21,21,
21,21,21,21,21,21,21,21,21,21,21,21,21,21,21,21,
21,21,21,21,21,21,21,21,21,21,21,21,21,21,21,21,
21,21,21,21,21,21,21,21,21,21,21,21,21,21,21,21,
21,21,21,21,21,21,21,21,21,21,21,21,21,21,21,21,
21,21,21,21,21,21,21,21,21,21,21,21,21,21,21,21,
21,21,21,21,21,21,21,21,21,21,21,21,21,21,21,21,
21,21,21,21,21,21,21,21,21,21,21,21,21,21,21,21,
21,21,21,21,21,21,21,21,21,21,21,21,21,21,21,21,
21,21,21,21,21,21,21,21,21,21,21,21,21,21,21,21,
21,21,21,21,21,21,21,21,21,21,21,21,21,21,21,21,
21,21,21,21,21,21,21,21,21,21,21,21,21,21,21,21
</chunk>
   <chunk x="-32" y="-16" width="16" height="16">
21,21,21,21,21,21,21,21,21,21,21,21,21,21,21,21,
21,21,21,21,21,21,21,21,21,21,21,21,21,21,21,21,
21,21,21,21,21,21,21,21,21,21,21,21,21,21,21,21,
21,21,21,21,21,21,21,21,21,21,21,21,21,21,21,21,
21,21,21,21,21,21,21,21,21,21,21,21,21,21,21,21,
21,21,21,21,21,21,21,21,21,21,21,21,21,21,21,21,
21,21,21,21,21,21,21,21,21,21,21,21,21,21,21,21,
21,21,21,21,21,21,21,21,21,21,21,21,21,21,21,21,
21,21,21,21,21,21,21,21,21,21,21,21,21,21,21,21,
21,21,21,21,21,21,21,21,21,21,21,21,21,21,21,21,
21,21,21,21,21,21,21,21,21,21,21,21,21,21,21,21,
21,21,21,21,21,21,21,21,21,21,21,21,21,21,21,21,
21,21,21,21,21,21,21,21,21,21,21,21,21,21,21,21,
21,21,21,21,21,21,21,21,21,21,21,21,21,21,21,21,
21,21,21,21,21,21,21,21,21,21,21,21,21,21,21,21,
21,21,21,21,21,21,21,21,21,21,21,21,21,21,21,21
</chunk>
   <chunk x="-16" y="-16" width="16" height="16">
21,21,21,21,21,21,21,21,21,21,21,21,21,21,21,21,
21,21,21,21,21,21,21,21,21,21,21,21,21,21,21,21,
21,21,21,21,21,21,21,21,21,21,21,21,21,21,21,21,
21,21,21,21,21,21,21,21,21,21,21,21,21,21,21,21,
21,21,21,21,21,21,21,21,21,21,21,21,21,21,21,21,
21,21,21,21,21,21,21,21,21,21,21,21,21,21,21,21,
21,21,21,21,21,21,21,21,21,21,21,21,21,21,21,21,
21,21,21,21,21,21,21,21,21,21,21,21,21,21,21,21,
21,21,21,21,21,21,21,21,21,21,21,21,21,21,21,21,
21,21,21,21,21,21,21,21,21,21,21,21,21,21,21,21,
21,21,21,21,21,21,21,21,21,21,21,21,21,21,21,21,
21,21,21,21,21,21,21,21,21,21,21,21,21,21,21,21,
21,21,21,21,21,21,21,21,21,21,21,21,21,21,21,21,
21,21,21,21,21,21,21,21,21,21,21,21,21,21,21,21,
21,21,21,21,21,21,21,21,21,21,21,21,21,21,21,21,
21,21,21,21,21,21,21,21,21,21,21,21,21,21,21,21
</chunk>
   <chunk x="0" y="-16" width="16" height="16">
21,21,21,21,21,21,21,21,21,21,21,21,21,21,21,21,
21,21,21,21,21,21,21,21,21,21,21,21,21,21,21,21,
21,21,21,21,21,21,21,21,21,21,21,21,21,21,21,21,
21,21,21,21,21,21,21,21,21,21,21,21,21,21,21,21,
21,21,21,21,21,0,0,0,0,0,0,0,0,0,0,0,
21,21,21,21,0,0,0,0,0,0,0,0,0,0,0,0,
21,21,21,0,0,0,0,0,0,0,0,0,0,0,0,0,
21,21,0,0,0,0,0,0,0,0,0,0,0,0,0,0,
21,0,0,0,0,0,0,0,0,0,0,0,0,0,0,0,
0,0,0,0,0,0,0,0,0,0,0,0,0,0,0,0,
0,0,0,0,0,0,0,0,0,0,0,0,0,0,0,0,
0,0,0,0,0,0,0,0,0,0,0,21,21,21,21,21,
0,0,0,0,0,0,0,0,0,0,0,21,21,21,21,21,
0,0,0,0,0,0,0,0,0,0,0,21,21,21,21,21,
0,0,0,0,0,0,0,0,0,0,0,21,21,21,21,21,
0,0,0,0,0,0,0,0,0,0,0,21,21,21,21,21
</chunk>
   <chunk x="16" y="-16" width="16" height="16">
21,21,21,21,21,21,21,21,21,21,21,21,21,21,21,21,
21,21,21,21,21,21,21,21,21,21,21,21,21,21,21,21,
21,21,21,21,21,21,21,21,21,21,21,21,21,21,21,21,
21,21,21,21,21,21,21,21,21,21,21,21,21,21,21,21,
0,0,0,0,0,0,0,0,0,0,0,0,0,21,21,21,
0,0,0,0,0,0,0,0,0,0,0,0,0,21,21,21,
0,0,0,0,0,0,0,0,0,0,0,0,0,21,21,21,
0,0,0,0,0,0,0,0,0,0,0,0,0,0,0,0,
0,0,0,0,0,0,0,0,0,0,0,0,0,0,0,0,
0,0,0,0,0,0,0,0,0,0,0,0,0,0,0,0,
0,0,0,0,0,0,0,0,0,0,0,0,0,0,0,0,
21,21,21,21,21,21,0,0,0,0,0,0,0,0,0,0,
21,21,21,21,21,21,0,0,0,0,0,0,0,0,0,0,
21,21,21,21,21,21,0,0,0,0,0,0,0,0,0,0,
21,21,21,21,21,21,21,21,21,21,21,21,21,21,21,21,
21,21,21,21,21,21,21,21,21,21,21,21,21,21,21,21
</chunk>
   <chunk x="32" y="-16" width="16" height="16">
21,21,21,21,21,21,21,21,21,21,21,21,21,21,21,21,
21,21,21,21,21,21,21,21,21,21,21,21,21,21,21,21,
21,21,21,21,21,21,21,21,21,21,21,21,21,21,21,21,
21,21,21,21,21,21,21,21,21,21,21,21,21,21,21,21,
21,21,21,21,21,21,21,21,21,21,21,21,21,21,21,21,
21,21,21,21,21,21,21,21,21,21,21,21,21,21,21,21,
21,21,21,21,21,21,21,21,21,21,21,21,21,21,21,21,
0,0,0,0,0,0,0,0,0,0,0,0,0,0,0,0,
0,0,0,0,0,0,0,0,0,0,0,0,0,0,0,0,
0,0,0,0,0,0,0,0,0,0,0,0,0,0,0,0,
0,0,0,0,0,0,0,0,0,0,0,0,0,0,0,0,
0,0,0,0,0,0,0,0,0,0,0,0,0,0,0,0,
0,0,0,0,0,0,0,0,0,0,0,0,0,0,0,0,
0,0,0,0,0,0,0,0,0,0,0,0,0,0,0,0,
21,21,21,21,21,21,21,21,21,21,21,21,21,21,21,21,
21,21,21,21,21,21,21,21,21,21,21,21,21,21,21,21
</chunk>
   <chunk x="48" y="-16" width="16" height="16">
21,21,21,21,21,21,21,21,21,21,21,21,21,21,21,21,
21,21,21,21,21,21,21,21,21,21,21,21,21,21,21,21,
21,21,21,21,21,21,0,0,0,0,0,0,21,21,21,21,
21,21,21,21,21,21,0,0,0,0,0,0,21,21,21,21,
21,21,21,21,21,21,0,0,0,0,0,0,21,21,21,21,
21,21,21,21,21,21,0,0,0,0,0,0,21,21,21,21,
21,21,21,21,21,21,0,0,0,0,0,0,21,21,21,21,
0,0,0,0,0,0,0,0,0,0,0,0,0,21,21,21,
0,0,0,0,0,0,0,0,0,0,0,0,0,21,21,21,
0,0,0,0,0,0,0,0,0,0,0,0,0,21,21,21,
0,0,0,0,0,0,0,0,0,0,0,0,0,21,21,21,
0,0,0,0,0,0,0,0,0,0,0,0,0,21,21,21,
0,0,0,0,0,0,0,0,0,0,0,0,0,21,21,21,
0,0,0,0,0,0,0,0,0,0,0,0,0,21,21,21,
0,0,0,0,0,0,0,0,0,0,0,0,0,21,21,21,
0,0,0,0,0,0,0,0,0,0,0,0,0,21,21,21
</chunk>
   <chunk x="64" y="-16" width="16" height="16">
21,21,21,21,21,21,21,21,21,21,21,21,21,21,21,21,
21,21,21,21,21,21,21,21,21,21,21,21,21,21,21,21,
21,21,21,21,21,21,21,21,21,21,21,21,21,21,21,21,
21,21,21,21,21,21,21,21,21,21,21,21,21,21,21,21,
21,21,21,21,21,21,21,21,21,21,21,21,21,21,21,21,
21,21,21,21,21,21,21,21,21,21,21,21,21,21,21,21,
21,21,21,21,21,21,21,21,21,21,21,21,21,21,21,21,
21,21,21,21,21,21,21,21,21,21,21,21,21,21,21,21,
21,21,21,21,21,21,21,21,21,21,21,21,21,21,21,21,
21,21,21,21,21,21,21,21,21,21,21,21,21,21,21,21,
21,21,21,21,21,21,21,21,21,21,21,21,21,21,21,21,
21,21,21,21,21,21,21,21,21,21,21,21,21,21,21,21,
21,21,21,21,21,21,21,21,21,21,21,21,21,21,21,21,
21,21,21,21,21,21,21,21,21,21,21,21,21,21,21,21,
21,21,21,21,21,21,21,21,21,21,21,21,21,21,21,21,
21,21,21,21,21,21,21,21,21,21,21,21,21,21,21,21
</chunk>
   <chunk x="80" y="-16" width="16" height="16">
21,21,21,21,21,21,21,21,21,21,21,21,21,21,21,21,
21,21,21,21,21,21,21,21,21,21,21,21,21,21,21,21,
21,21,21,21,21,21,21,21,21,21,21,21,21,21,21,21,
21,21,21,21,21,21,21,21,21,21,21,21,21,21,21,21,
21,21,21,21,21,21,21,21,21,21,21,21,21,21,21,21,
21,21,21,21,21,21,21,21,21,21,21,21,21,21,21,21,
21,21,21,21,21,21,21,21,21,21,21,21,21,21,21,21,
21,21,21,21,21,21,21,21,21,21,21,21,21,21,21,21,
21,21,21,21,21,21,21,21,21,21,21,21,21,21,21,21,
21,21,21,21,21,21,21,21,21,21,21,21,21,21,21,21,
21,21,21,21,21,21,21,21,21,21,21,21,21,21,21,21,
21,21,21,21,21,21,21,21,21,21,21,21,21,21,21,21,
21,21,21,21,21,21,21,21,21,21,21,21,21,21,21,21,
21,21,21,21,21,21,21,21,21,21,21,21,21,21,21,21,
21,21,21,21,21,21,21,21,21,21,21,21,21,21,21,21,
21,21,21,21,21,21,21,21,21,21,21,21,21,21,21,21
</chunk>
   <chunk x="96" y="-16" width="16" height="16">
21,21,21,21,21,21,21,21,21,21,21,21,21,21,27,27,
21,21,21,21,21,21,21,21,21,21,21,21,21,21,27,27,
21,21,21,21,21,21,21,21,21,21,21,21,21,21,27,27,
21,21,21,21,21,21,21,21,21,21,21,21,21,21,27,27,
21,21,21,21,21,21,21,21,21,21,21,21,21,21,27,27,
21,21,21,21,21,21,21,21,21,21,21,21,21,21,27,27,
21,21,21,21,21,21,21,21,21,21,21,21,21,21,27,27,
21,21,21,21,21,21,21,21,21,21,21,21,21,21,27,27,
21,21,21,21,21,21,21,21,21,21,21,21,21,21,27,27,
21,21,21,21,21,21,21,21,21,21,21,21,21,21,27,27,
21,21,21,21,21,21,21,21,21,21,21,21,21,21,27,27,
21,21,21,21,21,21,21,21,21,21,21,21,21,21,27,27,
21,21,21,21,21,21,21,21,21,21,21,21,21,21,27,27,
21,21,21,21,21,21,21,21,21,21,21,21,21,21,27,27,
21,21,21,21,21,21,21,21,21,21,21,21,21,21,27,27,
21,21,21,21,21,21,21,21,21,21,21,21,21,21,27,27
</chunk>
   <chunk x="112" y="-16" width="16" height="16">
27,27,27,27,27,27,27,27,27,27,27,27,27,27,27,27,
27,27,27,27,27,27,27,27,27,27,27,27,27,27,27,27,
27,27,27,27,27,27,27,27,27,27,27,27,27,27,27,27,
27,27,27,27,27,27,27,27,27,27,27,27,27,27,27,27,
27,27,27,27,27,27,27,27,27,27,27,27,27,27,27,27,
27,27,27,27,27,27,27,27,27,27,27,27,27,27,27,27,
27,27,27,27,27,27,27,27,27,27,27,27,27,27,27,27,
27,27,27,27,27,27,27,27,27,27,27,27,27,27,27,27,
27,27,27,27,27,27,27,27,27,27,27,27,27,27,27,27,
27,27,27,27,27,27,27,27,27,27,27,27,27,27,27,27,
27,27,27,27,27,27,27,27,27,27,27,27,27,27,27,27,
27,27,27,27,27,27,27,27,27,27,27,27,27,27,27,27,
27,27,27,27,27,27,27,27,27,27,27,27,27,27,27,27,
27,27,27,27,27,27,27,27,27,27,27,27,27,27,27,27,
27,27,27,27,27,27,27,27,27,27,27,27,27,27,27,27,
27,27,27,27,27,27,27,27,27,27,27,27,27,27,27,27
</chunk>
   <chunk x="-80" y="0" width="16" height="16">
0,0,0,0,0,0,0,0,0,0,21,21,21,21,21,21,
0,0,0,0,0,0,0,0,0,0,21,21,21,21,21,21,
0,0,0,0,0,0,0,0,0,0,21,21,21,21,21,21,
0,0,0,0,0,0,0,0,0,0,21,21,21,21,21,21,
0,0,0,0,0,0,0,0,0,0,21,21,21,21,21,21,
0,0,0,0,0,0,0,0,0,0,21,21,21,21,21,21,
0,0,0,0,0,0,0,0,0,0,21,21,21,21,21,21,
0,0,0,0,0,0,0,0,0,0,21,21,21,21,21,21,
0,0,0,0,0,0,0,0,0,0,21,21,21,21,21,21,
0,0,0,0,0,0,0,0,0,0,21,21,21,21,21,21,
0,0,0,0,0,0,0,0,0,0,21,21,21,21,21,21,
0,0,0,0,0,0,0,0,0,0,21,21,21,21,21,21,
0,0,0,0,0,0,0,0,0,0,21,21,21,21,21,21,
0,0,0,0,0,0,0,0,0,0,21,21,21,21,21,21,
0,0,0,0,0,0,0,0,0,0,21,21,21,21,21,21,
0,0,0,0,0,0,0,0,0,0,21,21,21,21,21,21
</chunk>
   <chunk x="-64" y="0" width="16" height="16">
21,21,21,21,21,21,21,21,21,21,21,21,21,21,21,21,
21,21,21,21,21,21,21,21,21,21,21,21,21,21,21,21,
21,21,21,21,21,21,21,21,21,21,21,21,21,21,21,21,
21,21,21,21,21,21,21,21,21,21,21,21,21,21,21,21,
21,21,21,21,21,21,21,21,21,21,21,21,21,21,21,21,
21,21,21,21,21,21,21,21,21,21,21,21,21,21,21,21,
21,21,21,21,21,21,21,21,21,21,21,21,21,21,21,21,
21,21,21,21,21,21,21,21,21,21,21,21,21,21,21,21,
21,21,21,21,21,21,21,21,21,21,21,21,21,21,21,21,
21,21,21,21,21,21,21,21,21,21,21,21,21,21,21,21,
21,21,21,21,21,21,21,21,21,21,21,21,21,21,21,21,
21,21,21,21,21,21,21,21,21,21,21,21,21,21,21,21,
21,21,21,21,21,21,21,21,21,21,21,21,21,21,21,21,
21,21,21,21,21,21,21,21,21,21,21,21,21,21,21,21,
21,21,21,21,21,21,21,21,21,21,21,21,21,21,21,21,
21,21,21,21,21,21,21,21,21,21,21,21,21,21,21,21
</chunk>
   <chunk x="-48" y="0" width="16" height="16">
21,21,21,21,21,21,21,21,21,21,21,21,21,21,21,21,
21,21,21,21,21,21,21,21,21,21,21,21,21,21,21,21,
21,21,21,21,21,21,21,21,21,21,21,21,21,21,21,21,
21,21,21,21,21,21,21,21,21,21,21,21,21,21,21,21,
21,21,21,21,21,21,21,21,21,21,21,21,21,21,21,21,
21,21,21,21,21,21,21,21,21,21,21,21,21,21,21,21,
21,21,21,21,21,21,21,21,21,21,21,21,21,21,21,21,
21,21,21,21,21,21,21,0,0,0,0,0,0,0,0,0,
21,21,21,21,21,21,21,0,0,0,0,0,0,0,0,0,
21,21,21,21,21,21,21,0,0,0,0,0,0,0,0,0,
21,21,21,21,21,21,21,0,0,0,0,0,0,0,0,0,
21,21,21,21,21,21,21,0,0,0,0,0,0,0,0,0,
21,21,21,21,21,21,21,0,0,0,0,0,0,0,0,0,
21,21,21,21,21,21,21,0,0,0,0,0,0,0,0,0,
21,21,21,21,21,21,21,0,0,0,0,0,0,0,0,0,
21,21,21,21,21,21,21,0,0,0,0,0,0,0,0,0
</chunk>
   <chunk x="-32" y="0" width="16" height="16">
21,21,21,21,21,21,21,21,21,21,21,21,21,21,21,21,
21,21,21,21,21,21,21,21,21,21,21,21,21,21,21,21,
21,21,21,21,21,21,21,21,21,21,21,21,21,21,21,21,
21,21,21,21,21,21,21,21,21,21,21,21,21,21,21,21,
21,21,21,21,21,21,21,21,21,21,21,21,21,21,21,21,
21,21,21,21,21,21,21,21,21,21,21,21,21,21,21,21,
21,21,21,21,21,21,21,21,21,21,21,21,21,21,21,21,
0,0,0,0,0,0,0,21,21,21,21,21,21,21,21,21,
0,0,0,0,0,0,0,21,21,21,21,21,21,21,21,21,
0,0,0,0,0,0,0,21,21,21,21,21,21,21,21,21,
0,0,0,0,0,0,0,21,21,21,21,21,21,21,21,21,
0,0,0,0,0,0,0,21,21,21,21,21,21,21,21,21,
0,0,0,0,0,0,0,21,21,21,21,21,21,21,21,21,
0,0,0,0,0,0,0,21,21,21,21,21,21,21,21,21,
0,0,0,0,0,0,0,0,0,0,0,0,0,0,0,0,
0,0,0,0,0,0,0,0,0,0,0,0,0,0,0,0
</chunk>
   <chunk x="-16" y="0" width="16" height="16">
21,21,21,21,21,21,21,21,21,21,21,21,21,21,21,21,
21,21,21,21,21,21,21,21,21,21,21,21,21,21,21,21,
21,21,21,21,21,21,21,21,21,21,21,21,21,21,21,21,
21,21,21,21,21,21,21,21,21,21,21,21,21,21,21,21,
21,21,21,21,21,21,21,21,21,21,21,21,21,21,21,21,
21,21,21,21,21,21,21,21,21,21,21,21,21,21,21,21,
21,21,21,21,21,21,21,21,21,21,21,21,21,21,21,21,
21,21,21,21,21,21,21,21,21,21,21,21,21,21,21,21,
21,21,21,21,21,21,21,21,21,21,21,0,0,0,0,0,
21,21,21,21,21,21,21,21,21,21,21,0,0,0,0,0,
21,21,21,21,21,21,21,21,21,21,21,0,0,0,0,0,
21,21,21,21,21,21,21,21,21,21,21,0,0,0,0,0,
21,21,21,21,21,21,21,21,21,21,21,0,0,0,0,0,
21,21,21,21,21,21,21,21,21,21,21,0,0,0,0,0,
0,0,0,21,21,21,21,21,21,21,21,0,0,0,0,0,
0,0,0,21,21,21,21,21,21,21,21,21,21,21,21,21
</chunk>
   <chunk x="0" y="0" width="16" height="16">
0,0,0,0,0,0,0,0,0,0,0,21,21,21,21,21,
0,0,0,0,0,0,0,0,0,0,0,21,0,0,0,0,
0,0,0,0,0,0,0,0,0,0,0,0,0,0,0,0,
0,0,0,0,0,0,0,0,0,0,0,0,0,0,0,0,
21,0,0,0,0,0,0,0,0,0,21,0,0,0,0,0,
21,21,21,0,0,0,0,0,21,21,21,0,0,0,0,0,
21,21,21,0,0,0,0,0,21,21,21,0,0,0,0,0,
21,0,0,0,0,0,0,0,0,0,21,0,0,0,0,0,
0,0,0,0,0,0,0,0,0,0,0,0,0,0,0,0,
0,0,0,0,0,0,0,0,0,0,0,0,0,0,0,0,
0,0,0,0,0,0,0,0,0,0,0,0,0,0,0,0,
0,0,0,0,0,0,0,0,0,0,0,0,0,0,0,0,
0,0,0,0,0,0,0,0,0,0,0,0,0,0,0,0,
0,0,0,0,0,0,0,0,0,0,0,0,0,0,0,0,
0,0,0,0,0,0,0,0,0,0,0,0,0,0,0,0,
21,21,21,21,21,21,21,21,21,21,21,21,21,21,21,21
</chunk>
   <chunk x="16" y="0" width="16" height="16">
21,21,21,21,21,21,21,21,21,21,21,21,21,21,21,21,
0,0,0,0,0,0,0,21,0,0,0,21,21,21,21,21,
0,0,0,0,0,0,0,0,0,0,0,21,21,21,21,21,
0,0,0,0,0,0,0,0,0,0,0,21,21,21,21,21,
0,0,0,0,0,0,0,0,0,0,0,21,21,21,21,21,
0,0,0,0,0,0,0,0,0,0,0,21,21,21,21,21,
0,0,0,0,0,0,0,0,0,0,0,21,21,21,21,21,
0,0,0,0,0,0,0,0,0,0,0,21,21,21,21,21,
0,0,0,0,0,0,0,0,0,0,0,0,0,0,0,0,
0,0,0,0,0,0,0,0,0,0,0,0,0,0,0,0,
0,0,0,0,0,0,0,0,0,0,0,0,0,0,0,0,
0,0,0,0,0,0,0,0,0,0,0,0,0,0,0,0,
0,0,0,0,0,0,0,0,0,0,0,0,0,0,0,0,
0,0,0,0,0,0,0,0,0,0,0,0,0,0,0,0,
0,0,0,0,0,0,0,0,0,0,0,0,0,0,0,0,
21,21,21,21,21,21,21,21,21,21,21,0,0,0,0,0
</chunk>
   <chunk x="32" y="0" width="16" height="16">
21,21,21,21,21,21,21,21,21,21,21,21,21,21,21,21,
21,21,21,21,21,21,21,21,21,21,21,21,21,21,21,21,
21,21,21,21,21,21,21,21,21,21,21,21,21,21,21,21,
21,21,21,21,21,21,21,21,21,21,21,21,21,21,21,21,
21,21,21,21,21,21,21,21,21,21,21,21,21,21,21,21,
21,21,21,21,21,21,21,21,21,21,21,21,21,21,21,21,
21,0,0,0,0,0,0,0,0,0,0,21,21,21,21,21,
21,0,0,0,0,0,0,0,0,0,0,21,21,21,21,21,
0,0,0,0,0,0,0,0,0,0,0,21,21,21,21,21,
0,0,0,0,0,0,0,0,0,0,0,21,21,21,21,21,
0,0,0,0,0,0,0,0,0,0,0,21,21,21,21,21,
0,0,0,0,0,0,0,0,0,0,0,21,21,21,21,21,
0,0,0,0,0,0,0,0,0,0,0,21,21,21,21,21,
0,0,0,0,0,0,0,0,0,0,0,21,21,21,21,21,
0,0,0,0,0,0,0,0,0,0,0,21,21,21,21,21,
0,21,21,21,0,0,0,0,0,0,0,21,21,21,21,21
</chunk>
   <chunk x="48" y="0" width="16" height="16">
0,0,0,0,0,0,0,0,0,0,0,0,0,21,21,21,
0,0,0,0,0,0,0,0,0,0,0,0,0,21,21,21,
0,0,0,0,0,0,0,0,0,0,0,0,0,21,21,21,
0,0,0,0,0,0,0,0,0,0,0,0,0,21,21,21,
0,0,0,0,0,0,0,0,0,0,0,0,0,21,21,21,
0,0,0,0,0,0,0,0,0,0,0,0,0,21,21,21,
0,0,0,0,0,0,0,0,0,0,0,0,0,21,21,21,
0,0,0,0,0,0,0,0,0,0,0,0,0,21,21,21,
0,0,0,0,0,0,0,0,0,0,0,0,0,21,21,21,
0,0,0,0,0,0,0,0,0,0,0,0,0,21,21,21,
0,0,0,0,0,0,0,0,0,0,0,0,0,21,21,21,
0,0,0,0,0,0,0,0,0,0,0,0,0,21,21,21,
0,0,0,0,0,0,0,0,0,0,0,0,0,0,0,0,
0,0,0,0,0,0,0,0,0,0,0,0,0,0,0,0,
0,0,0,0,0,0,0,0,0,0,0,0,0,0,0,0,
0,0,0,0,0,0,0,0,0,0,0,0,0,0,0,0
</chunk>
   <chunk x="64" y="0" width="16" height="16">
21,21,21,21,21,21,21,21,21,21,21,21,21,21,21,21,
21,21,21,21,21,21,21,21,21,21,21,21,21,21,21,21,
21,21,21,21,21,21,21,21,21,21,21,21,21,21,21,21,
21,21,21,21,21,21,21,21,21,21,21,21,21,21,21,21,
21,21,21,21,21,21,21,21,21,21,21,21,21,21,21,21,
21,21,21,21,21,21,21,21,21,21,21,21,21,21,21,21,
21,21,21,21,21,21,21,21,21,21,21,21,21,21,21,21,
21,21,21,21,21,21,21,21,21,21,21,21,21,21,21,21,
21,21,21,21,21,21,21,21,21,21,21,21,21,21,21,21,
21,21,21,21,21,21,21,21,21,21,21,21,21,21,21,21,
21,21,21,21,21,21,21,21,21,21,21,21,21,21,21,21,
21,21,21,21,21,21,21,21,21,21,21,21,21,21,21,21,
0,0,0,0,0,0,0,0,0,0,0,0,0,0,0,0,
0,0,0,0,0,0,0,0,0,0,0,0,0,0,0,0,
0,0,0,0,0,0,0,0,0,0,0,0,0,0,0,0,
0,0,0,0,0,0,0,0,0,0,0,0,0,0,0,0
</chunk>
   <chunk x="80" y="0" width="16" height="16">
21,21,21,21,21,21,21,21,21,21,21,21,21,21,21,21,
21,21,21,21,21,21,21,21,21,21,21,21,21,21,21,21,
21,21,21,21,21,21,21,21,21,21,21,21,21,21,21,21,
21,21,21,21,21,21,21,21,21,21,21,21,21,21,21,21,
21,21,21,21,21,21,21,21,21,21,21,21,21,21,21,21,
21,21,21,21,21,21,21,21,21,21,21,21,21,21,21,21,
21,21,21,21,21,21,21,21,21,21,21,21,21,21,21,21,
21,21,21,21,21,21,21,21,21,21,21,21,21,21,21,21,
21,21,21,21,21,21,21,21,21,21,21,21,21,21,21,21,
21,21,21,21,21,21,21,21,21,21,21,21,21,21,21,21,
21,21,21,21,21,21,21,21,21,21,21,21,21,21,21,21,
21,21,21,21,21,21,21,21,21,21,21,21,21,21,21,21,
0,21,21,21,21,21,21,21,21,21,21,21,21,21,21,21,
0,21,21,21,21,21,21,21,21,21,21,21,21,21,21,21,
0,21,21,21,21,21,21,21,21,21,21,21,21,21,21,21,
0,21,21,21,21,21,21,21,21,21,21,21,21,21,21,21
</chunk>
   <chunk x="96" y="0" width="16" height="16">
21,21,21,21,21,21,21,21,21,21,21,21,21,21,27,27,
21,21,21,21,21,21,21,21,21,21,21,21,21,21,27,27,
21,21,21,21,21,21,21,21,21,21,21,21,21,21,27,27,
21,21,21,21,21,21,21,21,21,21,21,21,21,21,27,27,
21,21,21,21,21,21,21,21,21,21,21,21,21,21,27,27,
21,21,21,21,21,21,21,21,21,21,21,21,21,21,27,27,
21,21,21,21,21,21,21,21,21,21,21,21,21,21,27,27,
21,21,21,21,21,21,21,21,21,21,21,21,21,21,27,27,
21,21,21,21,21,21,21,21,21,21,21,21,21,21,27,27,
21,21,21,21,21,21,21,21,21,21,21,21,21,21,27,27,
21,21,21,21,21,21,21,21,21,21,21,21,21,21,27,27,
21,21,21,21,21,21,21,21,21,21,21,21,21,21,27,27,
21,21,21,21,21,21,21,21,21,21,21,21,21,21,27,27,
21,21,21,21,21,21,21,21,21,21,21,21,21,21,27,27,
21,21,21,21,21,21,21,21,21,21,21,21,21,21,27,27,
21,21,21,21,21,21,21,21,21,21,21,21,21,21,27,27
</chunk>
   <chunk x="112" y="0" width="16" height="16">
27,27,27,27,27,27,27,27,27,27,27,27,27,27,27,27,
27,27,27,27,27,27,27,27,27,27,27,27,27,27,27,27,
27,27,27,27,27,27,27,27,27,27,27,27,27,27,27,27,
27,27,27,27,27,27,27,27,27,27,27,27,27,27,27,27,
27,27,27,27,27,27,27,27,27,27,27,27,27,27,27,27,
27,27,27,27,27,27,27,27,27,27,27,27,27,27,27,27,
27,27,27,27,27,27,27,27,27,27,27,27,27,27,27,27,
27,27,27,27,27,27,27,27,27,27,27,27,27,27,27,27,
27,27,27,27,27,27,27,27,27,27,27,27,27,27,27,27,
27,27,27,27,27,27,27,27,27,27,27,27,27,27,27,27,
27,27,27,27,27,27,27,27,27,27,27,27,27,27,27,27,
27,27,27,27,27,27,27,27,27,27,27,27,27,27,27,27,
27,27,27,27,27,27,27,27,27,27,27,27,27,27,27,27,
27,27,27,27,27,27,27,27,27,27,27,27,27,27,27,27,
27,27,27,27,27,27,27,27,27,27,27,27,27,27,27,27,
27,27,27,27,27,27,27,27,27,27,27,27,27,27,27,27
</chunk>
   <chunk x="-80" y="16" width="16" height="16">
0,0,0,0,0,0,0,0,0,0,21,21,21,21,21,21,
0,0,0,0,0,0,0,0,0,0,21,21,21,21,21,21,
0,0,0,0,0,0,0,0,0,0,21,21,21,21,21,21,
0,0,0,0,0,0,0,0,0,0,21,21,21,21,21,21,
0,0,0,0,0,0,0,0,0,0,21,21,21,21,21,21,
0,0,0,0,0,0,0,0,0,0,21,21,21,21,21,21,
0,0,0,0,0,0,0,0,0,0,21,21,21,21,21,21,
0,0,0,0,0,0,0,0,0,0,21,21,21,21,21,21,
0,0,0,0,0,0,0,0,0,0,21,21,21,21,21,21,
0,0,0,0,0,0,0,0,0,0,21,21,21,21,21,21,
0,0,0,0,0,0,0,0,0,0,21,21,21,21,21,21,
0,0,0,0,0,0,0,0,0,0,21,21,21,21,21,21,
0,0,0,0,0,0,0,0,0,0,21,21,21,21,21,21,
0,0,0,0,0,0,0,0,0,0,21,21,21,21,21,21,
0,0,0,0,0,0,0,0,0,0,21,21,21,21,21,21,
0,0,0,0,0,0,0,0,0,0,21,21,21,21,21,21
</chunk>
   <chunk x="-64" y="16" width="16" height="16">
21,21,21,21,21,21,21,21,21,21,21,21,21,21,21,21,
21,21,21,21,21,21,21,21,21,21,21,21,21,21,21,21,
21,21,21,21,21,21,21,21,21,21,21,21,21,21,21,21,
21,21,21,21,21,21,21,21,21,21,21,21,21,21,21,21,
21,21,21,21,21,21,21,21,21,21,21,21,21,21,21,21,
21,21,21,21,21,21,21,21,21,21,21,21,21,21,21,21,
21,21,21,21,21,21,21,21,21,21,21,21,21,21,21,21,
21,21,21,21,21,21,21,21,21,21,21,21,21,21,21,21,
21,21,21,21,21,21,21,21,21,21,21,21,21,21,21,21,
21,21,21,21,21,21,21,21,21,21,21,21,21,21,21,21,
21,21,21,21,21,21,21,21,21,21,21,21,21,21,21,21,
21,21,21,21,21,21,21,21,21,21,21,21,21,21,21,21,
21,21,21,21,21,21,21,21,21,21,21,21,21,21,21,21,
21,21,21,21,21,21,21,21,21,21,21,21,21,21,21,21,
21,21,21,21,21,21,21,21,21,21,21,21,21,21,21,21,
21,21,21,21,21,21,21,21,21,21,21,21,21,21,21,21
</chunk>
   <chunk x="-48" y="16" width="16" height="16">
21,21,21,21,21,21,21,0,0,0,0,0,0,0,0,0,
21,21,21,21,21,21,21,0,0,0,0,0,0,0,0,0,
21,21,21,21,21,21,21,0,0,0,0,0,0,0,0,0,
21,21,21,21,21,21,21,21,21,21,21,21,0,0,0,0,
21,21,21,21,21,21,21,21,21,21,21,21,0,0,0,0,
21,21,21,21,21,21,21,21,21,21,21,21,0,0,0,0,
21,21,21,21,21,21,21,21,21,21,21,21,0,0,0,0,
21,21,21,21,21,21,21,21,21,21,21,21,0,0,0,0,
21,21,21,21,21,21,21,21,21,21,21,21,0,0,0,0,
21,21,21,21,21,21,21,21,21,21,21,21,21,21,21,21,
21,21,21,21,21,21,21,21,21,21,21,21,21,21,21,21,
21,21,21,21,21,21,21,21,21,21,21,21,21,21,21,21,
21,21,21,21,21,21,21,21,21,21,21,21,21,21,21,21,
21,21,21,21,21,21,21,21,21,21,21,21,21,21,21,21,
21,21,21,21,21,21,21,21,21,21,21,21,21,21,21,21,
21,21,21,21,21,21,21,21,21,21,21,21,21,21,21,21
</chunk>
   <chunk x="-32" y="16" width="16" height="16">
0,0,0,0,0,0,0,0,0,0,0,0,0,0,0,0,
0,0,0,0,0,0,0,0,0,0,0,0,0,0,0,0,
0,0,0,0,0,0,0,0,0,0,0,0,0,0,0,0,
0,0,0,0,0,0,0,0,0,0,0,0,0,0,0,0,
0,0,0,0,0,0,0,0,0,0,0,0,0,0,0,0,
0,0,0,0,0,0,0,0,0,0,0,0,0,0,0,0,
0,0,0,0,0,0,0,0,0,0,0,0,0,0,0,0,
0,0,0,0,0,0,0,0,0,0,0,0,0,0,0,0,
0,0,0,0,0,0,0,0,0,0,0,0,0,0,0,0,
21,21,21,21,21,21,21,21,21,21,0,0,0,0,0,0,
21,21,21,21,21,21,21,21,21,21,0,0,0,0,0,0,
21,21,21,21,21,21,21,21,21,21,0,0,0,0,0,0,
21,21,21,21,21,21,21,21,21,21,0,0,0,0,0,0,
21,21,21,21,21,21,21,21,21,21,0,0,0,0,0,0,
21,21,21,21,21,21,21,21,21,21,0,0,0,0,0,0,
21,21,21,21,21,21,21,21,21,21,0,0,0,0,0,0
</chunk>
   <chunk x="-16" y="16" width="16" height="16">
0,0,0,21,21,21,21,21,21,21,21,21,21,21,21,21,
0,0,0,21,21,21,21,21,21,21,21,21,21,21,21,21,
0,0,0,21,21,21,21,21,21,21,21,21,21,21,21,21,
0,0,0,21,21,21,21,21,21,21,21,21,21,21,21,21,
0,0,0,0,0,0,0,0,21,21,21,21,21,21,21,21,
0,0,0,0,0,0,0,0,21,21,21,21,21,21,21,21,
0,0,0,0,0,0,0,0,21,21,21,21,21,21,21,21,
0,0,0,0,0,0,0,0,21,21,21,21,21,21,21,21,
0,0,0,0,0,0,0,0,21,0,0,0,0,0,0,0,
0,0,0,0,0,0,0,0,21,0,0,0,0,0,0,0,
0,0,0,0,0,0,0,0,21,0,0,0,0,0,0,0,
0,0,0,0,0,0,0,0,21,0,0,0,0,0,0,0,
0,0,0,0,0,0,0,0,21,0,0,0,0,0,0,0,
0,0,0,0,0,0,0,0,21,0,0,0,0,0,0,0,
0,0,0,0,0,0,0,0,21,0,0,0,0,0,0,0,
0,0,0,0,0,0,0,0,21,0,0,0,0,0,0,0
</chunk>
   <chunk x="0" y="16" width="16" height="16">
21,21,21,21,21,21,21,21,21,21,21,21,21,21,21,21,
21,21,21,21,21,21,21,21,21,21,21,21,21,21,21,21,
21,21,21,21,21,21,21,21,21,21,21,21,21,21,21,21,
21,21,21,21,21,21,21,21,21,21,21,21,21,21,21,21,
21,21,21,21,21,21,21,21,21,21,21,21,21,21,21,21,
21,21,21,21,21,21,21,21,21,21,21,21,21,21,21,21,
21,21,21,21,21,21,21,21,21,21,21,21,21,21,21,21,
21,21,21,21,21,21,21,21,21,21,21,21,21,21,21,21,
0,0,0,0,0,0,0,0,0,0,0,0,0,0,0,0,
0,0,0,0,0,0,0,0,0,0,0,0,0,0,0,0,
0,0,0,0,0,0,0,0,0,0,0,0,0,0,0,0,
0,0,0,0,0,0,0,0,0,0,0,0,0,0,0,0,
0,0,0,0,0,0,0,0,0,0,0,0,0,0,0,0,
0,0,0,0,0,0,0,0,0,0,0,0,0,0,0,0,
0,0,0,0,0,0,0,0,0,0,0,0,0,0,0,0,
0,0,0,0,0,0,21,21,21,21,21,21,21,21,21,21
</chunk>
   <chunk x="16" y="16" width="16" height="16">
21,21,21,21,21,21,21,21,21,21,21,21,21,21,21,21,
21,21,21,21,21,21,21,21,21,21,21,21,21,21,21,21,
21,21,21,21,21,21,21,21,21,21,21,21,21,21,21,21,
21,21,21,21,21,21,21,21,21,21,21,21,21,21,21,21,
21,21,21,21,21,21,21,21,21,21,21,21,21,21,21,21,
21,21,21,21,21,21,21,21,21,21,21,21,21,21,21,21,
21,21,21,21,21,21,21,21,21,21,21,21,21,21,21,21,
21,21,21,21,21,21,21,21,21,21,21,21,21,21,21,21,
0,0,0,0,0,0,0,0,0,0,0,0,0,0,0,0,
0,0,0,0,0,0,0,0,0,0,0,0,0,0,0,0,
0,0,0,0,0,0,0,0,0,0,0,0,0,0,0,0,
0,0,0,0,0,0,0,0,0,0,0,0,0,0,0,0,
0,0,0,0,0,0,0,0,0,0,0,0,0,0,0,0,
0,0,0,0,0,0,0,0,0,0,0,0,0,0,0,0,
0,0,0,0,0,0,0,0,0,0,0,0,0,0,0,0,
21,21,21,21,21,21,21,21,21,21,21,21,21,21,21,21
</chunk>
   <chunk x="32" y="16" width="16" height="16">
21,21,21,21,0,0,0,0,0,0,0,21,21,21,21,21,
21,21,21,21,0,0,0,0,0,0,0,21,21,21,21,21,
21,21,21,21,0,0,0,0,0,0,0,21,21,21,21,21,
21,21,21,21,0,0,0,0,0,0,0,21,21,21,21,21,
21,21,21,21,0,0,0,0,0,0,0,21,21,21,21,21,
21,21,21,21,0,0,0,0,0,0,0,21,21,21,21,21,
21,21,21,21,0,0,0,0,0,0,0,21,21,21,21,21,
21,21,21,21,0,0,0,0,0,0,0,21,21,21,21,21,
0,0,0,0,0,0,0,0,0,0,0,21,0,0,0,0,
0,0,0,0,0,0,0,0,0,0,0,21,0,0,0,0,
0,0,0,0,0,0,0,0,0,0,0,21,0,0,0,0,
0,0,0,0,0,0,0,0,0,0,0,0,0,0,0,0,
0,0,0,0,0,0,0,0,0,0,0,0,0,0,0,0,
0,0,0,0,0,0,0,0,0,0,0,0,0,0,0,0,
0,0,0,0,0,0,0,0,0,0,0,0,0,0,0,0,
21,21,21,21,21,21,21,21,21,21,21,21,21,21,21,21
</chunk>
   <chunk x="48" y="16" width="16" height="16">
0,0,0,0,0,0,0,0,0,0,0,0,0,0,0,0,
0,0,0,0,0,0,0,0,0,0,0,0,0,0,0,0,
0,0,0,0,0,0,0,0,0,0,0,0,0,0,0,0,
0,0,0,0,0,0,0,0,0,0,0,0,0,0,0,0,
0,0,0,0,0,0,0,0,0,0,0,0,0,0,0,0,
0,0,0,0,0,0,0,0,0,0,0,0,0,0,0,0,
21,21,21,21,21,21,21,21,21,21,21,21,21,21,21,21,
21,21,21,21,21,21,21,21,21,21,21,21,21,21,21,21,
0,0,0,0,0,0,0,0,0,0,0,0,0,0,0,0,
0,0,0,0,0,0,0,0,0,0,0,0,0,0,0,0,
0,0,0,0,0,0,0,0,0,0,0,0,0,0,0,0,
0,0,0,0,0,0,0,0,0,0,0,0,0,0,0,0,
0,0,0,0,0,0,0,0,0,0,0,0,0,0,0,0,
0,0,0,0,0,0,0,0,0,0,0,0,0,0,0,0,
0,0,0,0,0,0,0,0,0,0,0,0,0,0,0,0,
21,21,21,21,21,21,21,21,21,0,0,0,0,0,21,21
</chunk>
   <chunk x="64" y="16" width="16" height="16">
0,0,0,0,0,0,0,0,0,0,0,0,0,0,0,0,
0,0,0,0,0,0,0,0,0,0,0,0,0,0,0,0,
0,0,0,0,0,0,0,0,0,0,0,0,0,0,0,0,
0,0,0,0,0,0,0,0,0,0,0,0,0,0,0,0,
0,0,0,0,0,0,0,0,0,0,0,0,0,0,0,0,
0,0,0,0,0,0,0,0,0,0,0,0,0,0,0,0,
21,21,21,21,21,21,0,0,0,0,0,0,0,0,0,0,
21,21,21,21,21,21,0,0,0,0,0,0,0,0,0,0,
0,0,0,0,21,21,0,0,0,0,0,0,0,0,0,0,
0,0,0,0,21,21,0,0,0,0,0,0,0,0,0,0,
0,0,0,0,21,21,0,0,0,0,0,0,0,0,0,0,
0,0,0,0,21,21,0,0,0,0,0,0,0,0,0,0,
0,0,0,0,21,21,0,0,0,0,0,0,0,0,0,0,
0,0,0,0,21,21,0,0,0,0,0,0,0,0,0,0,
0,0,0,0,21,21,0,0,0,0,0,0,0,0,0,0,
21,21,21,21,21,21,0,0,0,0,0,0,0,0,0,0
</chunk>
   <chunk x="80" y="16" width="16" height="16">
0,21,21,21,21,21,21,21,21,21,21,21,21,21,21,21,
0,21,21,21,21,21,21,21,21,21,21,21,21,21,21,21,
0,21,21,21,21,21,21,21,21,21,21,21,21,21,21,21,
0,21,21,21,21,21,21,21,21,21,21,21,21,21,21,21,
0,21,21,21,21,21,21,21,21,21,21,21,21,21,21,21,
0,21,21,21,21,21,21,21,21,21,21,21,21,21,21,21,
0,21,21,21,21,21,21,21,21,21,21,21,21,21,21,21,
0,21,21,21,21,21,21,21,21,21,21,21,21,21,21,21,
0,21,21,21,21,21,21,21,21,21,21,21,21,21,21,21,
0,21,21,21,21,21,21,21,21,21,21,21,21,21,21,21,
0,21,21,21,21,21,21,21,21,21,21,21,21,21,21,21,
0,21,21,21,21,21,21,21,21,21,21,21,21,21,21,21,
0,21,21,21,21,21,21,21,21,21,21,21,21,21,21,21,
0,21,21,21,21,21,21,21,21,21,21,21,21,21,21,21,
0,21,21,21,21,21,21,21,21,21,21,21,21,21,21,21,
0,21,21,21,21,21,21,21,21,21,21,21,21,21,21,21
</chunk>
   <chunk x="96" y="16" width="16" height="16">
21,21,21,21,21,21,21,21,21,21,21,21,21,21,27,27,
21,21,21,21,21,21,21,21,21,21,21,21,21,21,27,27,
21,21,21,21,21,21,21,21,21,21,21,21,21,21,27,27,
21,21,21,21,21,21,21,21,21,21,21,21,21,21,27,27,
21,21,21,21,21,21,21,21,21,21,21,21,21,21,27,27,
21,21,21,21,21,21,21,21,21,21,21,21,21,21,27,27,
21,21,21,21,21,21,21,21,21,21,21,21,21,21,27,27,
21,21,21,21,21,21,21,21,21,21,21,21,21,21,27,27,
21,21,21,21,21,21,21,21,21,21,21,21,21,21,27,27,
21,21,21,21,21,21,21,21,21,21,21,21,21,21,27,27,
21,21,21,21,21,21,21,21,21,21,21,21,21,21,27,27,
21,21,21,21,21,21,21,21,21,21,21,21,21,21,27,27,
21,21,21,21,21,21,21,21,21,21,21,21,21,21,27,27,
21,21,21,21,21,21,21,21,21,21,21,21,21,21,27,27,
21,21,21,21,21,21,21,21,21,21,21,21,21,21,27,27,
21,21,21,21,21,21,21,21,21,21,21,21,21,21,27,27
</chunk>
   <chunk x="112" y="16" width="16" height="16">
27,27,27,27,27,27,27,27,27,27,27,27,27,27,27,27,
27,27,27,27,27,27,27,27,27,27,27,27,27,27,27,27,
27,27,27,27,27,27,27,27,27,27,27,27,27,27,27,27,
27,27,27,27,27,27,27,27,27,27,27,27,27,27,27,27,
27,27,27,27,27,27,27,27,27,27,27,27,27,27,27,27,
27,27,27,27,27,27,27,27,27,27,27,27,27,27,27,27,
27,27,27,27,27,27,27,27,27,27,27,27,27,27,27,27,
27,27,27,27,27,27,27,27,27,27,27,27,27,27,27,27,
27,27,27,27,27,27,27,27,27,27,27,27,27,27,27,27,
27,27,27,27,27,27,27,27,27,27,27,27,27,27,27,27,
27,27,27,27,27,27,27,27,27,27,27,27,27,27,27,27,
27,27,27,27,27,27,27,27,27,27,27,27,27,27,27,27,
27,27,27,27,27,27,27,27,27,27,27,27,27,27,27,27,
27,27,27,27,27,27,27,27,27,27,27,27,27,27,27,27,
27,27,27,27,27,27,27,27,27,27,27,27,27,27,27,27,
27,27,27,27,27,27,27,27,27,27,27,27,27,27,27,27
</chunk>
   <chunk x="-80" y="32" width="16" height="16">
0,0,0,0,0,0,0,0,0,0,21,21,21,21,21,21,
0,0,0,0,0,0,0,0,0,0,21,21,21,21,21,21,
0,0,0,0,0,0,0,0,0,0,21,21,21,21,21,21,
0,0,0,0,0,0,0,0,0,0,21,21,21,21,21,21,
0,0,0,0,0,0,0,0,0,0,21,21,21,21,21,21,
0,0,0,0,0,0,0,0,0,0,21,21,21,21,21,21,
0,0,0,0,0,0,0,0,0,0,21,21,21,21,21,21,
0,0,0,0,0,0,0,0,0,0,21,21,21,21,21,21,
0,0,0,0,0,0,0,0,0,0,21,21,21,21,21,21,
0,0,0,0,0,0,0,0,0,0,21,21,21,21,21,21,
0,0,0,0,0,0,0,0,0,0,21,21,21,21,21,21,
0,0,0,0,0,0,0,0,0,0,21,21,21,21,21,21,
0,0,0,0,0,0,0,0,0,0,21,21,21,21,21,21,
0,0,0,0,0,0,0,0,0,0,21,21,21,21,21,21,
0,0,0,0,0,0,0,0,0,0,21,21,21,21,21,21,
0,0,0,0,0,0,0,0,0,0,21,21,21,21,21,21
</chunk>
   <chunk x="-64" y="32" width="16" height="16">
21,21,21,21,21,21,21,21,21,21,21,21,21,21,21,21,
21,21,21,21,21,21,21,21,21,21,21,21,21,21,21,21,
21,21,21,21,21,21,21,21,21,21,21,21,21,21,21,21,
21,21,21,21,21,21,21,21,21,21,21,21,21,21,21,21,
21,21,21,21,21,21,21,21,21,21,21,21,21,21,21,21,
21,21,21,21,21,21,21,21,21,21,21,21,21,21,21,21,
21,21,21,21,21,21,21,21,21,21,21,21,21,21,21,21,
21,21,21,21,21,21,21,21,21,21,21,21,21,21,21,21,
21,21,21,21,21,21,21,21,21,21,21,21,21,21,21,21,
21,21,21,21,21,21,21,21,21,21,21,21,21,21,21,21,
21,21,21,21,21,21,21,21,21,21,21,21,21,21,21,21,
21,21,21,21,21,21,21,21,21,21,21,21,21,21,21,21,
21,21,21,21,21,21,21,21,21,21,21,21,21,21,21,21,
21,21,21,21,21,21,21,21,21,21,21,21,21,21,21,21,
21,21,21,21,21,21,21,21,21,21,21,21,21,21,21,21,
21,21,21,21,21,21,21,21,21,21,21,21,21,21,21,21
</chunk>
   <chunk x="-48" y="32" width="16" height="16">
21,21,21,21,21,21,21,21,21,21,21,21,21,21,21,21,
21,21,21,21,21,21,21,21,21,21,21,21,21,21,21,21,
21,21,21,21,21,21,21,21,21,21,21,21,21,21,21,21,
21,21,21,21,21,21,21,21,21,21,21,21,21,21,21,21,
21,21,21,21,21,21,21,21,21,21,21,21,21,21,21,21,
21,21,21,21,21,21,21,21,21,21,21,21,21,21,21,21,
21,21,21,21,21,21,21,21,21,21,21,21,21,21,21,21,
21,21,21,21,21,21,21,21,21,21,21,21,21,21,21,21,
21,21,21,21,21,21,21,21,21,21,21,21,21,21,21,21,
21,21,21,21,21,21,21,21,21,21,21,21,21,21,21,21,
21,21,21,21,21,21,21,21,21,21,21,21,21,21,21,21,
21,21,21,21,21,21,21,21,21,21,21,21,21,21,21,21,
21,21,21,21,21,21,21,21,21,21,21,21,21,21,21,21,
21,21,21,21,21,21,21,21,21,21,21,21,21,21,21,21,
21,21,21,21,21,21,21,21,21,21,21,21,21,21,21,21,
21,21,21,21,21,21,21,21,21,21,21,21,21,21,21,21
</chunk>
   <chunk x="-32" y="32" width="16" height="16">
21,21,21,21,21,21,21,21,21,21,0,0,0,0,0,0,
21,21,21,21,21,21,21,21,21,21,21,21,21,0,0,0,
21,21,21,21,21,21,21,21,21,21,21,21,21,0,0,0,
21,21,21,21,21,21,21,21,21,21,21,21,21,0,0,0,
21,21,21,21,21,21,21,21,21,21,21,21,21,21,21,21,
21,21,21,21,21,21,21,21,21,21,21,21,21,21,21,21,
21,21,21,21,21,21,21,21,21,21,21,21,21,21,21,21,
21,21,21,21,21,21,21,21,21,21,21,21,21,21,21,21,
21,21,21,21,21,21,21,21,21,21,21,21,21,21,21,21,
21,21,21,21,21,21,21,21,21,21,21,21,21,21,21,21,
21,21,21,21,21,21,21,21,21,21,21,21,21,21,21,21,
21,21,21,21,21,21,21,21,21,21,21,21,21,21,21,21,
21,21,21,21,21,21,21,21,21,21,21,21,21,21,21,21,
21,21,21,21,21,21,21,21,21,21,21,21,21,21,21,21,
21,21,21,21,21,21,21,21,21,21,21,21,21,21,21,21,
21,21,21,21,21,21,21,21,21,21,21,21,21,21,21,21
</chunk>
   <chunk x="-16" y="32" width="16" height="16">
0,0,0,0,0,0,0,0,21,0,0,0,0,0,0,0,
0,0,0,0,0,0,0,0,21,0,0,0,0,0,0,0,
0,0,0,0,0,0,0,0,21,0,0,0,0,0,0,0,
0,0,0,0,0,0,0,0,0,0,0,0,0,0,0,0,
21,21,0,0,0,0,0,0,0,0,0,0,0,0,0,0,
21,21,0,0,0,0,0,0,0,0,0,0,0,0,0,0,
21,21,0,0,0,0,0,0,0,0,0,0,0,0,0,0,
21,21,21,21,21,21,21,21,21,21,21,21,21,21,21,21,
21,21,21,21,21,21,21,21,21,21,21,21,21,21,21,21,
21,21,21,21,21,21,21,21,21,21,21,21,21,21,21,21,
21,21,21,21,21,21,21,21,21,21,21,21,21,21,21,21,
21,21,21,21,21,21,21,21,21,21,21,21,21,21,21,21,
21,21,21,21,21,21,21,21,21,21,21,21,21,21,21,21,
21,21,21,21,21,21,21,21,21,21,21,21,21,21,21,21,
21,21,21,21,21,21,21,21,21,21,21,21,21,21,21,21,
21,21,21,21,21,21,21,21,21,21,21,21,21,21,21,21
</chunk>
   <chunk x="0" y="32" width="16" height="16">
0,0,0,0,0,0,0,0,0,0,0,0,0,0,0,0,
0,0,0,0,0,0,0,0,0,0,0,0,0,0,0,0,
0,0,0,0,0,0,0,0,0,0,0,0,0,0,0,0,
0,0,0,0,0,0,0,0,0,0,0,0,0,0,0,0,
0,0,0,0,0,0,0,0,0,0,0,0,0,0,0,0,
0,0,0,0,0,0,0,0,0,0,0,0,0,0,0,0,
0,0,0,0,0,0,0,0,0,0,0,0,0,0,0,0,
21,21,21,21,21,21,21,21,21,21,21,21,21,21,21,21,
21,21,21,21,21,21,21,21,21,21,21,21,21,21,21,21,
21,21,21,21,21,21,21,21,21,21,21,21,21,21,21,21,
21,21,21,21,21,21,21,21,21,21,21,21,21,21,21,21,
21,21,21,21,21,21,21,21,21,21,21,21,21,21,21,21,
21,21,21,21,21,21,21,21,21,21,21,21,21,21,21,21,
21,21,21,21,21,21,21,21,21,21,21,21,21,21,21,21,
21,21,21,21,21,21,21,21,21,21,21,21,21,21,21,21,
21,21,21,21,21,21,21,21,21,21,21,21,21,21,21,21
</chunk>
   <chunk x="16" y="32" width="16" height="16">
0,0,0,0,0,0,0,0,0,0,0,0,0,0,21,21,
0,0,0,0,0,0,0,0,0,0,0,0,0,0,0,0,
0,0,0,0,0,0,0,0,0,0,0,0,0,0,0,0,
0,0,0,0,0,0,0,0,0,0,0,0,0,0,0,0,
0,0,0,0,0,0,0,0,0,0,0,0,0,0,0,0,
0,0,0,0,0,0,0,0,0,0,0,0,0,0,0,0,
0,0,0,0,0,0,0,0,0,0,0,0,0,0,0,0,
21,21,21,21,21,21,21,21,21,21,21,21,21,0,0,0,
21,21,21,21,21,21,21,21,21,21,21,21,21,21,21,21,
21,21,21,21,21,21,21,21,21,21,21,21,21,21,21,21,
21,21,21,21,21,21,21,21,21,21,21,21,21,21,21,21,
21,21,21,21,21,21,21,21,21,21,21,21,21,21,21,21,
21,21,21,21,21,21,21,21,21,21,21,21,21,21,21,21,
21,21,21,21,21,21,21,21,21,21,21,21,21,21,21,21,
21,21,21,21,21,21,21,21,21,21,21,21,21,21,21,21,
21,21,21,21,21,21,21,21,21,21,21,21,21,21,21,21
</chunk>
   <chunk x="32" y="32" width="16" height="16">
21,21,21,21,21,0,0,0,0,0,0,21,21,21,21,21,
0,0,0,0,0,0,0,0,0,0,0,21,21,21,21,21,
0,0,0,0,0,0,0,0,0,0,0,21,21,21,21,21,
0,0,0,0,0,0,0,0,0,0,0,21,21,21,21,21,
0,0,0,0,0,0,0,0,0,0,0,21,21,21,21,21,
0,0,0,0,0,0,0,0,0,0,0,21,21,21,21,21,
0,0,0,0,0,0,0,0,0,0,0,21,21,21,21,21,
0,0,0,0,0,0,21,21,21,21,21,21,21,21,21,21,
21,21,21,21,21,21,21,21,21,21,21,21,21,21,21,21,
21,21,21,21,21,21,21,21,21,21,21,21,21,21,21,21,
21,21,21,21,21,21,21,21,21,21,21,21,21,21,21,21,
21,21,21,21,21,21,21,21,21,21,21,21,21,21,21,21,
21,21,21,21,21,21,21,21,21,21,21,21,21,21,21,21,
21,21,21,21,21,21,21,21,21,21,21,21,21,21,21,21,
21,21,21,21,21,21,21,21,21,21,21,21,21,21,21,21,
21,21,21,21,21,21,21,21,21,21,21,21,21,21,21,21
</chunk>
   <chunk x="48" y="32" width="16" height="16">
21,21,21,21,21,21,21,21,21,21,21,21,21,21,21,21,
21,21,21,21,21,21,21,21,21,21,21,21,21,21,21,21,
21,21,21,21,21,21,21,21,21,21,21,21,21,21,21,21,
21,21,21,21,21,21,21,21,21,21,21,21,21,21,21,21,
21,21,21,21,21,21,21,21,21,21,21,21,21,21,21,21,
21,21,21,21,21,21,21,21,21,21,21,21,21,21,21,21,
21,21,21,21,21,21,21,21,21,21,21,21,21,21,21,21,
21,21,21,21,21,21,21,21,21,21,21,21,21,21,21,21,
21,21,21,21,21,21,21,21,21,21,21,21,21,21,21,21,
21,21,21,21,21,21,21,21,21,21,21,21,21,21,21,21,
21,21,21,21,21,21,21,21,21,21,21,21,21,0,21,21,
21,21,21,21,21,21,21,21,21,21,21,0,0,0,21,21,
21,21,21,21,21,21,21,21,21,21,21,0,0,0,0,0,
21,21,21,21,21,21,21,21,21,21,21,0,0,0,0,0,
21,21,21,21,21,21,21,21,21,21,21,0,0,0,0,0,
21,21,21,21,21,21,21,21,21,21,21,0,0,0,0,0
</chunk>
   <chunk x="64" y="32" width="16" height="16">
21,21,21,21,21,21,0,0,0,0,0,0,0,0,0,0,
21,21,21,21,21,21,0,0,0,0,0,0,0,0,0,0,
21,21,21,21,21,21,0,0,0,0,0,0,0,0,0,0,
21,21,21,21,21,21,0,0,0,0,0,0,0,0,0,0,
21,21,21,21,21,21,0,0,0,0,0,0,0,0,0,0,
21,21,21,21,21,21,0,0,0,0,0,0,0,0,0,0,
21,21,21,21,21,21,0,0,0,0,0,0,0,0,0,0,
21,21,21,21,21,21,0,0,0,0,0,0,0,0,0,0,
21,21,21,21,21,21,0,0,0,0,0,0,0,0,0,0,
21,21,21,21,21,21,0,0,0,0,0,0,0,0,0,0,
21,21,21,0,21,0,0,0,0,0,0,0,0,0,0,0,
21,21,21,0,0,0,0,0,0,0,0,0,0,0,0,0,
0,0,0,0,0,0,0,0,0,0,0,0,0,0,0,0,
0,0,0,0,0,0,0,0,0,0,0,0,0,0,0,0,
0,0,0,0,0,0,0,0,0,0,0,0,0,0,0,0,
0,0,0,0,0,0,0,0,0,0,0,0,0,0,0,0
</chunk>
   <chunk x="80" y="32" width="16" height="16">
0,21,21,21,21,21,21,21,21,21,21,21,21,21,21,21,
0,21,21,21,21,21,21,21,21,21,21,21,21,21,21,21,
0,21,21,21,21,21,21,21,21,21,21,21,21,21,21,21,
0,21,21,21,21,21,21,21,21,21,21,21,21,21,21,21,
0,21,21,21,21,21,21,21,21,21,21,21,21,21,21,21,
0,21,21,21,21,21,21,21,21,21,21,21,21,21,21,21,
0,21,21,21,21,21,21,21,21,21,21,21,21,21,21,21,
0,21,21,21,21,21,21,21,21,21,21,21,21,21,21,21,
0,21,21,21,21,21,21,21,21,21,21,21,21,21,21,21,
0,21,21,21,21,21,21,21,21,21,21,21,21,21,21,21,
0,21,21,21,21,21,21,21,21,21,21,21,21,21,21,21,
0,21,21,21,21,21,21,21,21,21,21,21,21,21,21,21,
0,21,21,21,21,21,21,21,21,21,21,21,21,21,21,21,
0,21,21,21,21,21,21,21,21,21,21,21,21,21,21,21,
0,21,21,21,21,21,21,21,21,21,21,21,21,21,21,21,
0,21,21,21,21,21,21,21,21,21,21,21,21,21,21,21
</chunk>
   <chunk x="96" y="32" width="16" height="16">
21,21,21,21,21,21,21,21,21,21,21,21,21,21,27,27,
21,21,21,21,21,21,21,21,21,21,21,21,21,21,27,27,
21,21,21,21,21,21,21,21,21,21,21,21,21,21,27,27,
21,21,21,21,21,21,21,21,21,21,21,21,21,21,27,27,
21,21,21,21,21,21,21,21,21,21,21,21,21,21,27,27,
21,21,21,21,21,21,21,21,21,21,21,21,21,21,27,27,
21,21,21,21,21,21,21,21,21,21,21,21,21,21,27,27,
21,21,21,21,21,21,21,21,21,21,21,21,21,21,27,27,
21,21,21,21,21,21,21,21,21,21,21,21,21,21,27,27,
21,21,21,21,21,21,21,21,21,21,21,21,21,21,27,27,
21,21,21,21,21,21,21,21,21,21,21,21,21,21,27,27,
21,21,21,21,21,21,21,21,21,21,21,21,21,21,27,27,
21,21,21,21,21,21,21,21,21,21,21,21,21,21,27,27,
21,21,21,21,21,21,21,21,21,21,21,21,21,21,27,27,
21,21,21,21,21,21,21,21,21,21,21,21,21,21,27,27,
21,21,21,21,21,21,21,21,21,21,21,21,21,21,27,27
</chunk>
   <chunk x="112" y="32" width="16" height="16">
27,27,27,27,27,27,27,27,27,27,27,27,27,27,27,27,
27,27,27,27,27,27,27,27,27,27,27,27,27,27,27,27,
27,27,27,27,27,27,27,27,27,27,27,27,27,27,27,27,
27,27,27,27,27,27,27,27,27,27,27,27,27,27,27,27,
27,27,27,27,27,27,27,27,27,27,27,27,27,27,27,27,
27,27,27,27,27,27,27,27,27,27,27,27,27,27,27,27,
27,27,27,27,27,27,27,27,27,27,27,27,27,27,27,27,
27,27,27,27,27,27,27,27,27,27,27,27,27,27,27,27,
27,27,27,27,27,27,27,27,27,27,27,27,27,27,27,27,
27,27,27,27,27,27,27,27,27,27,27,27,27,27,27,27,
27,27,27,27,27,27,27,27,27,27,27,27,27,27,27,27,
27,27,27,27,27,27,27,27,27,27,27,27,27,27,27,27,
27,27,27,27,27,27,27,27,27,27,27,27,27,27,27,27,
27,27,27,27,27,27,27,27,27,27,27,27,27,27,27,27,
27,27,27,27,27,27,27,27,27,27,27,27,27,27,27,27,
27,27,27,27,27,27,27,27,27,27,27,27,27,27,27,27
</chunk>
   <chunk x="-80" y="48" width="16" height="16">
0,0,0,0,0,0,0,0,0,0,21,21,21,21,21,21,
0,0,0,0,0,0,0,0,0,0,21,21,21,21,21,21,
0,0,0,0,0,0,0,0,0,0,21,21,21,21,21,21,
0,0,0,0,0,0,0,0,0,0,21,21,21,21,21,21,
0,0,0,0,0,0,0,0,0,0,21,21,21,21,21,21,
0,0,0,0,0,0,0,0,0,0,21,21,21,21,21,21,
0,0,0,0,0,0,0,0,0,0,21,21,21,21,21,21,
0,0,0,0,0,0,0,0,0,0,21,21,21,21,21,21,
0,0,0,0,0,0,0,0,0,0,21,21,21,21,21,21,
0,0,0,0,0,0,0,0,0,0,21,21,21,21,21,21,
0,0,0,0,0,0,0,0,0,0,21,21,21,21,21,21,
0,0,0,0,0,0,0,0,0,0,21,21,21,21,21,21,
0,0,0,0,0,0,0,0,0,0,21,21,21,21,21,21,
0,0,0,0,0,0,0,0,0,0,21,21,21,21,21,21,
0,0,0,0,0,0,0,0,0,0,21,21,21,21,21,21,
0,0,0,0,0,0,0,0,0,0,21,21,21,21,21,21
</chunk>
   <chunk x="-64" y="48" width="16" height="16">
21,21,21,21,21,21,21,21,21,21,21,21,21,21,21,21,
21,21,21,21,21,21,21,21,21,21,21,21,21,21,21,21,
21,21,21,21,21,21,21,21,21,21,21,21,21,21,21,21,
21,21,21,21,21,21,21,21,21,21,21,21,21,21,21,21,
21,21,21,21,21,21,21,21,21,21,21,21,21,21,21,21,
21,21,21,21,21,21,21,21,21,21,21,21,21,21,21,21,
21,21,21,21,21,21,21,21,21,21,21,21,21,21,21,21,
21,21,21,21,21,21,21,21,21,21,21,21,21,21,21,21,
21,21,21,21,21,21,21,21,21,21,21,21,21,21,21,21,
21,21,21,21,21,21,21,21,21,21,21,21,21,21,21,21,
21,21,21,21,21,21,21,21,21,21,21,21,21,21,21,21,
21,21,21,21,21,21,21,21,21,21,21,21,21,21,21,21,
21,21,21,21,21,21,21,21,21,21,21,21,21,21,21,21,
21,21,21,21,21,21,21,21,21,21,21,21,21,21,21,21,
21,21,21,21,21,21,21,21,21,21,21,21,21,21,21,21,
21,21,21,21,21,21,21,21,21,21,21,21,21,21,21,21
</chunk>
   <chunk x="-48" y="48" width="16" height="16">
21,21,21,21,21,21,21,21,21,21,21,21,21,21,21,21,
21,21,21,21,21,21,21,21,21,21,21,21,21,21,21,21,
21,21,21,21,21,21,21,21,21,21,21,21,21,21,21,21,
21,21,21,21,21,21,21,21,21,21,21,21,21,21,21,21,
21,21,21,21,21,21,21,21,21,21,21,21,21,21,21,21,
21,21,21,21,21,21,21,21,21,21,21,21,21,21,21,21,
21,21,21,21,21,21,21,21,21,21,21,21,21,21,21,21,
21,21,21,21,21,21,21,21,21,21,21,21,21,21,21,21,
21,21,21,21,21,21,21,21,21,21,21,21,21,21,21,21,
21,21,21,21,21,21,21,21,21,21,21,21,21,21,21,21,
21,21,21,21,21,21,21,21,21,21,21,21,21,21,21,21,
21,21,21,21,21,21,21,21,21,21,21,21,21,21,21,21,
21,21,21,21,21,21,21,21,21,21,21,21,21,21,21,21,
21,21,21,21,21,21,21,21,21,21,21,21,21,21,21,21,
21,21,21,21,21,21,21,21,21,21,21,21,21,21,21,21,
21,21,21,21,21,21,21,21,21,21,21,21,21,21,21,21
</chunk>
   <chunk x="-32" y="48" width="16" height="16">
21,21,21,21,21,21,21,21,21,21,21,21,21,21,21,21,
21,21,21,21,21,21,21,21,21,21,21,21,21,21,21,21,
21,21,21,21,21,21,21,21,21,21,21,21,21,21,21,21,
21,21,21,21,21,21,21,21,21,21,21,21,21,21,21,21,
21,21,21,21,21,21,21,21,21,21,21,21,21,21,21,21,
21,21,21,21,21,21,21,21,21,21,21,21,21,21,21,21,
21,21,21,21,21,21,21,21,21,21,21,21,21,21,21,21,
21,21,21,21,21,21,21,21,21,21,21,21,21,21,21,21,
21,21,21,21,21,21,21,21,21,21,21,21,21,21,21,21,
21,21,21,21,21,21,21,21,21,21,21,21,21,21,21,21,
21,21,21,21,21,21,21,21,21,21,21,21,21,21,21,21,
21,21,21,21,21,21,21,21,21,21,21,21,21,21,21,21,
21,21,21,21,21,21,21,21,21,21,21,21,21,21,21,21,
21,21,21,21,21,21,21,21,21,21,21,21,21,21,21,21,
21,21,21,21,21,21,21,21,21,21,21,21,21,21,21,21,
21,21,21,21,21,21,21,21,21,21,21,21,21,21,21,21
</chunk>
   <chunk x="-16" y="48" width="16" height="16">
21,21,21,21,21,21,21,21,21,21,21,21,21,21,21,21,
21,21,21,21,21,21,21,21,21,21,21,21,21,21,21,21,
21,21,21,21,21,21,21,21,21,21,21,21,21,21,21,21,
21,21,21,21,21,21,21,21,21,21,21,21,21,21,21,21,
21,21,21,21,21,21,21,21,21,21,21,21,21,21,21,21,
21,21,21,21,21,21,21,21,21,21,21,21,21,21,21,21,
21,21,21,21,21,21,21,21,21,21,21,21,21,21,21,21,
21,21,21,21,21,21,21,21,21,21,21,21,21,21,21,21,
21,21,21,21,21,21,21,21,21,21,21,21,21,21,21,21,
21,21,21,21,21,21,21,21,21,21,21,21,21,21,21,21,
21,21,21,21,21,21,21,21,21,21,21,21,21,21,21,21,
21,21,21,21,21,21,21,21,21,21,21,21,21,21,21,21,
21,21,21,21,21,21,21,21,21,21,21,21,21,21,21,21,
21,21,21,21,21,21,21,21,21,21,21,21,21,21,21,21,
21,21,21,21,21,21,21,21,21,21,21,21,21,21,21,21,
21,21,21,21,21,21,21,21,21,21,21,21,21,21,21,21
</chunk>
   <chunk x="0" y="48" width="16" height="16">
21,21,21,21,21,21,21,21,21,21,21,21,21,21,21,21,
21,21,21,21,21,21,21,21,21,21,21,21,21,21,21,21,
21,21,21,21,21,21,21,21,21,21,21,21,21,21,21,21,
21,21,21,21,21,21,21,21,21,21,21,21,21,21,21,21,
21,21,21,21,21,21,21,21,21,21,21,21,21,21,21,21,
21,21,21,21,21,21,21,21,21,21,21,21,21,21,21,21,
21,21,21,21,21,21,21,21,21,21,21,21,21,21,21,21,
21,21,21,21,21,21,21,21,21,21,21,21,21,21,21,21,
21,21,21,21,21,21,21,21,21,21,21,21,21,21,21,21,
21,21,21,21,21,21,21,21,21,21,21,21,21,21,21,21,
21,21,21,21,21,21,21,21,21,21,21,21,21,21,21,21,
21,21,21,21,21,21,21,21,21,21,21,21,21,21,21,21,
21,21,21,21,21,21,21,21,21,21,21,21,21,21,21,21,
21,21,21,21,21,21,21,21,21,21,21,21,21,21,21,21,
21,21,21,21,21,21,21,21,21,21,21,21,21,21,21,21,
21,21,21,21,21,21,21,21,21,21,21,21,21,21,21,21
</chunk>
   <chunk x="16" y="48" width="16" height="16">
21,21,21,21,21,21,21,21,21,21,21,21,21,21,21,21,
21,21,21,21,21,21,21,21,21,21,21,21,21,21,21,21,
21,21,21,21,21,21,21,21,21,21,21,21,21,21,21,21,
21,21,21,21,21,21,21,21,21,21,21,21,21,21,21,21,
21,21,21,21,21,21,21,21,21,21,21,21,21,21,21,21,
21,21,21,21,21,21,21,21,21,21,21,21,21,21,21,21,
21,21,21,21,21,21,21,21,21,21,21,21,21,21,21,21,
21,21,21,21,21,21,21,21,21,21,21,21,21,21,21,21,
21,21,21,21,21,21,21,21,21,21,21,21,21,21,21,21,
21,21,21,21,21,21,21,21,21,21,21,21,21,21,21,21,
21,21,21,21,21,21,21,21,21,21,21,21,21,21,21,21,
21,21,21,21,21,21,21,21,21,21,21,21,21,21,21,21,
21,21,21,21,21,21,21,21,21,21,21,21,21,21,21,21,
21,21,21,21,21,21,21,21,21,21,21,21,21,21,21,21,
21,21,21,21,21,21,21,21,21,21,21,21,21,21,21,21,
21,21,21,21,21,21,21,21,21,21,21,21,21,21,21,21
</chunk>
   <chunk x="32" y="48" width="16" height="16">
21,21,21,21,21,21,21,21,21,21,21,21,21,21,21,21,
21,21,21,21,21,21,21,21,21,21,21,21,21,21,21,21,
21,21,21,21,21,21,21,21,21,21,21,21,21,21,21,21,
21,21,21,21,21,21,21,21,21,21,21,21,21,21,21,21,
21,21,21,21,21,21,21,21,21,21,21,21,21,21,21,21,
21,21,21,21,21,21,21,21,21,21,21,21,21,21,21,21,
21,21,21,21,21,21,21,21,21,21,21,21,21,21,21,21,
21,21,21,21,21,21,21,21,21,21,21,21,21,21,21,21,
21,21,21,21,21,21,21,21,21,21,21,21,21,21,21,21,
21,21,21,21,21,21,21,21,21,21,21,21,21,21,21,21,
21,21,21,21,21,21,21,21,21,21,21,21,21,21,21,21,
21,21,21,21,21,21,21,21,21,21,21,21,21,21,21,21,
21,21,21,21,21,21,21,21,21,21,21,21,21,21,21,21,
21,21,21,21,21,21,21,21,21,21,21,21,21,21,21,21,
21,21,21,21,21,21,21,21,21,21,21,21,21,21,21,21,
21,21,21,21,21,21,21,21,21,21,21,21,21,21,21,21
</chunk>
   <chunk x="48" y="48" width="16" height="16">
21,21,21,21,21,21,21,21,21,21,21,0,0,0,0,0,
21,21,21,21,21,21,21,21,21,21,21,0,0,0,0,0,
21,21,21,21,21,21,21,21,21,21,21,0,0,21,21,21,
21,21,21,21,21,21,21,21,21,21,21,21,21,21,21,21,
21,21,21,21,21,21,21,21,21,21,21,21,21,21,21,21,
21,21,21,21,21,21,21,21,21,21,21,21,21,21,21,21,
21,21,21,21,21,21,21,21,21,21,21,21,21,21,21,21,
21,21,21,21,21,21,21,21,21,21,21,21,21,21,21,21,
21,21,21,21,21,21,21,21,21,21,21,21,21,21,21,21,
21,21,21,21,21,21,21,21,21,21,21,21,21,21,21,21,
21,21,21,21,21,21,21,21,21,21,21,21,21,21,21,21,
21,21,21,21,21,21,21,21,21,21,21,21,21,21,21,21,
21,21,21,21,21,21,21,21,21,21,21,21,21,21,21,21,
21,21,21,21,21,21,21,21,21,21,21,21,21,21,21,21,
21,21,21,21,21,21,21,21,21,21,21,21,21,21,21,21,
21,21,21,21,21,21,21,21,21,21,21,21,21,21,21,21
</chunk>
   <chunk x="64" y="48" width="16" height="16">
0,0,0,0,0,0,0,0,0,0,0,0,0,21,21,21,
0,0,0,0,0,0,21,21,21,21,21,0,0,21,21,21,
21,21,21,21,0,0,21,21,21,21,21,0,0,21,21,21,
21,21,21,21,21,21,21,21,21,21,21,21,21,21,21,21,
21,21,21,21,21,21,21,21,21,21,21,21,21,21,21,21,
21,21,21,21,21,21,21,21,21,21,21,21,21,21,21,21,
21,21,21,21,21,21,21,21,21,21,21,21,21,21,21,21,
21,21,21,21,21,21,21,21,21,21,21,21,21,21,21,21,
21,21,21,21,21,21,21,21,21,21,21,21,21,21,21,21,
21,21,21,21,21,21,21,21,21,21,21,21,21,21,21,21,
21,21,21,21,21,21,21,21,21,21,21,21,21,21,21,21,
21,21,21,21,21,21,21,21,21,21,21,21,21,21,21,21,
21,21,21,21,21,21,21,21,21,21,21,21,21,21,21,21,
21,21,21,21,21,21,21,21,21,21,21,21,21,21,21,21,
21,21,21,21,21,21,21,21,21,21,21,21,21,21,21,21,
21,21,21,21,21,21,21,21,21,21,21,21,21,21,21,21
</chunk>
   <chunk x="80" y="48" width="16" height="16">
21,21,21,21,21,21,21,21,21,21,21,21,21,21,21,21,
21,21,21,21,21,21,21,21,21,21,21,21,21,21,21,21,
21,21,21,21,21,21,21,21,21,21,21,21,21,21,21,21,
21,21,21,21,21,21,21,21,21,21,21,21,21,21,21,21,
21,21,21,21,21,21,21,21,21,21,21,21,21,21,21,21,
21,21,21,21,21,21,21,21,21,21,21,21,21,21,21,21,
21,21,21,21,21,21,21,21,21,21,21,21,21,21,21,21,
21,21,21,21,21,21,21,21,21,21,21,21,21,21,21,21,
21,21,21,21,21,21,21,21,21,21,21,21,21,21,21,21,
21,21,21,21,21,21,21,21,21,21,21,21,21,21,21,21,
21,21,21,21,21,21,21,21,21,21,21,21,21,21,21,21,
21,21,21,21,21,21,21,21,21,21,21,21,21,21,21,21,
21,21,21,21,21,21,21,21,21,21,21,21,21,21,21,21,
21,21,21,21,21,21,21,21,21,21,21,21,21,21,21,21,
21,21,21,21,21,21,21,21,21,21,21,21,21,21,21,21,
21,21,21,21,21,21,21,21,21,21,21,21,21,21,21,21
</chunk>
   <chunk x="96" y="48" width="16" height="16">
21,21,21,21,21,21,21,21,21,21,21,21,21,21,27,27,
21,21,21,21,21,21,21,21,21,21,21,21,21,21,27,27,
21,21,21,21,21,21,21,21,21,21,21,21,21,21,27,27,
21,21,21,21,21,21,21,21,21,21,21,21,21,21,27,27,
21,21,21,21,21,21,21,21,21,21,21,21,21,21,27,27,
21,21,21,21,21,21,21,21,21,21,21,21,21,21,27,27,
21,21,21,21,21,21,21,21,21,21,21,21,21,21,27,27,
21,21,21,21,21,21,21,21,21,21,21,21,21,21,27,27,
21,21,21,21,21,21,21,21,21,21,21,21,21,21,27,27,
21,21,21,21,21,21,21,21,21,21,21,21,21,21,27,27,
21,21,21,21,21,21,21,21,21,21,21,21,21,21,27,27,
21,21,21,21,21,21,21,21,21,21,21,21,21,21,27,27,
21,21,21,21,21,21,21,21,21,21,21,21,21,21,27,27,
21,21,21,21,21,21,21,21,21,21,21,21,21,21,27,27,
21,21,21,21,21,21,21,21,21,21,21,21,21,21,27,27,
21,21,21,21,21,21,21,21,21,21,21,21,21,21,27,27
</chunk>
   <chunk x="112" y="48" width="16" height="16">
27,27,27,27,27,27,27,27,27,27,27,27,27,27,27,27,
27,27,27,27,27,27,27,27,27,27,27,27,27,27,27,27,
27,27,27,27,27,27,27,27,27,27,27,27,27,27,27,27,
27,27,27,27,27,27,27,27,27,27,27,27,27,27,27,27,
27,27,27,27,27,27,27,27,27,27,27,27,27,27,27,27,
27,27,27,27,27,27,27,27,27,27,27,27,27,27,27,27,
27,27,27,27,27,27,27,27,27,27,27,27,27,27,27,27,
27,27,27,27,27,27,27,27,27,27,27,27,27,27,27,27,
27,27,27,27,27,27,27,27,27,27,27,27,27,27,27,27,
27,27,27,27,27,27,27,27,27,27,27,27,27,27,27,27,
27,27,27,27,27,27,27,27,27,27,27,27,27,27,27,27,
27,27,27,27,27,27,27,27,27,27,27,27,27,27,27,27,
27,27,27,27,27,27,27,27,27,27,27,27,27,27,27,27,
27,27,27,27,27,27,27,27,27,27,27,27,27,27,27,27,
27,27,27,27,27,27,27,27,27,27,27,27,27,27,27,27,
27,27,27,27,27,27,27,27,27,27,27,27,27,27,27,27
</chunk>
   <chunk x="-80" y="64" width="16" height="16">
0,0,0,0,0,0,0,0,0,0,21,21,21,21,21,21,
0,0,0,0,0,0,0,0,0,0,21,21,21,21,21,21,
0,0,0,0,0,0,0,0,0,0,21,21,21,21,21,21,
0,0,0,0,0,0,0,0,0,0,21,21,21,21,21,21,
0,0,0,0,0,0,0,0,0,0,21,21,21,21,21,21,
0,0,0,0,0,0,0,0,0,0,21,21,21,21,21,21,
0,0,0,0,0,0,0,0,0,0,21,21,21,21,21,21,
0,0,0,0,0,0,0,0,0,0,21,21,21,21,21,21,
0,0,0,0,0,0,0,0,0,0,21,21,21,21,21,21,
0,0,0,0,0,0,0,0,0,0,21,21,21,21,21,21,
0,0,0,0,0,0,0,0,0,0,21,21,21,21,21,21,
0,0,0,0,0,0,0,0,0,0,21,21,21,21,21,21,
0,0,0,0,0,0,0,0,0,0,21,21,21,21,21,21,
0,0,0,0,0,0,0,0,0,0,21,21,21,21,21,21,
0,0,0,0,0,0,0,0,0,0,21,21,21,21,21,21,
0,0,0,0,0,0,0,0,0,0,21,21,21,21,21,21
</chunk>
   <chunk x="-64" y="64" width="16" height="16">
21,21,21,21,21,21,21,21,21,21,21,21,21,21,21,21,
21,21,21,21,21,21,21,21,21,21,21,21,21,21,21,21,
21,21,21,21,21,21,21,21,21,21,21,21,21,21,21,21,
21,21,21,21,21,21,21,21,21,21,21,21,21,21,21,21,
21,21,21,21,21,21,21,21,21,21,21,21,21,21,21,21,
21,21,21,21,21,21,21,21,21,21,21,21,21,21,21,21,
21,21,21,21,21,21,21,21,21,21,21,21,21,21,21,21,
21,21,21,21,21,21,21,21,21,21,21,21,21,21,21,21,
21,21,21,21,21,21,21,21,21,21,21,21,21,21,21,21,
21,21,21,21,21,21,21,21,21,21,21,21,21,21,21,21,
21,21,21,21,21,21,21,21,21,21,21,21,21,21,21,21,
21,21,21,21,21,21,21,21,21,21,21,21,21,21,21,21,
21,21,21,21,21,21,21,21,21,21,21,21,21,21,21,21,
21,21,21,21,21,21,21,21,21,21,21,21,21,21,21,21,
21,21,21,21,21,21,21,21,21,21,21,21,21,21,21,21,
21,21,21,21,21,21,21,21,21,21,21,21,21,21,21,21
</chunk>
   <chunk x="-48" y="64" width="16" height="16">
21,21,21,21,21,21,21,21,21,21,21,21,21,21,21,21,
21,21,21,21,21,21,21,21,21,21,21,21,21,21,21,21,
21,21,21,21,21,21,21,21,21,21,21,21,21,21,21,21,
21,21,21,21,21,21,21,21,21,21,21,21,21,21,21,21,
21,21,21,21,21,21,21,21,21,21,21,21,21,21,21,21,
21,21,21,21,21,21,21,21,21,21,21,21,21,21,21,21,
21,21,21,21,21,21,21,21,21,21,21,21,21,21,21,21,
21,21,21,21,21,21,21,21,21,21,21,21,21,21,21,21,
21,21,21,21,21,21,21,21,21,21,21,21,21,21,21,21,
21,21,21,21,21,21,21,21,21,21,21,21,21,21,21,21,
21,21,21,21,21,21,21,21,21,21,21,21,21,21,21,21,
21,21,21,21,21,21,21,21,21,21,21,21,21,21,21,21,
21,21,21,21,21,21,21,21,21,21,21,21,21,21,21,21,
21,21,21,21,21,21,21,21,21,21,21,21,21,21,21,21,
21,21,21,21,21,21,21,21,21,21,21,21,21,21,21,21,
21,21,21,21,21,21,21,21,21,21,21,21,21,21,21,21
</chunk>
   <chunk x="-32" y="64" width="16" height="16">
21,21,21,21,21,21,21,21,21,21,21,21,21,21,21,21,
21,21,21,21,21,21,21,21,21,21,21,21,21,21,21,21,
21,21,21,21,21,21,21,21,21,21,21,21,21,21,21,21,
21,21,21,21,21,21,21,21,21,21,21,21,21,21,21,21,
21,21,21,21,21,21,21,21,21,21,21,21,21,21,21,21,
21,21,21,21,21,21,21,21,21,21,21,21,21,21,21,21,
21,21,21,21,21,21,21,21,21,21,21,21,21,21,21,21,
21,21,21,21,21,21,21,21,21,21,21,21,21,21,21,21,
21,21,21,21,21,21,21,21,21,21,21,21,21,21,21,21,
21,21,21,21,21,21,21,21,21,21,21,21,21,21,21,21,
21,21,21,21,21,21,21,21,21,21,21,21,21,21,21,21,
21,21,21,21,21,21,21,21,21,21,21,21,21,21,21,21,
21,21,21,21,21,21,21,21,21,21,21,21,21,21,21,21,
21,21,21,21,21,21,21,21,21,21,21,21,21,21,21,21,
21,21,21,21,21,21,21,21,21,21,21,21,21,21,21,21,
21,21,21,21,21,21,21,21,21,21,21,21,21,21,21,21
</chunk>
   <chunk x="-16" y="64" width="16" height="16">
21,21,21,21,21,21,21,21,21,21,21,21,21,21,21,21,
21,21,21,21,21,21,21,21,21,21,21,21,21,21,21,21,
21,21,21,21,21,21,21,21,21,21,21,21,21,21,21,21,
21,21,21,21,21,21,21,21,21,21,21,21,21,21,21,21,
21,21,21,21,21,21,21,21,21,21,21,21,21,21,21,21,
21,21,21,21,21,21,21,21,21,21,21,21,21,21,21,21,
21,21,21,21,21,21,21,21,21,21,21,21,21,21,21,21,
21,21,21,21,21,21,21,21,21,21,21,21,21,21,21,21,
21,21,21,21,21,21,21,21,21,21,21,21,21,21,21,21,
21,21,21,21,21,21,21,21,21,21,21,21,21,21,21,21,
21,21,21,21,21,21,21,21,21,21,21,21,21,21,21,21,
21,21,21,21,21,21,21,21,21,21,21,21,21,21,21,21,
21,21,21,21,21,21,21,21,21,21,21,21,21,21,21,21,
21,21,21,21,21,21,21,21,21,21,21,21,21,21,21,21,
21,21,21,21,21,21,21,21,21,21,21,21,21,21,21,21,
21,21,21,21,21,21,21,21,21,21,21,21,21,21,21,21
</chunk>
   <chunk x="0" y="64" width="16" height="16">
21,21,21,21,21,21,21,21,21,21,21,21,21,21,21,21,
21,21,21,21,21,21,21,21,21,21,21,21,21,21,21,21,
21,21,21,21,21,21,21,21,21,21,21,21,21,21,21,21,
21,21,21,21,21,21,21,21,21,21,21,21,21,21,21,21,
21,21,21,21,21,21,21,21,21,21,21,21,21,21,21,21,
21,21,21,21,21,21,21,21,21,21,21,21,21,21,21,21,
21,21,21,21,21,21,21,21,21,21,21,21,21,21,21,21,
21,21,21,21,21,21,21,21,21,21,21,21,21,21,21,21,
21,21,21,21,21,21,21,21,21,21,21,21,21,21,21,21,
21,21,21,21,21,21,21,21,21,21,21,21,21,21,21,21,
21,21,21,21,21,21,21,21,21,21,21,21,21,21,21,21,
21,21,21,21,21,21,21,21,21,21,21,21,21,21,21,21,
21,21,21,21,21,21,21,21,21,21,21,21,21,21,21,21,
21,21,21,21,21,21,21,21,21,21,21,21,21,21,21,21,
21,21,21,21,21,21,21,21,21,21,21,21,21,21,21,21,
21,21,21,21,21,21,21,21,21,21,21,21,21,21,21,21
</chunk>
   <chunk x="16" y="64" width="16" height="16">
21,21,21,21,21,21,21,21,21,21,21,21,21,21,21,21,
21,21,21,21,21,21,21,21,21,21,21,21,21,21,21,21,
21,21,21,21,21,21,21,21,21,21,21,21,21,21,21,21,
21,21,21,21,21,21,21,21,21,21,21,21,21,21,21,21,
21,21,21,21,21,21,21,21,21,21,21,21,21,21,21,21,
21,21,21,21,21,21,21,21,21,21,21,21,21,21,21,21,
21,21,21,21,21,21,21,21,21,21,21,21,21,21,21,21,
21,21,21,21,21,21,21,21,21,21,21,21,21,21,21,21,
21,21,21,21,21,21,21,21,21,21,21,21,21,21,21,21,
21,21,21,21,21,21,21,21,21,21,21,21,21,21,21,21,
21,21,21,21,21,21,21,21,21,21,21,21,21,21,21,21,
21,21,21,21,21,21,21,21,21,21,21,21,21,21,21,21,
21,21,21,21,21,21,21,21,21,21,21,21,21,21,21,21,
21,21,21,21,21,21,21,21,21,21,21,21,21,21,21,21,
21,21,21,21,21,21,21,21,21,21,21,21,21,21,21,21,
21,21,21,21,21,21,21,21,21,21,21,21,21,21,21,21
</chunk>
   <chunk x="32" y="64" width="16" height="16">
21,21,21,21,21,21,21,21,21,21,21,21,21,21,21,21,
21,21,21,21,21,21,21,21,21,21,21,21,21,21,21,21,
21,21,21,21,21,21,21,21,21,21,21,21,21,21,21,21,
21,21,21,21,21,21,21,21,21,21,21,21,21,21,21,21,
21,21,21,21,21,21,21,21,21,21,21,21,21,21,21,21,
21,21,21,21,21,21,21,21,21,21,21,21,21,21,21,21,
21,21,21,21,21,21,21,21,21,21,21,21,21,21,21,21,
21,21,21,21,21,21,21,21,21,21,21,21,21,21,21,21,
21,21,21,21,21,21,21,21,21,21,21,21,21,21,21,21,
21,21,21,21,21,21,21,21,21,21,21,21,21,21,21,21,
21,21,21,21,21,21,21,21,21,21,21,21,21,21,21,21,
21,21,21,21,21,21,21,21,21,21,21,21,21,21,21,21,
21,21,21,21,21,21,21,21,21,21,21,21,21,21,21,21,
21,21,21,21,21,21,21,21,21,21,21,21,21,21,21,21,
21,21,21,21,21,21,21,21,21,21,21,21,21,21,21,21,
21,21,21,21,21,21,21,21,21,21,21,21,21,21,21,21
</chunk>
   <chunk x="48" y="64" width="16" height="16">
21,21,21,21,21,21,21,21,21,21,21,21,21,21,21,21,
21,21,21,21,21,21,21,21,21,21,21,21,21,21,21,21,
21,21,21,21,21,21,21,21,21,21,21,21,21,21,21,21,
21,21,21,21,21,21,21,21,21,21,21,21,21,21,21,21,
21,21,21,21,21,21,21,21,21,21,21,21,21,21,21,21,
21,21,21,21,21,21,21,21,21,21,21,21,21,21,21,21,
21,21,21,21,21,21,21,21,21,21,21,21,21,21,21,21,
21,21,21,21,21,21,21,21,21,21,21,21,21,21,21,21,
21,21,21,21,21,21,21,21,21,21,21,21,21,21,21,21,
21,21,21,21,21,21,21,21,21,21,21,21,21,21,21,21,
21,21,21,21,21,21,21,21,21,21,21,21,21,21,21,21,
21,21,21,21,21,21,21,21,21,21,21,21,21,21,21,21,
21,21,21,21,21,21,21,21,21,21,21,21,21,21,21,21,
21,21,21,21,21,21,21,21,21,21,21,21,21,21,21,21,
21,21,21,21,21,21,21,21,21,21,21,21,21,21,21,21,
21,21,21,21,21,21,21,21,21,21,21,21,21,21,21,21
</chunk>
   <chunk x="64" y="64" width="16" height="16">
21,21,21,21,21,21,21,21,21,21,21,21,21,21,21,21,
21,21,21,21,21,21,21,21,21,21,21,21,21,21,21,21,
21,21,21,21,21,21,21,21,21,21,21,21,21,21,21,21,
21,21,21,21,21,21,21,21,21,21,21,21,21,21,21,21,
21,21,21,21,21,21,21,21,21,21,21,21,21,21,21,21,
21,21,21,21,21,21,21,21,21,21,21,21,21,21,21,21,
21,21,21,21,21,21,21,21,21,21,21,21,21,21,21,21,
21,21,21,21,21,21,21,21,21,21,21,21,21,21,21,21,
21,21,21,21,21,21,21,21,21,21,21,21,21,21,21,21,
21,21,21,21,21,21,21,21,21,21,21,21,21,21,21,21,
21,21,21,21,21,21,21,21,21,21,21,21,21,21,21,21,
21,21,21,21,21,21,21,21,21,21,21,21,21,21,21,21,
21,21,21,21,21,21,21,21,21,21,21,21,21,21,21,21,
21,21,21,21,21,21,21,21,21,21,21,21,21,21,21,21,
21,21,21,21,21,21,21,21,21,21,21,21,21,21,21,21,
21,21,21,21,21,21,21,21,21,21,21,21,21,21,21,21
</chunk>
   <chunk x="80" y="64" width="16" height="16">
21,21,21,21,21,21,21,21,21,21,21,21,21,21,21,21,
21,21,21,21,21,21,21,21,21,21,21,21,21,21,21,21,
21,21,21,21,21,21,21,21,21,21,21,21,21,21,21,21,
21,21,21,21,21,21,21,21,21,21,21,21,21,21,21,21,
21,21,21,21,21,21,21,21,21,21,21,21,21,21,21,21,
21,21,21,21,21,21,21,21,21,21,21,21,21,21,21,21,
21,21,21,21,21,21,21,21,21,21,21,21,21,21,21,21,
21,21,21,21,21,21,21,21,21,21,21,21,21,21,21,21,
21,21,21,21,21,21,21,21,21,21,21,21,21,21,21,21,
21,21,21,21,21,21,21,21,21,21,21,21,21,21,21,21,
21,21,21,21,21,21,21,21,21,21,21,21,21,21,21,21,
21,21,21,21,21,21,21,21,21,21,21,21,21,21,21,21,
21,21,21,21,21,21,21,21,21,21,21,21,21,21,21,21,
21,21,21,21,21,21,21,21,21,21,21,21,21,21,21,21,
21,21,21,21,21,21,21,21,21,21,21,21,21,21,21,21,
21,21,21,21,21,21,21,21,21,21,21,21,21,21,21,21
</chunk>
   <chunk x="96" y="64" width="16" height="16">
21,21,21,21,21,21,21,21,21,21,21,21,21,21,27,27,
21,21,21,21,21,21,21,21,21,21,21,21,21,21,27,27,
21,21,21,21,21,21,21,21,21,21,21,21,21,21,27,27,
21,21,21,21,21,21,21,21,21,21,21,21,21,21,27,27,
21,21,21,21,21,21,21,21,21,21,21,21,21,21,27,27,
21,21,21,21,21,21,21,21,21,21,21,21,21,21,27,27,
21,21,21,21,21,21,21,21,21,21,21,21,21,21,27,27,
21,21,21,21,21,21,21,21,21,21,21,21,21,21,27,27,
21,21,21,21,21,21,21,21,21,21,21,21,21,21,27,27,
21,21,21,21,21,21,21,21,21,21,21,21,21,21,27,27,
21,21,21,21,21,21,21,21,21,21,21,21,21,21,27,27,
21,21,21,21,21,21,21,21,21,21,21,21,21,21,27,27,
21,21,21,21,21,21,21,21,21,21,21,21,21,21,27,27,
21,21,21,21,21,21,21,21,21,21,21,21,21,21,27,27,
21,21,21,21,21,21,21,21,21,21,21,21,21,21,27,27,
21,21,21,21,21,21,21,21,21,21,21,21,21,21,27,27
</chunk>
   <chunk x="112" y="64" width="16" height="16">
27,27,27,27,27,27,27,27,27,27,27,27,27,27,27,27,
27,27,27,27,27,27,27,27,27,27,27,27,27,27,27,27,
27,27,27,27,27,27,27,27,27,27,27,27,27,27,27,27,
27,27,27,27,27,27,27,27,27,27,27,27,27,27,27,27,
27,27,27,27,27,27,27,27,27,27,27,27,27,27,27,27,
27,27,27,27,27,27,27,27,27,27,27,27,27,27,27,27,
27,27,27,27,27,27,27,27,27,27,27,27,27,27,27,27,
27,27,27,27,27,27,27,27,27,27,27,27,27,27,27,27,
27,27,27,27,27,27,27,27,27,27,27,27,27,27,27,27,
27,27,27,27,27,27,27,27,27,27,27,27,27,27,27,27,
27,27,27,27,27,27,27,27,27,27,27,27,27,27,27,27,
27,27,27,27,27,27,27,27,27,27,27,27,27,27,27,27,
27,27,27,27,27,27,27,27,27,27,27,27,27,27,27,27,
27,27,27,27,27,27,27,27,27,27,27,27,27,27,27,27,
27,27,27,27,27,27,27,27,27,27,27,27,27,27,27,27,
27,27,27,27,27,27,27,27,27,27,27,27,27,27,27,27
</chunk>
   <chunk x="-16" y="80" width="16" height="16">
0,0,0,0,0,0,0,0,0,0,0,0,0,0,0,0,
0,0,0,0,0,0,0,0,0,0,0,0,0,0,0,0,
0,0,0,0,0,0,0,0,0,0,0,0,0,0,0,0,
0,0,0,0,0,0,0,0,0,0,0,0,0,0,0,0,
0,0,0,0,0,0,0,0,0,0,0,0,0,0,0,0,
0,0,0,0,0,0,0,0,0,0,0,0,0,0,0,0,
0,0,0,0,0,0,0,0,0,0,0,0,21,0,0,0,
0,0,0,0,0,0,0,0,0,0,0,0,0,0,0,0,
0,0,0,0,0,0,0,0,0,0,0,0,0,0,0,0,
0,0,0,0,0,0,0,0,0,0,0,0,0,0,0,0,
0,0,0,0,0,0,0,0,0,0,0,0,0,0,0,0,
0,0,0,0,0,0,0,0,0,0,0,0,0,0,0,0,
0,0,0,0,0,0,0,0,0,0,0,0,0,0,0,0,
0,0,0,0,0,0,0,0,0,0,0,0,0,0,0,0,
0,0,0,0,0,0,0,0,0,0,0,0,0,0,0,0,
0,0,0,0,0,0,0,0,0,0,0,0,0,0,0,0
</chunk>
   <chunk x="96" y="80" width="16" height="16">
0,0,0,0,0,0,0,0,0,0,0,0,0,0,0,0,
0,0,0,0,0,0,0,0,0,0,0,27,0,27,0,0,
0,0,0,0,0,0,0,0,0,0,0,27,0,27,0,0,
0,0,0,0,0,0,0,0,0,0,0,27,27,27,0,0,
0,0,0,0,0,0,0,0,0,0,0,0,27,27,0,0,
0,0,0,0,0,0,0,0,0,0,0,0,27,27,0,0,
0,0,0,0,0,0,0,0,0,0,0,0,27,0,0,0,
0,0,0,0,0,0,0,0,0,0,0,0,0,0,0,0,
0,0,0,0,0,0,0,0,0,0,0,0,0,0,0,0,
0,0,0,0,0,0,0,0,0,0,0,0,0,0,0,0,
0,0,0,0,0,0,0,0,0,0,0,0,0,0,0,0,
0,0,0,0,0,0,0,0,0,0,0,0,0,0,0,0,
0,0,0,0,0,0,0,0,0,0,0,0,0,0,0,0,
0,0,0,0,0,0,0,0,0,0,0,0,0,0,0,0,
0,0,0,0,0,0,0,0,0,0,0,0,0,0,0,0,
0,0,0,0,0,0,0,0,0,0,0,0,0,0,0,0
</chunk>
  </data>
 </layer>
 <layer id="2" name="Fondo" width="32" height="32">
  <data encoding="csv">
   <chunk x="0" y="-16" width="16" height="16">
0,0,0,0,0,0,0,0,0,0,0,0,0,0,0,0,
0,0,0,0,0,0,0,0,0,0,0,0,0,0,0,0,
0,0,0,0,0,0,0,0,0,0,0,0,0,0,0,0,
0,0,0,0,0,0,0,0,0,0,0,0,0,0,0,0,
0,0,0,0,0,0,0,0,0,0,0,0,0,0,0,0,
0,0,0,0,0,0,54,36,36,36,36,36,36,36,36,36,
0,0,0,0,0,52,72,36,36,36,36,36,36,36,36,36,
0,0,0,0,52,72,36,36,36,36,36,36,36,36,36,36,
0,0,0,52,72,36,36,36,36,36,36,36,36,36,36,36,
0,0,52,72,36,36,36,36,36,36,36,36,36,36,36,36,
0,70,72,36,36,36,36,36,36,52,36,0,0,0,0,0,
0,36,36,36,36,36,36,36,36,61,0,0,0,0,0,0,
0,36,36,6,7,7,7,8,36,61,0,0,0,0,0,0,
0,36,36,36,36,36,36,36,36,61,0,0,0,0,0,0,
0,36,36,34,36,36,36,36,36,61,0,0,0,0,0,0,
0,36,36,36,36,36,36,36,36,61,0,0,0,0,0,0
</chunk>
   <chunk x="16" y="-16" width="16" height="16">
0,0,0,0,0,0,0,0,0,0,0,0,0,0,0,0,
0,0,0,0,0,0,0,0,0,0,0,0,0,0,0,0,
0,0,0,0,0,0,0,0,0,0,0,0,0,0,0,0,
0,0,0,0,0,0,0,0,0,0,0,0,0,0,0,0,
0,0,0,0,0,0,0,0,0,0,0,0,0,0,0,0,
36,36,36,36,36,36,36,36,36,36,36,52,0,0,0,0,
36,36,36,36,36,36,36,52,53,53,53,72,0,0,0,0,
34,36,36,36,36,36,36,61,36,36,36,36,0,0,0,0,
36,36,36,36,36,36,36,61,36,36,36,36,36,36,36,36,
36,36,36,36,36,36,36,61,36,36,36,36,36,36,36,36,
0,0,0,0,0,0,0,72,36,36,34,36,36,36,36,36,
0,0,0,0,0,0,0,36,36,36,36,36,36,36,36,36,
0,0,0,0,0,0,0,36,36,36,36,36,36,36,36,36,
0,0,0,0,0,0,0,0,0,0,0,0,0,0,0,0,
0,0,0,0,0,0,0,0,0,0,0,0,0,0,0,0,
0,0,0,0,0,0,0,0,0,0,0,0,0,0,0,0
</chunk>
   <chunk x="32" y="-16" width="16" height="16">
0,0,0,0,0,0,0,0,0,0,0,0,0,0,0,0,
0,0,0,0,0,0,0,0,0,0,0,0,0,0,0,0,
0,0,0,0,0,0,0,0,0,0,0,0,0,0,0,0,
0,0,0,0,0,0,0,0,0,0,0,0,0,0,0,0,
0,0,0,0,0,0,0,0,0,0,0,0,0,0,0,0,
0,0,0,0,0,0,0,0,0,0,0,0,0,0,0,0,
0,0,0,0,0,0,0,0,0,0,0,0,0,0,0,0,
0,0,0,0,0,0,0,0,0,0,0,0,0,0,0,0,
36,36,36,36,36,63,36,36,36,36,36,36,36,36,36,36,
36,36,36,36,36,63,36,43,36,36,36,36,36,36,36,36,
36,36,36,36,36,63,36,36,36,36,36,36,36,36,36,36,
36,36,36,36,36,63,36,36,36,36,36,36,36,36,36,36,
36,36,36,36,36,63,36,36,36,36,36,36,36,36,36,36,
0,0,0,0,0,0,0,0,0,0,0,0,0,0,0,0,
0,0,0,0,0,0,0,0,0,0,0,0,0,0,0,0,
0,0,0,0,0,0,0,0,0,0,0,0,0,0,0,0
</chunk>
   <chunk x="48" y="-16" width="16" height="16">
0,0,0,0,0,0,0,0,0,0,0,0,0,0,0,0,
0,0,0,0,0,0,0,0,0,0,0,0,0,0,0,0,
0,0,0,0,0,0,36,36,36,36,36,36,0,0,0,0,
0,0,0,0,0,0,53,53,53,53,53,53,0,0,0,0,
0,0,0,0,0,0,36,36,36,36,36,36,0,0,0,0,
0,0,0,0,0,0,36,36,43,36,36,36,0,0,0,0,
0,0,0,0,0,0,36,36,36,6,8,36,0,0,0,0,
0,0,0,0,0,0,36,36,36,36,36,36,0,0,0,0,
36,36,36,36,36,36,36,36,36,36,34,36,0,0,0,0,
36,36,36,36,36,36,36,36,36,36,36,36,0,0,0,0,
36,36,43,36,36,36,36,36,36,36,36,36,0,0,0,0,
36,36,36,36,36,36,36,36,36,36,36,36,0,0,0,0,
36,36,36,36,36,36,36,36,36,34,36,36,0,0,0,0,
36,36,36,36,36,36,36,36,36,36,36,36,0,0,0,0,
0,36,34,36,36,36,36,36,36,36,36,36,0,0,0,0,
0,36,36,36,36,36,36,36,36,36,36,36,0,0,0,0
</chunk>
   <chunk x="-48" y="0" width="16" height="16">
0,0,0,0,0,0,0,0,0,0,0,0,0,0,0,0,
0,0,0,0,0,0,0,0,0,0,0,0,0,0,0,0,
0,0,0,0,0,0,0,0,0,0,0,0,0,0,0,0,
0,0,0,0,0,0,0,0,0,0,0,0,0,0,0,0,
0,0,0,0,0,0,0,0,0,0,0,0,0,0,0,0,
0,0,0,0,0,0,0,0,0,0,0,0,0,0,0,0,
0,0,0,0,0,0,0,0,0,0,0,0,0,0,0,0,
0,0,0,0,0,0,0,0,0,0,0,0,0,0,0,0,
0,0,0,0,0,0,0,0,36,36,63,36,36,36,36,35,
0,0,0,0,0,0,0,0,36,43,63,36,36,36,36,44,
0,0,0,0,0,0,0,0,36,36,63,36,36,36,36,36,
0,0,0,0,0,0,0,0,53,53,72,36,36,36,36,36,
0,0,0,0,0,0,0,0,36,36,52,53,53,53,53,53,
0,0,0,0,0,0,0,0,36,36,63,36,36,36,36,36,
0,0,0,0,0,0,0,0,36,36,63,36,36,36,36,36,
0,0,0,0,0,0,0,0,36,36,63,36,36,36,36,36
</chunk>
   <chunk x="-32" y="0" width="16" height="16">
0,0,0,0,0,0,0,0,0,0,0,0,0,0,0,0,
0,0,0,0,0,0,0,0,0,0,0,0,0,0,0,0,
0,0,0,0,0,0,0,0,0,0,0,0,0,0,0,0,
0,0,0,0,0,0,0,0,0,0,0,0,0,0,0,0,
0,0,0,0,0,0,0,0,0,0,0,0,0,0,0,0,
0,0,0,0,0,0,0,0,0,0,0,0,0,0,0,0,
0,0,0,0,0,0,0,0,0,0,0,0,0,0,0,0,
0,0,0,0,0,0,0,0,0,0,0,0,0,0,0,0,
36,36,36,36,36,70,0,0,0,0,0,0,0,0,0,0,
36,36,36,36,36,36,0,0,0,0,0,0,0,0,0,0,
36,36,36,36,36,36,0,0,0,0,0,0,0,0,0,0,
36,36,36,36,0,0,0,0,0,0,0,0,0,0,0,0,
53,53,53,53,53,53,0,0,0,0,0,0,0,0,0,0,
36,36,36,36,36,36,0,0,0,0,0,0,0,0,0,0,
36,36,36,36,36,36,0,0,0,0,0,0,0,0,0,0,
36,36,36,36,36,36,36,36,36,36,36,36,36,70,54,36
</chunk>
   <chunk x="-16" y="0" width="16" height="16">
0,0,0,0,0,0,0,0,0,0,0,0,0,0,0,0,
0,0,0,0,0,0,0,0,0,0,0,0,0,0,0,0,
0,0,0,0,0,0,0,0,0,0,0,0,0,0,0,0,
0,0,0,0,0,0,0,0,0,0,0,0,0,0,0,0,
0,0,0,0,0,0,0,0,0,0,0,0,0,0,0,0,
0,0,0,0,0,0,0,0,0,0,0,0,0,0,0,0,
0,0,0,0,0,0,0,0,0,0,0,0,0,0,0,0,
0,0,0,0,0,0,0,0,0,0,0,0,0,0,0,0,
0,0,0,0,0,0,0,0,0,0,0,0,0,0,0,0,
0,0,0,0,0,0,0,0,0,0,0,0,72,36,36,36,
0,0,0,0,0,0,0,0,0,0,0,0,36,36,36,36,
0,0,0,0,0,0,0,0,0,0,0,0,36,36,36,36,
0,0,0,0,0,0,0,0,0,0,0,0,36,36,36,36,
0,0,0,0,0,0,0,0,0,0,0,0,36,36,52,54,
0,0,0,0,0,0,0,0,0,0,0,0,0,0,0,0,
36,63,0,0,0,0,0,0,0,0,0,0,0,0,0,0
</chunk>
   <chunk x="0" y="0" width="16" height="16">
0,36,36,36,36,36,36,43,36,61,0,0,0,0,0,0,
0,1610612771,1610612780,36,36,36,36,36,36,61,0,0,0,0,0,0,
0,36,36,36,36,36,36,36,36,61,0,0,35,36,36,36,
0,36,36,36,36,36,36,36,36,61,0,0,35,36,36,36,
0,0,0,36,36,36,36,36,0,0,0,0,44,36,36,36,
0,0,0,0,0,53,0,0,0,0,0,0,36,36,36,36,
0,0,0,0,0,36,0,0,0,0,0,0,36,52,53,53,
0,0,0,36,36,36,36,36,0,0,0,0,36,63,36,36,
0,36,45,36,36,36,36,36,36,36,0,0,71,72,36,36,
43,36,45,36,36,36,36,36,36,36,36,36,36,36,36,36,
36,36,45,36,36,36,36,36,36,36,36,36,36,36,36,36,
36,36,45,36,36,36,36,36,36,36,36,36,36,36,36,36,
36,36,45,36,36,36,36,36,36,36,36,36,36,36,36,36,
36,36,45,36,36,36,36,36,36,36,36,36,36,36,36,36,
0,0,0,0,0,0,0,0,0,0,0,0,0,0,0,0,
0,0,0,0,0,0,0,0,0,0,0,0,0,0,0,0
</chunk>
   <chunk x="16" y="0" width="16" height="16">
0,0,0,0,0,0,0,0,0,0,0,0,0,0,0,0,
0,0,0,0,0,0,0,0,0,0,0,0,0,0,0,0,
36,36,36,36,36,61,36,0,36,36,0,0,0,0,0,0,
36,36,36,36,36,45,36,0,36,36,0,0,0,0,0,0,
36,36,36,36,36,70,71,0,71,54,0,0,0,0,0,0,
36,36,36,36,36,36,36,0,36,70,0,0,0,0,0,0,
53,53,53,53,54,52,53,0,36,36,0,0,0,0,0,0,
36,36,36,36,70,72,36,14,36,36,0,0,0,0,0,0,
36,36,36,36,36,36,36,36,36,36,0,0,0,0,0,0,
36,36,36,36,36,36,36,36,36,36,61,36,36,36,36,36,
36,36,36,36,36,36,36,36,36,36,61,36,36,36,36,36,
36,36,36,36,36,36,36,36,36,36,70,53,53,53,54,36,
36,36,36,36,36,36,36,36,36,36,36,36,36,36,63,36,
36,36,36,36,36,36,36,36,36,36,36,36,36,36,63,36,
0,0,0,0,0,0,0,0,0,0,0,36,53,53,72,36,
0,0,0,0,0,0,0,0,0,0,0,0,0,0,0,0
</chunk>
   <chunk x="32" y="0" width="16" height="16">
0,0,0,0,0,0,0,0,0,0,0,0,0,0,0,0,
0,0,0,0,0,0,0,0,0,0,0,0,0,0,0,0,
0,0,0,0,0,0,0,0,0,0,0,0,0,0,0,0,
0,0,0,0,0,0,0,0,0,0,0,0,0,0,0,0,
0,0,0,0,0,0,0,0,0,0,0,0,0,0,0,0,
0,0,0,0,0,0,0,0,0,0,0,0,0,0,0,0,
0,0,0,0,0,0,0,0,0,0,0,0,0,0,0,0,
0,0,36,36,36,36,36,61,36,36,0,0,0,0,0,0,
0,0,36,36,36,36,36,70,53,53,0,0,0,0,0,0,
35,36,36,36,36,36,36,36,36,36,0,0,0,0,0,0,
35,36,36,36,34,36,36,36,36,36,0,0,0,0,0,0,
44,36,36,36,36,36,36,36,36,36,0,0,0,0,0,0,
36,36,36,36,36,36,36,36,36,36,0,0,0,0,0,0,
36,36,36,36,36,36,36,36,36,36,0,0,0,0,0,0,
36,0,0,0,0,36,36,43,36,0,0,0,0,0,0,0,
0,0,0,0,0,36,36,36,0,0,0,0,0,0,0,0
</chunk>
   <chunk x="48" y="0" width="16" height="16">
0,36,36,36,36,43,36,36,36,36,36,36,0,0,0,0,
0,36,36,36,36,36,36,36,36,36,43,36,0,0,0,0,
0,36,36,36,36,36,36,36,36,36,36,36,0,0,0,0,
0,53,53,53,53,53,53,53,53,53,53,53,0,0,0,0,
0,36,36,36,36,36,36,36,36,36,36,36,0,0,0,0,
0,36,36,36,36,36,36,36,36,34,36,36,0,0,0,0,
0,36,43,36,36,36,36,36,36,36,36,36,0,0,0,0,
0,36,36,36,36,36,36,36,36,36,36,36,0,0,0,0,
0,36,36,36,36,36,36,36,36,36,43,36,0,0,0,0,
0,36,36,36,36,36,36,36,36,36,36,36,0,0,0,0,
0,36,36,36,34,36,36,36,36,36,36,36,0,0,0,0,
0,36,36,36,36,36,36,36,36,36,36,36,0,0,0,0,
0,36,36,36,36,36,36,36,36,36,36,52,0,0,0,0,
0,43,36,36,36,36,36,36,36,36,36,70,72,36,36,36,
0,36,36,36,36,36,36,43,36,36,36,36,36,36,36,36,
0,36,36,36,36,36,36,36,36,36,36,36,36,36,36,36
</chunk>
   <chunk x="64" y="0" width="16" height="16">
0,0,0,0,0,0,0,0,0,0,0,0,0,0,0,0,
0,0,0,0,0,0,0,0,0,0,0,0,0,0,0,0,
0,0,0,0,0,0,0,0,0,0,0,0,0,0,0,0,
0,0,0,0,0,0,0,0,0,0,0,0,0,0,0,0,
0,0,0,0,0,0,0,0,0,0,0,0,0,0,0,0,
0,0,0,0,0,0,0,0,0,0,0,0,0,0,0,0,
0,0,0,0,0,0,0,0,0,0,0,0,0,0,0,0,
0,0,0,0,0,0,0,0,0,0,0,0,0,0,0,0,
0,0,0,0,0,0,0,0,0,0,0,0,0,0,0,0,
0,0,0,0,0,0,0,0,0,0,0,0,0,0,0,0,
0,0,0,0,0,0,0,0,0,0,0,0,0,0,0,0,
0,0,0,0,0,0,0,0,0,0,0,0,0,0,0,0,
0,0,0,0,0,0,0,0,0,0,0,0,0,0,0,0,
36,36,36,36,36,36,36,36,36,36,36,36,36,36,35,70,
36,36,36,43,36,36,36,36,36,36,36,36,36,36,44,36,
34,36,36,36,36,36,36,36,36,36,36,43,36,36,36,36
</chunk>
   <chunk x="-48" y="16" width="16" height="16">
0,0,0,0,0,0,0,0,36,36,63,36,36,36,36,36,
0,0,0,0,0,0,0,0,36,36,63,36,36,36,36,36,
0,0,0,0,0,0,0,0,0,0,0,0,36,36,36,36,
0,0,0,0,0,0,0,0,0,0,0,0,0,36,36,36,
0,0,0,0,0,0,0,0,0,0,0,0,0,36,36,36,
0,0,0,0,0,0,0,0,0,0,0,0,0,36,36,36,
0,0,0,0,0,0,0,0,0,0,0,0,0,36,36,36,
0,0,0,0,0,0,0,0,0,0,0,0,0,36,36,36,
0,0,0,0,0,0,0,0,0,0,0,0,0,0,0,0,
0,0,0,0,0,0,0,0,0,0,0,0,0,0,0,0,
0,0,0,0,0,0,0,0,0,0,0,0,0,0,0,0,
0,0,0,0,0,0,0,0,0,0,0,0,0,0,0,0,
0,0,0,0,0,0,0,0,0,0,0,0,0,0,0,0,
0,0,0,0,0,0,0,0,0,0,0,0,0,0,0,0,
0,0,0,0,0,0,0,0,0,0,0,0,0,0,0,0,
0,0,0,0,0,0,0,0,0,0,0,0,0,0,0,0
</chunk>
   <chunk x="-32" y="16" width="16" height="16">
36,36,43,36,36,36,36,36,36,36,36,36,36,36,70,71,
36,36,36,36,36,36,36,36,36,34,36,36,36,36,36,36,
36,36,36,36,36,36,36,36,36,36,36,36,36,36,36,36,
36,36,36,36,36,36,36,36,36,36,36,36,36,36,36,36,
36,36,36,36,36,36,36,36,36,36,36,36,36,36,36,36,
36,36,36,36,36,36,36,36,36,36,36,36,36,36,36,36,
36,36,36,36,36,36,36,36,36,52,53,53,54,36,36,36,
36,36,36,36,36,36,36,36,36,61,36,36,63,36,36,36,
0,0,0,0,0,0,0,0,0,0,36,36,63,36,36,36,
0,0,0,0,0,0,0,0,0,0,0,36,63,36,36,36,
0,0,0,0,0,0,0,0,0,0,0,36,63,36,36,36,
0,0,0,0,0,0,0,0,0,0,0,36,63,36,36,36,
0,0,0,0,0,0,0,0,0,0,0,36,70,53,53,53,
0,0,0,0,0,0,0,0,0,0,0,36,36,36,36,36,
0,0,0,0,0,0,0,0,0,0,0,36,36,36,36,36,
0,0,0,0,0,0,0,0,0,0,0,36,36,36,36,36
</chunk>
   <chunk x="-16" y="16" width="16" height="16">
71,72,0,0,0,0,0,0,0,0,0,0,0,0,0,0,
36,36,0,0,0,0,0,0,0,0,0,0,0,0,0,0,
36,36,0,0,0,0,0,0,0,0,0,0,0,0,0,0,
36,36,0,0,0,0,0,0,0,0,0,0,0,0,0,0,
36,36,0,0,0,0,0,0,0,0,0,0,0,0,0,0,
36,36,36,36,36,36,36,0,0,0,0,0,0,0,0,0,
36,36,36,36,36,36,36,0,0,0,0,0,0,0,0,0,
36,36,36,36,36,36,36,0,0,0,0,0,0,0,0,0,
36,36,36,36,36,36,36,0,0,0,0,0,0,0,0,0,
36,36,36,36,36,36,0,0,0,0,36,63,36,36,45,36,
36,36,36,36,36,36,52,0,0,0,53,72,36,36,45,36,
36,36,36,36,36,36,63,0,0,0,36,36,36,36,45,36,
53,53,53,53,53,53,72,0,0,0,36,36,36,36,45,36,
36,36,36,0,0,0,0,0,0,0,36,36,36,36,45,36,
36,36,36,36,36,36,36,0,0,0,36,36,36,36,45,36,
36,36,36,36,36,36,36,0,0,0,36,36,36,36,45,36
</chunk>
   <chunk x="0" y="16" width="16" height="16">
0,0,0,0,0,0,0,0,0,0,0,0,0,0,0,0,
0,0,0,0,0,0,0,0,0,0,0,0,0,0,0,0,
0,0,0,0,0,0,0,0,0,0,0,0,0,0,0,0,
0,0,0,0,0,0,0,0,0,0,0,0,0,0,0,0,
0,0,0,0,0,0,0,0,0,0,0,0,0,0,0,0,
0,0,0,0,0,0,0,0,0,0,0,0,0,0,0,0,
0,0,0,0,0,0,0,0,0,0,0,0,0,0,0,0,
0,0,0,0,0,0,0,0,0,0,0,0,0,0,0,0,
0,0,0,0,0,0,0,0,0,0,0,0,0,0,0,0,
36,36,36,36,36,36,35,36,36,36,36,36,45,36,36,36,
36,36,36,36,36,36,35,36,36,36,36,36,45,36,36,36,
36,36,36,36,36,36,35,36,36,36,36,36,45,36,36,36,
36,36,36,36,36,36,35,36,36,36,36,52,72,36,36,36,
36,36,36,36,36,36,35,36,36,36,36,61,36,36,36,36,
36,36,36,36,36,36,0,0,0,0,0,0,0,0,0,0,
36,36,36,36,36,0,0,0,0,0,0,0,0,0,0,0
</chunk>
   <chunk x="16" y="16" width="16" height="16">
0,0,0,0,0,0,0,0,0,0,0,0,0,0,0,0,
0,0,0,0,0,0,0,0,0,0,0,0,0,0,0,0,
0,0,0,0,0,0,0,0,0,0,0,0,0,0,0,0,
0,0,0,0,0,0,0,0,0,0,0,0,0,0,0,0,
0,0,0,0,0,0,0,0,0,0,0,0,0,0,0,0,
0,0,0,0,0,0,0,0,0,0,0,0,0,0,0,0,
0,0,0,0,0,0,0,0,0,0,0,0,0,0,0,0,
0,0,0,0,0,0,0,0,0,0,0,0,0,0,0,0,
0,0,0,0,0,0,0,0,0,0,0,0,0,0,0,0,
36,36,36,36,36,45,36,36,36,43,36,36,36,36,36,36,
36,36,36,36,36,45,36,36,36,36,36,36,36,36,36,36,
34,36,36,36,36,45,36,36,36,36,36,36,36,36,36,36,
36,36,36,36,36,45,36,36,36,36,36,36,36,36,36,36,
36,36,36,36,36,45,36,36,36,36,36,36,36,36,36,36,
0,0,0,0,0,0,0,0,0,0,0,0,0,0,0,0,
0,0,0,0,0,0,0,0,0,0,0,0,0,0,0,0
</chunk>
   <chunk x="32" y="16" width="16" height="16">
0,0,0,0,0,36,36,36,36,70,0,0,0,0,0,0,
0,0,0,0,0,36,36,36,36,36,0,0,0,0,0,0,
0,0,0,0,0,36,36,36,36,36,0,0,0,0,0,0,
0,0,0,0,0,53,53,53,53,53,0,0,0,0,0,0,
0,0,0,0,0,36,36,36,36,36,0,0,0,0,0,0,
0,0,0,0,0,53,54,36,36,36,0,0,0,0,0,0,
0,0,0,0,0,36,45,36,36,36,0,0,0,0,0,0,
0,0,0,0,0,36,70,53,54,36,0,0,0,0,0,0,
0,0,0,0,0,53,71,71,72,36,0,0,0,0,0,0,
36,36,36,63,35,36,36,36,36,36,0,0,0,54,36,36,
36,36,36,63,44,36,36,36,36,36,0,0,0,63,36,36,
36,36,36,63,36,36,36,36,36,36,0,0,0,63,36,36,
36,36,36,63,36,36,36,36,36,36,36,36,36,63,36,36,
36,36,36,63,36,36,36,36,36,36,36,36,36,63,36,36,
0,0,0,0,0,0,0,0,0,0,0,0,0,0,0,0,
0,0,0,0,0,0,0,0,0,0,0,0,0,0,0,0
</chunk>
   <chunk x="48" y="16" width="16" height="16">
0,36,36,36,36,34,36,36,36,36,36,36,36,36,36,36,
0,36,36,36,36,36,36,36,36,36,36,36,43,36,36,36,
0,36,43,36,36,36,36,36,36,36,36,36,36,36,36,36,
0,36,36,36,36,36,36,36,36,36,36,36,36,36,36,36,
0,36,36,36,36,36,36,36,36,36,36,36,36,36,36,36,
0,0,0,0,0,0,0,0,0,0,0,0,0,0,0,0,
0,0,0,0,0,0,0,0,0,0,0,0,0,0,0,0,
0,0,0,0,0,0,0,0,0,0,0,0,0,0,0,0,
0,0,0,0,0,0,0,0,0,0,0,0,0,0,0,0,
36,36,36,36,36,36,35,36,36,36,36,36,36,36,36,36,
36,36,36,36,36,36,35,36,36,36,36,36,36,36,36,36,
36,36,36,36,36,36,35,36,36,36,36,36,36,36,36,36,
36,36,36,36,36,36,44,36,36,36,36,36,36,36,36,36,
36,36,36,36,36,36,36,36,36,36,36,36,36,36,36,36,
0,0,0,0,0,0,0,0,0,36,36,36,36,36,0,36,
0,0,0,0,0,0,0,0,0,0,0,0,0,0,0,0
</chunk>
   <chunk x="64" y="16" width="16" height="16">
36,36,36,36,36,36,36,36,36,36,36,36,36,36,36,36,
36,36,36,36,36,36,34,36,36,36,36,36,36,36,36,36,
36,36,36,36,36,36,36,36,36,36,36,36,36,36,34,36,
36,36,36,36,36,36,36,36,36,36,36,36,36,36,36,36,
36,36,36,36,36,36,36,36,36,36,36,36,36,36,36,36,
0,0,0,0,0,0,36,36,36,36,43,36,36,36,36,36,
0,0,0,0,0,0,0,36,36,36,36,36,36,36,36,36,
0,0,0,0,0,0,0,36,36,36,36,36,36,36,36,36,
0,0,0,0,0,0,0,36,36,36,36,36,36,36,36,36,
36,36,36,0,0,0,0,36,36,36,36,36,36,36,52,53,
36,36,43,0,0,0,0,36,52,53,53,53,53,53,72,36,
36,36,36,0,0,0,0,36,61,36,36,36,36,36,36,36,
36,36,36,0,0,0,0,36,61,36,36,34,36,36,36,36,
36,36,36,0,0,0,0,36,61,36,36,36,36,36,36,36,
36,36,0,0,0,0,0,36,61,36,36,36,36,36,43,36,
0,0,0,0,0,0,0,36,70,53,53,53,54,36,36,36
</chunk>
   <chunk x="-32" y="32" width="16" height="16">
0,0,0,0,0,0,0,0,0,0,0,0,0,36,36,36,
0,0,0,0,0,0,0,0,0,0,0,0,0,0,36,36,
0,0,0,0,0,0,0,0,0,0,0,0,0,0,36,36,
0,0,0,0,0,0,0,0,0,0,0,0,0,0,0,0,
0,0,0,0,0,0,0,0,0,0,0,0,0,0,0,0,
0,0,0,0,0,0,0,0,0,0,0,0,0,0,0,0,
0,0,0,0,0,0,0,0,0,0,0,0,0,0,0,0,
0,0,0,0,0,0,0,0,0,0,0,0,0,0,0,0,
0,0,0,0,0,0,0,0,0,0,0,0,0,0,0,0,
0,0,0,0,0,0,0,0,0,0,0,0,0,0,0,0,
0,0,0,0,0,0,0,0,0,0,0,0,0,0,0,0,
0,0,0,0,0,0,0,0,0,0,0,0,0,0,0,0,
0,0,0,0,0,0,0,0,0,0,0,0,0,0,0,0,
0,0,0,0,0,0,0,0,0,0,0,0,0,0,0,0,
0,0,0,0,0,0,0,0,0,0,0,0,0,0,0,0,
0,0,0,0,0,0,0,0,0,0,0,0,0,0,0,0
</chunk>
   <chunk x="-16" y="32" width="16" height="16">
36,36,36,36,36,36,36,0,0,0,71,71,71,71,72,36,
36,36,36,36,36,36,36,0,0,0,36,36,36,36,36,36,
36,36,36,36,36,36,36,0,0,0,36,36,36,36,36,36,
0,0,36,36,36,36,36,0,0,0,36,36,36,36,36,36,
0,0,0,36,36,36,36,36,36,36,36,36,36,43,36,36,
0,0,0,36,36,36,36,36,36,36,36,36,36,36,36,36,
0,0,0,0,0,0,0,0,0,0,0,0,0,0,0,0,
0,0,0,0,0,0,0,0,0,0,0,0,0,0,0,0,
0,0,0,0,0,0,0,0,0,0,0,0,0,0,0,0,
0,0,0,0,0,0,0,0,0,0,0,0,0,0,0,0,
0,0,0,0,0,0,0,0,0,0,0,0,0,0,0,0,
0,0,0,0,0,0,0,0,0,0,0,0,0,0,0,0,
0,0,0,0,0,0,0,0,0,0,0,0,0,0,0,0,
0,0,0,0,0,0,0,0,0,0,0,0,0,0,0,0,
0,0,0,0,0,0,0,0,0,0,0,0,0,0,0,0,
0,0,0,0,0,0,0,0,0,0,0,0,0,0,0,0
</chunk>
   <chunk x="0" y="32" width="16" height="16">
36,36,36,36,36,0,0,0,0,0,0,0,0,0,0,0,
36,36,36,36,36,36,35,36,36,36,36,36,36,36,36,36,
36,36,36,36,36,36,44,36,36,36,36,36,43,36,36,36,
36,36,36,36,36,36,36,36,36,36,36,36,36,36,36,36,
36,36,36,36,36,36,36,36,36,36,36,36,36,36,36,36,
36,36,36,36,36,36,36,36,36,36,36,36,36,36,36,36,
0,0,0,0,0,0,0,0,0,0,0,0,0,0,0,0,
0,0,0,0,0,0,0,0,0,0,0,0,0,0,0,0,
0,0,0,0,0,0,0,0,0,0,0,0,0,0,0,0,
0,0,0,0,0,0,0,0,0,0,0,0,0,0,0,0,
0,0,0,0,0,0,0,0,0,0,0,0,0,0,0,0,
0,0,0,0,0,0,0,0,0,0,0,0,0,0,0,0,
0,0,0,0,0,0,0,0,0,0,0,0,0,0,0,0,
0,0,0,0,0,0,0,0,0,0,0,0,0,0,0,0,
0,0,0,0,0,0,0,0,0,0,0,0,0,0,0,0,
0,0,0,0,0,0,0,0,0,0,0,0,0,0,0,0
</chunk>
   <chunk x="16" y="32" width="16" height="16">
0,0,0,0,0,0,0,0,0,0,0,0,0,0,0,0,
36,36,36,36,36,36,36,36,36,36,36,70,53,0,0,0,
36,36,36,36,36,36,36,36,36,36,36,36,36,36,36,36,
36,36,36,36,36,36,36,36,36,36,36,43,36,36,36,36,
36,36,36,36,36,36,36,36,36,36,36,36,36,36,36,36,
36,36,36,36,36,36,36,36,36,36,36,36,36,36,36,36,
0,0,0,0,0,0,0,0,0,0,0,0,0,36,53,53,
0,0,0,0,0,0,0,0,0,0,0,0,0,0,0,0,
0,0,0,0,0,0,0,0,0,0,0,0,0,0,0,0,
0,0,0,0,0,0,0,0,0,0,0,0,0,0,0,0,
0,0,0,0,0,0,0,0,0,0,0,0,0,0,0,0,
0,0,0,0,0,0,0,0,0,0,0,0,0,0,0,0,
0,0,0,0,0,0,0,0,0,0,0,0,0,0,0,0,
0,0,0,0,0,0,0,0,0,0,0,0,0,0,0,0,
0,0,0,0,0,0,0,0,0,0,0,0,0,0,0,0,
0,0,0,0,0,0,0,0,0,0,0,0,0,0,0,0
</chunk>
   <chunk x="32" y="32" width="16" height="16">
0,0,0,0,0,0,0,0,0,0,0,0,0,0,0,0,
0,0,0,0,0,0,53,53,53,53,0,0,0,0,0,0,
36,36,36,61,36,36,36,36,36,36,0,0,0,0,0,0,
36,36,36,61,36,36,36,36,36,36,0,0,0,0,0,0,
36,36,36,61,36,36,36,36,36,34,0,0,0,0,0,0,
36,36,36,61,36,36,36,36,36,36,0,0,0,0,0,0,
53,53,53,72,36,36,0,0,0,0,0,0,0,0,0,0,
0,0,0,0,0,0,0,0,0,0,0,0,0,0,0,0,
0,0,0,0,0,0,0,0,0,0,0,0,0,0,0,0,
0,0,0,0,0,0,0,0,0,0,0,0,0,0,0,0,
0,0,0,0,0,0,0,0,0,0,0,0,0,0,0,0,
0,0,0,0,0,0,0,0,0,0,0,0,0,0,0,0,
0,0,0,0,0,0,0,0,0,0,0,0,0,0,0,0,
0,0,0,0,0,0,0,0,0,0,0,0,0,0,0,0,
0,0,0,0,0,0,0,0,0,0,0,0,0,0,0,0,
0,0,0,0,0,0,0,0,0,0,0,0,0,0,0,0
</chunk>
   <chunk x="48" y="32" width="16" height="16">
0,0,0,0,0,0,0,0,0,0,0,0,0,0,0,0,
0,0,0,0,0,0,0,0,0,0,0,0,0,0,0,0,
0,0,0,0,0,0,0,0,0,0,0,0,0,0,0,0,
0,0,0,0,0,0,0,0,0,0,0,0,0,0,0,0,
0,0,0,0,0,0,0,0,0,0,0,0,0,0,0,0,
0,0,0,0,0,0,0,0,0,0,0,0,0,0,0,0,
0,0,0,0,0,0,0,0,0,0,0,0,0,0,0,0,
0,0,0,0,0,0,0,0,0,0,0,0,0,0,0,0,
0,0,0,0,0,0,0,0,0,0,0,0,0,0,0,0,
0,0,0,0,0,0,0,0,0,0,0,0,0,0,0,0,
0,0,0,0,0,0,0,0,0,0,0,0,0,0,0,0,
0,0,0,0,0,0,0,0,0,0,0,0,0,0,0,0,
0,0,0,0,0,0,0,0,0,0,0,0,36,36,36,36,
0,0,0,0,0,0,0,0,0,0,0,0,36,36,36,36,
0,0,0,0,0,0,0,0,0,0,0,0,36,36,34,36,
0,0,0,0,0,0,0,0,0,0,0,0,36,36,36,36
</chunk>
   <chunk x="64" y="32" width="16" height="16">
0,0,0,0,0,0,0,53,53,53,53,53,72,36,36,36,
0,0,0,0,0,0,0,43,36,36,36,36,36,36,36,36,
0,0,0,0,0,0,0,36,36,36,36,36,36,36,36,36,
0,0,0,0,0,0,0,36,36,36,36,36,36,36,34,36,
0,0,0,0,0,0,0,36,36,36,36,36,36,36,36,36,
0,0,0,0,0,0,0,36,36,36,36,36,36,36,36,36,
0,0,0,0,0,0,0,36,34,36,36,36,36,36,36,36,
0,0,0,0,0,0,0,36,36,36,36,36,36,36,36,36,
0,0,0,0,0,0,0,53,53,53,53,53,53,53,53,53,
0,0,0,0,0,0,0,0,0,0,0,36,36,36,36,36,
0,0,0,0,0,0,0,0,0,0,0,0,36,36,36,36,
0,0,0,0,0,0,72,36,36,36,36,36,36,36,43,36,
36,36,36,36,43,36,36,36,36,34,36,36,36,36,36,36,
36,36,36,36,36,36,36,36,36,36,36,36,36,36,36,34,
36,36,36,36,36,36,36,36,36,36,36,36,36,36,36,36,
36,43,36,36,36,36,36,36,36,36,36,36,36,0,0,0
</chunk>
   <chunk x="48" y="48" width="16" height="16">
0,0,0,0,0,0,0,0,0,0,0,0,54,36,36,36,
0,0,0,0,0,0,0,0,0,0,0,0,36,0,0,0,
0,0,0,0,0,0,0,0,0,0,0,0,0,0,0,0,
0,0,0,0,0,0,0,0,0,0,0,0,0,0,0,0,
0,0,0,0,0,0,0,0,0,0,0,0,0,0,0,0,
0,0,0,0,0,0,0,0,0,0,0,0,0,0,0,0,
0,0,0,0,0,0,0,0,0,0,0,0,0,0,0,0,
0,0,0,0,0,0,0,0,0,0,0,0,0,0,0,0,
0,0,0,0,0,0,0,0,0,0,0,0,0,0,0,0,
0,0,0,0,0,0,0,0,0,0,0,0,0,0,0,0,
0,0,0,0,0,0,0,0,0,0,0,0,0,0,0,0,
0,0,0,0,0,0,0,0,0,0,0,0,0,0,0,0,
0,0,0,0,0,0,0,0,0,0,0,0,0,0,0,0,
0,0,0,0,0,0,0,0,0,0,0,0,0,0,0,0,
0,0,0,0,0,0,0,0,0,0,0,0,0,0,0,0,
0,0,0,0,0,0,0,0,0,0,0,0,0,0,0,0
</chunk>
   <chunk x="64" y="48" width="16" height="16">
36,36,36,36,36,36,0,0,0,0,0,36,0,0,0,0,
0,0,0,0,36,0,0,0,0,0,0,0,0,0,0,0,
0,0,0,0,0,0,0,0,0,0,0,0,0,0,0,0,
0,0,0,0,0,0,0,0,0,0,0,0,0,0,0,0,
0,0,0,0,0,0,0,0,0,0,0,0,0,0,0,0,
0,0,0,0,0,0,0,0,0,0,0,0,0,0,0,0,
0,0,0,0,0,0,0,0,0,0,0,0,0,0,0,0,
0,0,0,0,0,0,0,0,0,0,0,0,0,0,0,0,
0,0,0,0,0,0,0,0,0,0,0,0,0,0,0,0,
0,0,0,0,0,0,0,0,0,0,0,0,0,0,0,0,
0,0,0,0,0,0,0,0,0,0,0,0,0,0,0,0,
0,0,0,0,0,0,0,0,0,0,0,0,0,0,0,0,
0,0,0,0,0,0,0,0,0,0,0,0,0,0,0,0,
0,0,0,0,0,0,0,0,0,0,0,0,0,0,0,0,
0,0,0,0,0,0,0,0,0,0,0,0,0,0,0,0,
0,0,0,0,0,0,0,0,0,0,0,0,0,0,0,0
</chunk>
  </data>
 </layer>
 <layer id="4" name="Decor Fondo" width="32" height="32">
  <data encoding="csv">
   <chunk x="48" y="-16" width="16" height="16">
0,0,0,0,0,0,0,0,0,0,0,0,0,0,0,0,
0,0,0,0,0,0,0,0,0,0,0,0,0,0,0,0,
0,0,0,0,0,0,1610612811,1610612811,1610612811,1610612811,1610612811,1610612811,0,0,0,0,
0,0,0,0,0,0,0,0,0,0,0,0,0,0,0,0,
0,0,0,0,0,0,3221225547,0,0,0,0,1073741899,0,0,0,0,
0,0,0,0,0,0,3221225547,0,0,0,0,1073741899,0,0,0,0,
0,0,0,0,0,0,3221225547,0,0,0,0,1073741899,0,0,0,0,
0,0,0,0,0,0,3221225547,0,0,0,0,1073741899,0,0,0,0,
0,0,0,0,0,0,0,0,0,0,0,0,0,0,0,0,
0,0,0,0,0,0,0,0,0,0,0,0,0,0,0,0,
0,0,0,0,0,0,0,0,0,0,0,0,0,0,0,0,
0,0,0,0,0,0,0,0,0,0,0,0,0,0,0,0,
0,0,0,0,0,0,0,0,0,0,0,0,0,0,0,0,
0,0,0,0,0,0,0,0,0,0,0,0,0,0,0,0,
0,0,0,0,0,0,0,0,0,0,0,0,0,0,0,0,
0,0,0,0,0,0,0,0,0,0,0,0,0,0,0,0
</chunk>
   <chunk x="-16" y="0" width="16" height="16">
0,0,0,0,0,0,0,0,0,0,0,0,0,0,0,0,
0,0,0,0,0,0,0,0,0,0,0,0,0,0,0,0,
0,0,0,0,0,0,0,0,0,0,0,0,0,0,0,0,
0,0,0,0,0,0,0,0,0,0,0,0,0,0,0,0,
0,0,0,0,0,0,0,0,0,0,0,0,0,0,0,0,
0,0,0,0,0,0,0,0,0,0,0,0,0,0,0,0,
0,0,0,0,0,0,0,0,0,0,0,0,0,0,0,0,
0,0,0,0,0,0,0,0,0,0,0,0,0,0,0,0,
0,0,0,0,0,0,0,0,0,0,0,0,0,0,0,0,
0,0,0,0,0,0,0,0,0,0,0,0,0,0,81,0,
0,0,0,0,0,0,0,0,0,0,0,0,0,0,81,0,
0,0,0,0,0,0,0,0,0,0,0,0,0,0,81,0,
0,0,0,0,0,0,0,0,0,0,0,0,0,0,81,0,
0,0,0,0,0,0,0,0,0,0,0,0,83,0,81,0,
0,0,0,0,0,0,0,0,0,0,0,0,0,0,0,0,
0,0,0,0,0,0,0,0,0,0,0,0,0,0,0,0
</chunk>
   <chunk x="16" y="0" width="16" height="16">
0,0,0,0,0,0,0,0,0,0,0,0,0,0,0,0,
0,0,0,0,0,0,0,0,0,0,0,0,0,0,0,0,
0,0,0,0,0,0,0,0,0,0,0,0,0,0,0,0,
0,0,0,0,0,0,0,0,0,0,0,0,0,0,0,0,
0,0,0,0,0,0,0,0,0,0,0,0,0,0,0,0,
0,0,0,0,0,0,0,0,0,0,0,0,0,0,0,0,
0,0,0,0,0,0,89,0,0,0,0,0,0,0,0,0,
0,0,0,0,0,0,0,0,0,0,0,0,0,0,0,0,
0,0,0,0,0,0,0,0,0,0,0,0,0,0,0,0,
0,0,0,0,0,0,0,0,0,0,0,0,0,0,0,0,
0,0,0,0,0,0,0,0,0,0,0,0,0,0,0,0,
0,0,0,0,0,0,0,0,0,0,0,0,0,0,0,0,
0,0,0,0,0,0,0,0,0,0,0,0,0,0,0,0,
0,0,0,0,0,0,0,0,0,0,0,0,0,0,0,0,
0,0,0,0,0,0,0,0,0,0,0,0,79,79,79,79,
0,0,0,0,0,0,0,0,0,0,0,0,0,0,0,0
</chunk>
   <chunk x="32" y="0" width="16" height="16">
0,0,0,0,0,0,0,0,0,0,0,0,0,0,0,0,
0,0,0,0,0,0,0,0,0,0,0,0,0,0,0,0,
0,0,0,0,0,0,0,0,0,0,0,0,0,0,0,0,
0,0,0,0,0,0,0,0,0,0,0,0,0,0,0,0,
0,0,0,0,0,0,0,0,0,0,0,0,0,0,0,0,
0,0,0,0,0,0,0,0,0,0,0,0,0,0,0,0,
0,0,0,0,0,0,0,0,0,0,0,0,0,0,0,0,
0,0,0,0,0,0,0,0,0,0,0,0,0,0,0,0,
0,0,0,0,0,0,0,0,0,0,0,0,0,0,0,0,
0,0,0,0,0,0,0,0,0,0,0,0,0,0,0,0,
0,0,0,0,0,0,0,0,0,0,0,0,0,0,0,0,
0,0,0,0,0,0,0,0,0,0,0,0,0,0,0,0,
0,0,0,0,0,0,0,0,0,0,0,0,0,0,0,0,
0,0,0,0,0,0,0,0,0,82,0,0,0,0,0,0,
0,0,0,0,0,0,0,0,0,0,0,0,0,0,0,0,
0,0,0,0,0,0,0,0,0,0,0,0,0,0,0,0
</chunk>
   <chunk x="-48" y="16" width="16" height="16">
0,0,0,0,0,0,0,0,0,0,0,0,0,0,0,0,
0,0,0,0,0,0,0,0,0,0,0,0,0,0,0,0,
0,0,0,0,0,0,0,0,0,0,0,0,0,0,0,0,
0,0,0,0,0,0,0,0,0,0,0,0,0,0,0,0,
0,0,0,0,0,0,0,0,0,0,0,0,0,0,0,0,
0,0,0,0,0,0,0,0,0,0,0,0,0,0,0,0,
0,0,0,0,0,0,0,0,0,0,0,0,0,0,0,0,
0,0,0,0,0,0,0,0,0,0,0,0,0,2147483737,0,0,
0,0,0,0,0,0,0,0,0,0,0,0,0,0,0,0,
0,0,0,0,0,0,0,0,0,0,0,0,0,0,0,0,
0,0,0,0,0,0,0,0,0,0,0,0,0,0,0,0,
0,0,0,0,0,0,0,0,0,0,0,0,0,0,0,0,
0,0,0,0,0,0,0,0,0,0,0,0,0,0,0,0,
0,0,0,0,0,0,0,0,0,0,0,0,0,0,0,0,
0,0,0,0,0,0,0,0,0,0,0,0,0,0,0,0,
0,0,0,0,0,0,0,0,0,0,0,0,0,0,0,0
</chunk>
   <chunk x="-32" y="16" width="16" height="16">
0,0,0,0,0,0,0,0,0,0,0,0,0,0,0,0,
0,0,0,0,0,0,0,0,0,0,0,0,0,0,0,0,
0,0,0,0,0,0,0,0,0,0,0,0,0,0,0,0,
0,0,0,0,0,0,0,0,0,0,0,0,0,0,0,0,
0,0,0,0,0,0,0,0,0,0,0,0,0,0,0,0,
0,0,0,0,0,0,0,0,0,0,0,0,0,0,0,0,
0,0,0,0,0,0,0,0,0,0,0,0,0,0,0,0,
0,0,0,0,0,0,0,0,0,0,0,0,0,0,0,0,
0,0,0,0,0,0,0,0,0,0,0,0,0,0,0,0,
0,0,0,0,0,0,0,0,0,0,0,0,0,0,0,0,
0,0,0,0,0,0,0,0,0,0,0,0,0,0,0,0,
0,0,0,0,0,0,0,0,0,0,0,0,0,0,0,0,
0,0,0,0,0,0,0,0,0,0,0,0,0,0,0,0,
0,0,0,0,0,0,0,0,0,0,0,0,0,0,0,0,
0,0,0,0,0,0,0,0,0,0,0,0,0,0,0,0,
0,0,0,0,0,0,0,0,0,0,0,83,0,0,0,0
</chunk>
   <chunk x="-16" y="16" width="16" height="16">
0,0,0,0,0,0,0,0,0,0,0,0,0,0,0,0,
0,0,0,0,0,0,0,0,0,0,0,0,0,0,0,0,
0,0,0,0,0,0,0,0,0,0,0,0,0,0,0,0,
0,0,0,0,0,0,0,0,0,0,0,0,0,0,0,0,
0,0,0,0,0,0,0,0,0,0,0,0,0,0,0,0,
0,0,0,0,0,0,0,0,0,0,0,0,0,0,0,0,
0,0,0,0,0,0,0,0,0,0,0,0,0,0,0,0,
0,0,0,0,0,0,0,0,0,0,0,0,0,0,0,0,
0,0,0,0,0,0,82,0,0,0,0,0,0,0,0,0,
0,0,0,0,0,0,0,0,0,0,0,0,0,0,0,0,
0,0,0,0,0,0,0,0,0,0,0,0,0,0,0,0,
0,0,0,0,0,0,0,0,0,0,0,0,0,0,0,0,
0,0,0,0,0,0,0,0,0,0,0,0,0,0,0,0,
0,0,0,0,0,0,0,0,0,0,0,0,0,0,0,0,
0,0,0,0,0,0,0,0,0,0,0,0,0,0,0,0,
0,0,0,0,0,0,0,0,0,0,0,0,0,0,0,0
</chunk>
   <chunk x="32" y="16" width="16" height="16">
0,0,0,0,0,0,0,0,0,0,0,0,0,0,0,0,
0,0,0,0,0,0,0,0,0,0,0,0,0,0,0,0,
0,0,0,0,0,0,0,0,0,0,0,0,0,0,0,0,
0,0,0,0,0,0,0,0,0,0,0,0,0,0,0,0,
0,0,0,0,0,0,0,0,0,0,0,0,0,0,0,0,
0,0,0,0,0,0,0,0,0,0,0,0,0,0,0,0,
0,0,0,0,0,0,0,0,0,0,0,0,0,0,0,0,
0,0,0,0,0,0,0,0,0,0,0,0,0,0,0,0,
0,0,0,0,0,0,0,0,0,0,0,0,0,0,0,0,
0,0,0,0,0,0,0,0,0,0,0,0,0,0,0,0,
0,0,0,0,0,0,0,0,0,0,0,0,0,0,0,0,
0,0,0,0,0,0,0,0,0,0,0,0,0,0,0,0,
0,0,0,0,0,0,0,0,0,0,0,51,0,0,0,0,
0,0,0,0,0,0,0,0,0,0,0,60,0,0,0,0,
0,0,0,0,0,0,0,0,0,0,0,0,0,0,0,0,
0,0,0,0,0,0,0,0,0,0,0,0,0,0,0,0
</chunk>
   <chunk x="48" y="16" width="16" height="16">
0,0,0,0,0,0,0,0,0,0,0,0,0,0,0,0,
0,0,0,0,0,0,0,0,0,0,0,0,0,0,0,0,
0,0,0,0,0,0,0,0,0,0,0,0,0,0,0,0,
0,0,0,0,0,0,0,0,0,0,0,0,0,0,0,0,
0,79,79,79,79,79,79,79,79,79,79,79,79,79,79,79,
0,0,0,0,0,0,0,0,0,0,0,0,0,0,0,0,
0,0,0,0,0,0,0,0,0,0,0,0,0,0,0,0,
0,0,0,0,0,0,0,0,0,0,0,0,0,0,0,0,
0,0,0,0,0,0,0,0,0,0,0,0,0,0,0,0,
0,0,0,0,0,0,0,0,0,0,0,0,0,0,0,0,
0,0,0,0,0,0,0,0,0,0,0,0,0,0,0,0,
0,0,0,0,0,0,0,0,0,0,0,0,0,0,0,0,
0,0,0,0,0,0,0,0,0,0,0,0,0,0,0,0,
0,0,0,0,0,0,0,0,0,0,0,0,0,0,0,0,
0,0,0,0,0,0,0,0,0,0,536870987,536870987,536870987,0,0,0,
0,0,0,0,0,0,0,0,0,0,0,0,0,0,0,0
</chunk>
   <chunk x="64" y="16" width="16" height="16">
0,0,0,0,0,0,0,0,0,0,0,0,0,0,0,0,
0,0,0,0,0,0,0,0,0,0,0,0,0,0,0,0,
0,0,0,0,0,0,0,0,0,0,0,0,0,0,0,0,
0,0,0,0,0,0,0,0,0,0,0,0,0,0,0,0,
79,79,0,79,0,0,0,0,0,0,0,0,0,0,0,0,
0,0,0,0,0,0,0,0,0,0,0,0,0,0,0,0,
0,0,0,0,0,0,0,0,0,0,0,0,0,0,0,0,
0,0,0,0,0,0,0,0,0,0,0,0,0,0,0,0,
0,0,0,0,0,0,0,0,0,0,0,0,0,0,0,0,
0,0,0,0,0,0,0,0,0,0,0,0,0,0,0,0,
0,0,0,0,0,0,0,0,0,0,0,0,0,0,0,0,
0,0,0,0,0,0,0,0,0,0,0,0,0,0,0,0,
0,0,0,0,0,0,0,0,0,0,0,0,0,0,0,0,
0,0,0,0,0,0,0,0,0,0,0,0,0,0,0,0,
0,0,0,0,0,0,0,0,0,0,0,0,0,0,0,0,
0,0,0,0,0,0,0,0,0,0,0,0,0,0,0,0
</chunk>
   <chunk x="-32" y="32" width="16" height="16">
0,0,0,0,0,0,0,0,0,0,0,0,0,0,0,0,
0,0,0,0,0,0,0,0,0,0,0,0,0,0,0,0,
0,0,0,0,0,0,0,0,0,0,0,0,0,0,2147483737,2147483736,
0,0,0,0,0,0,0,0,0,0,0,0,0,0,0,0,
0,0,0,0,0,0,0,0,0,0,0,0,0,0,0,0,
0,0,0,0,0,0,0,0,0,0,0,0,0,0,0,0,
0,0,0,0,0,0,0,0,0,0,0,0,0,0,0,0,
0,0,0,0,0,0,0,0,0,0,0,0,0,0,0,0,
0,0,0,0,0,0,0,0,0,0,0,0,0,0,0,0,
0,0,0,0,0,0,0,0,0,0,0,0,0,0,0,0,
0,0,0,0,0,0,0,0,0,0,0,0,0,0,0,0,
0,0,0,0,0,0,0,0,0,0,0,0,0,0,0,0,
0,0,0,0,0,0,0,0,0,0,0,0,0,0,0,0,
0,0,0,0,0,0,0,0,0,0,0,0,0,0,0,0,
0,0,0,0,0,0,0,0,0,0,0,0,0,0,0,0,
0,0,0,0,0,0,0,0,0,0,0,0,0,0,0,0
</chunk>
   <chunk x="-16" y="32" width="16" height="16">
0,0,0,0,0,0,0,0,0,0,0,0,0,0,0,0,
0,0,0,0,0,0,0,0,0,0,0,0,0,0,0,0,
0,0,0,0,0,0,0,0,0,0,0,0,0,0,0,0,
0,0,0,0,0,0,0,0,0,0,0,0,0,0,0,0,
0,0,0,0,0,0,0,0,51,0,0,0,0,0,0,0,
0,0,0,0,0,0,0,0,60,0,0,0,0,0,0,0,
0,0,0,0,0,0,0,0,0,0,0,0,0,0,0,0,
0,0,0,0,0,0,0,0,0,0,0,0,0,0,0,0,
0,0,0,0,0,0,0,0,0,0,0,0,0,0,0,0,
0,0,0,0,0,0,0,0,0,0,0,0,0,0,0,0,
0,0,0,0,0,0,0,0,0,0,0,0,0,0,0,0,
0,0,0,0,0,0,0,0,0,0,0,0,0,0,0,0,
0,0,0,0,0,0,0,0,0,0,0,0,0,0,0,0,
0,0,0,0,0,0,0,0,0,0,0,0,0,0,0,0,
0,0,0,0,0,0,0,0,0,0,0,0,0,0,0,0,
0,0,0,0,0,0,0,0,0,0,0,0,0,0,0,0
</chunk>
   <chunk x="16" y="32" width="16" height="16">
0,0,0,0,0,0,0,0,0,0,0,0,0,0,0,0,
0,0,0,0,0,0,0,0,0,0,0,0,0,0,0,0,
0,0,0,0,0,0,0,0,0,0,0,0,0,0,0,0,
0,0,0,0,0,0,0,0,0,0,0,0,0,0,0,0,
0,0,0,0,0,0,0,0,0,0,0,0,0,0,0,0,
0,0,0,0,0,0,0,0,0,0,0,0,0,0,0,0,
0,0,0,0,0,0,0,0,0,0,0,0,0,0,79,79,
0,0,0,0,0,0,0,0,0,0,0,0,0,0,0,0,
0,0,0,0,0,0,0,0,0,0,0,0,0,0,0,0,
0,0,0,0,0,0,0,0,0,0,0,0,0,0,0,0,
0,0,0,0,0,0,0,0,0,0,0,0,0,0,0,0,
0,0,0,0,0,0,0,0,0,0,0,0,0,0,0,0,
0,0,0,0,0,0,0,0,0,0,0,0,0,0,0,0,
0,0,0,0,0,0,0,0,0,0,0,0,0,0,0,0,
0,0,0,0,0,0,0,0,0,0,0,0,0,0,0,0,
0,0,0,0,0,0,0,0,0,0,0,0,0,0,0,0
</chunk>
   <chunk x="32" y="32" width="16" height="16">
0,0,0,0,0,0,0,0,0,0,0,0,0,0,0,0,
0,0,0,0,0,0,0,0,0,0,0,0,0,0,0,0,
0,0,0,0,0,0,0,0,0,0,0,0,0,0,0,0,
0,0,0,0,0,0,0,0,0,0,0,0,0,0,0,0,
0,0,0,0,0,0,0,0,0,0,0,0,0,0,0,0,
0,0,0,0,0,0,0,0,0,2147483731,0,0,0,0,0,0,
79,79,79,79,79,0,0,0,0,0,0,0,0,0,0,0,
0,0,0,0,0,0,0,0,0,0,0,0,0,0,0,0,
0,0,0,0,0,0,0,0,0,0,0,0,0,0,0,0,
0,0,0,0,0,0,0,0,0,0,0,0,0,0,0,0,
0,0,0,0,0,0,0,0,0,0,0,0,0,0,0,0,
0,0,0,0,0,0,0,0,0,0,0,0,0,0,0,0,
0,0,0,0,0,0,0,0,0,0,0,0,0,0,0,0,
0,0,0,0,0,0,0,0,0,0,0,0,0,0,0,0,
0,0,0,0,0,0,0,0,0,0,0,0,0,0,0,0,
0,0,0,0,0,0,0,0,0,0,0,0,0,0,0,0
</chunk>
  </data>
 </layer>
 <layer id="1" name="Level" width="32" height="32">
  <data encoding="csv">
   <chunk x="96" y="-80" width="16" height="16">
0,0,0,0,0,0,0,0,0,0,0,0,0,0,0,0,
0,0,0,0,0,0,0,0,0,0,0,0,0,0,0,0,
0,0,0,0,0,0,0,0,0,0,0,0,0,0,0,0,
0,0,0,0,0,0,0,0,0,0,0,0,0,0,0,0,
0,0,0,0,0,0,0,0,0,0,0,0,0,0,0,0,
0,0,0,0,0,0,0,0,0,0,0,0,0,0,0,0,
0,0,0,0,0,0,0,0,0,0,0,0,0,0,0,0,
0,0,0,0,0,0,0,0,0,0,0,0,0,0,0,0,
0,0,0,0,0,0,0,0,0,0,0,0,0,0,0,0,
0,0,0,0,0,0,0,0,0,0,0,0,0,0,0,0,
0,0,0,0,0,27,0,0,0,0,0,0,0,0,0,0,
0,27,0,0,0,27,0,0,0,0,0,0,0,0,0,0,
0,27,0,0,0,27,0,0,0,0,0,0,0,0,0,0,
0,27,0,0,0,27,0,0,0,0,0,0,0,0,0,0,
0,27,0,0,0,27,0,0,0,0,0,0,0,0,0,0,
0,0,0,0,0,27,0,0,0,0,0,0,0,0,0,0
</chunk>
   <chunk x="96" y="-64" width="16" height="16">
0,0,0,0,0,27,0,0,0,0,0,0,0,0,0,0,
0,0,0,0,0,27,0,0,0,0,0,0,0,0,0,0,
0,0,0,0,0,27,0,0,0,0,0,0,0,0,0,0,
0,0,0,0,0,27,0,0,0,0,0,0,0,0,0,0,
0,0,0,0,0,0,0,0,0,0,0,0,0,0,0,0,
0,0,0,0,0,0,0,0,0,0,0,0,0,0,0,0,
0,0,0,0,0,0,0,0,0,0,0,0,0,0,0,0,
0,0,0,0,0,0,0,0,0,0,0,0,0,0,0,0,
0,0,0,0,0,0,0,0,0,0,0,0,0,0,0,0,
0,0,0,0,0,0,0,0,0,0,0,0,0,0,0,0,
0,0,0,0,0,0,0,0,0,0,0,0,0,0,0,0,
0,0,0,0,0,0,0,0,0,0,0,0,0,0,0,0,
0,0,0,0,0,0,0,0,0,0,0,0,0,0,0,0,
0,0,0,0,0,0,0,0,0,0,0,0,0,0,0,0,
0,0,0,0,0,0,0,0,0,0,0,0,0,0,0,0,
0,0,0,0,0,0,0,0,0,0,0,0,0,0,0,0
</chunk>
   <chunk x="96" y="-48" width="16" height="16">
0,0,0,0,0,0,0,0,0,0,0,0,0,0,0,0,
0,0,0,0,0,0,0,0,0,0,0,0,0,0,0,0,
0,0,0,0,0,0,0,0,0,0,0,0,0,0,0,0,
0,0,0,0,0,0,0,0,0,0,0,0,0,0,0,0,
0,0,0,0,0,0,0,0,0,0,0,0,0,0,0,0,
0,0,0,0,0,0,0,0,0,0,0,0,0,0,0,0,
0,0,0,0,0,0,0,0,0,0,0,0,0,0,0,0,
0,0,0,0,0,0,0,0,0,0,0,0,0,0,0,0,
0,0,0,0,0,0,0,0,0,0,0,0,0,0,0,0,
0,0,0,0,0,0,27,0,0,0,0,0,0,0,0,0,
0,0,0,0,0,0,27,0,0,0,0,0,0,0,0,0,
0,0,0,0,0,0,27,0,0,0,0,0,0,0,0,0,
0,0,0,0,0,0,27,0,0,0,0,0,0,0,0,0,
0,0,0,0,0,0,27,0,0,0,0,0,0,0,0,0,
0,0,0,0,0,0,27,0,0,0,0,0,0,0,0,0,
0,0,0,0,0,0,27,0,0,0,0,0,0,0,0,0
</chunk>
   <chunk x="96" y="-32" width="16" height="16">
0,0,0,0,0,0,27,0,0,0,0,0,0,0,0,0,
0,0,0,0,0,0,27,0,0,0,0,0,0,0,0,0,
0,0,0,0,0,0,27,0,0,0,0,0,0,0,0,0,
0,0,0,0,0,0,27,0,0,0,0,0,0,0,0,0,
0,0,0,0,0,0,27,0,0,0,0,0,0,0,0,0,
0,0,0,0,0,0,27,0,0,0,0,0,0,0,0,0,
0,0,0,0,0,0,27,0,0,0,0,0,0,0,0,0,
0,0,0,0,0,0,27,0,0,0,0,0,0,0,0,0,
0,0,0,0,0,0,27,0,0,0,0,0,0,0,0,0,
0,0,0,0,0,0,27,0,0,0,0,0,0,0,0,0,
0,0,0,0,0,0,27,0,0,0,0,0,0,0,0,0,
0,0,0,0,0,0,27,0,0,0,0,0,0,0,0,0,
0,0,0,0,0,0,27,0,0,0,0,0,0,0,0,0,
0,0,0,0,0,0,27,0,0,0,0,0,0,0,0,0,
0,0,0,0,0,0,27,0,0,0,0,0,0,0,0,0,
0,0,0,0,0,0,27,0,0,0,0,0,0,0,0,0
</chunk>
   <chunk x="0" y="-16" width="16" height="16">
0,0,0,0,0,0,0,0,0,0,0,0,0,0,0,0,
0,0,0,0,0,0,0,0,0,0,0,0,0,0,0,0,
0,0,0,0,0,0,0,0,0,0,0,0,0,0,0,0,
0,0,0,0,0,0,0,0,0,0,0,0,0,0,0,0,
0,0,0,0,0,32,30,29,30,30,29,29,29,30,29,30,
0,0,0,0,32,31,0,0,0,0,0,0,0,0,0,0,
0,0,0,32,31,0,0,0,0,0,0,0,0,0,0,0,
0,0,32,31,0,0,0,0,0,0,0,0,0,0,0,0,
0,32,31,0,0,0,0,0,0,0,0,0,0,0,0,0,
32,31,0,0,0,0,0,0,0,0,0,0,0,0,0,0,
13,0,0,0,0,0,0,0,0,0,1,3,2,2,3,2,
13,0,0,0,0,0,0,0,0,0,19,0,0,0,0,0,
13,0,0,0,0,0,0,0,0,0,19,0,0,0,0,0,
13,0,0,0,0,0,0,0,0,0,19,0,0,0,0,0,
13,0,0,0,0,0,0,0,0,0,19,0,0,0,0,0,
13,0,0,0,0,0,0,0,0,0,19,0,0,0,0,0
</chunk>
   <chunk x="16" y="-16" width="16" height="16">
0,0,0,0,0,0,0,0,0,0,0,0,0,0,0,0,
0,0,0,0,0,0,0,0,0,0,0,0,0,0,0,0,
0,0,0,0,0,0,0,0,0,0,0,0,0,0,0,0,
0,0,0,0,0,0,0,0,0,0,0,0,0,0,0,0,
30,29,29,30,30,29,30,29,30,30,29,29,33,0,0,0,
0,0,0,0,0,0,0,0,0,0,0,0,19,0,0,0,
0,0,0,0,0,0,0,0,0,0,0,0,19,0,0,0,
0,0,0,0,0,0,0,0,0,0,0,0,28,30,30,29,
0,0,0,0,0,0,0,0,0,0,0,0,0,0,0,0,
0,0,0,0,0,0,0,0,0,0,0,0,0,0,0,0,
3,2,2,2,3,2,4,0,0,0,0,0,0,0,0,0,
0,0,0,0,0,0,13,0,0,0,0,0,0,0,0,0,
0,0,0,0,0,0,22,0,0,0,0,0,0,0,0,0,
0,0,0,0,0,0,41,3,2,3,2,2,3,3,3,2,
0,0,0,0,0,0,0,0,0,0,0,0,0,0,0,0,
0,0,0,0,0,0,0,0,0,0,0,0,0,0,0,0
</chunk>
   <chunk x="32" y="-16" width="16" height="16">
0,0,0,0,0,0,0,0,0,0,0,0,0,0,0,0,
0,0,0,0,0,0,0,0,0,0,0,0,0,0,0,0,
0,0,0,0,0,0,0,0,0,0,0,0,0,0,0,0,
0,0,0,0,0,0,0,0,0,0,0,0,0,0,0,0,
0,0,0,0,0,0,0,0,0,0,0,0,0,0,0,0,
0,0,0,0,0,0,0,0,0,0,0,0,0,0,0,0,
0,0,0,0,0,0,0,0,0,0,0,0,0,0,0,0,
30,29,29,30,30,30,29,29,29,29,30,29,29,30,29,29,
0,0,0,0,0,0,0,0,0,0,0,0,0,0,0,0,
0,0,0,0,0,0,0,0,0,0,0,0,0,0,0,0,
0,0,0,0,0,0,0,0,0,0,0,0,0,0,0,0,
0,0,0,0,0,0,0,0,0,0,0,0,0,0,0,0,
0,0,0,0,0,0,0,0,0,0,0,0,0,0,0,0,
2,2,3,3,3,2,2,3,2,3,2,2,2,2,2,3,
0,0,0,0,0,0,0,0,0,0,0,0,0,0,0,0,
0,0,0,0,0,0,0,0,0,0,0,0,0,0,0,0
</chunk>
   <chunk x="48" y="-16" width="16" height="16">
0,0,0,0,0,0,0,0,0,0,0,0,0,0,0,0,
0,0,0,0,0,32,30,30,29,30,30,29,33,0,0,0,
0,0,0,0,0,22,0,0,0,0,0,0,10,0,0,0,
0,0,0,0,0,13,0,0,0,0,0,0,10,0,0,0,
0,0,0,0,0,22,0,0,0,0,0,0,10,0,0,0,
0,0,0,0,0,22,0,0,0,0,0,0,19,0,0,0,
0,0,0,0,0,22,0,0,0,0,0,0,10,0,0,0,
29,30,29,29,30,31,0,0,0,0,0,0,19,0,0,0,
0,0,0,0,0,0,0,0,0,0,0,0,10,0,0,0,
0,0,0,0,0,0,0,15,0,0,0,0,10,0,0,0,
0,0,0,0,0,0,0,0,0,0,0,0,10,0,0,0,
0,0,0,0,0,0,0,0,0,0,0,0,19,0,0,0,
0,0,0,0,0,0,0,0,0,0,15,0,19,0,0,0,
4,0,0,0,0,0,0,0,0,0,0,0,10,0,0,0,
13,0,0,0,0,0,0,0,0,0,0,0,10,0,0,0,
13,0,0,0,0,0,0,15,0,0,0,0,10,0,0,0
</chunk>
   <chunk x="96" y="-16" width="16" height="16">
0,0,0,0,0,27,0,0,0,0,0,0,0,0,0,0,
0,0,0,0,0,27,0,0,0,0,0,0,0,0,0,0,
0,0,0,0,0,27,0,0,0,0,0,0,0,0,0,0,
0,0,0,0,0,27,0,0,0,0,0,0,0,0,0,0,
0,0,0,0,0,27,0,0,0,0,0,0,0,0,0,0,
0,0,0,0,0,27,0,0,0,0,0,0,0,0,0,0,
0,0,0,0,0,27,0,0,0,0,0,0,0,0,0,0,
0,0,0,0,0,27,0,0,0,0,0,0,0,0,0,0,
0,0,0,0,0,27,0,0,0,0,0,0,0,0,0,0,
0,0,0,0,0,27,0,0,0,0,0,0,0,0,0,0,
0,0,0,0,0,27,0,0,0,0,0,0,0,0,0,0,
0,0,0,0,0,27,0,0,0,0,0,0,0,0,0,0,
0,0,0,0,0,0,0,0,0,0,0,0,0,0,0,0,
0,0,0,0,0,0,0,0,0,0,0,0,0,0,0,0,
0,0,0,0,0,0,0,0,0,0,0,0,0,0,0,0,
0,0,0,0,0,0,0,0,0,0,0,0,0,0,0,0
</chunk>
   <chunk x="-48" y="0" width="16" height="16">
0,0,0,0,0,0,0,0,0,0,0,0,0,0,0,0,
0,0,0,0,0,0,0,0,0,0,0,0,0,0,0,0,
0,0,0,0,0,0,0,0,0,0,0,0,0,0,0,0,
0,0,0,0,0,0,0,0,0,0,0,0,0,0,0,0,
0,0,0,0,0,0,0,0,0,0,0,0,0,0,0,0,
0,0,0,0,0,0,0,0,0,0,0,0,0,0,0,0,
0,0,0,0,0,0,0,0,0,0,0,0,0,0,0,0,
0,0,0,0,0,0,0,32,29,29,30,30,30,29,29,30,
0,0,0,0,0,0,0,13,0,0,0,0,0,0,0,0,
0,0,0,0,0,0,0,13,0,0,0,0,0,0,0,0,
0,0,0,0,0,0,0,13,0,0,0,0,0,0,0,0,
0,0,0,0,0,0,0,22,0,0,0,0,0,0,0,0,
0,0,0,0,0,0,0,13,0,0,0,0,0,0,0,0,
0,0,0,0,0,0,0,22,0,0,0,0,0,0,0,0,
0,0,0,0,0,0,0,13,0,0,0,0,0,0,0,0,
0,0,0,0,0,0,0,13,0,0,0,0,0,0,0,0
</chunk>
   <chunk x="-32" y="0" width="16" height="16">
0,0,0,0,0,0,0,0,0,0,0,0,0,0,0,0,
0,0,0,0,0,0,0,0,0,0,0,0,0,0,0,0,
0,0,0,0,0,0,0,0,0,0,0,0,0,0,0,0,
0,0,0,0,0,0,0,0,0,0,0,0,0,0,0,0,
0,0,0,0,0,0,0,0,0,0,0,0,0,0,0,0,
0,0,0,0,0,0,0,0,0,0,0,0,0,0,0,0,
0,0,0,0,0,0,0,0,0,0,0,0,0,0,0,0,
29,30,29,30,30,29,33,0,0,0,0,0,0,0,0,0,
0,0,0,0,0,0,10,0,0,0,0,0,0,0,0,0,
0,0,0,0,0,0,10,0,0,0,0,0,0,0,0,0,
0,0,0,0,0,0,10,0,0,0,0,0,0,0,0,0,
0,0,0,6,7,7,10,0,0,0,0,0,0,0,0,0,
0,0,0,0,0,0,10,0,0,0,0,0,0,0,0,0,
0,0,0,0,0,0,10,0,0,0,0,0,0,0,0,0,
0,0,0,0,0,0,28,30,29,29,30,30,30,30,30,29,
0,0,0,0,0,0,0,0,0,0,0,0,0,0,0,0
</chunk>
   <chunk x="-16" y="0" width="16" height="16">
0,0,0,0,0,0,0,0,0,0,0,0,0,0,0,0,
0,0,0,0,0,0,0,0,0,0,0,0,0,0,0,0,
0,0,0,0,0,0,0,0,0,0,0,0,0,0,0,0,
0,0,0,0,0,0,0,0,0,0,0,0,0,0,0,0,
0,0,0,0,0,0,0,0,0,0,0,0,0,0,0,0,
0,0,0,0,0,0,0,0,0,0,0,0,0,0,0,0,
0,0,0,0,0,0,0,0,0,0,0,0,0,0,0,0,
0,0,0,0,0,0,0,0,0,0,0,0,0,0,0,0,
0,0,0,0,0,0,0,0,0,0,0,32,29,29,30,30,
0,0,0,0,0,0,0,0,0,0,0,22,0,0,0,0,
0,0,0,0,0,0,0,0,0,0,0,13,0,0,0,0,
0,0,0,0,0,0,0,0,0,0,0,22,0,0,0,0,
0,0,0,0,0,0,0,0,0,0,0,13,0,0,0,0,
0,0,0,0,0,0,0,0,0,0,0,22,0,0,0,0,
30,30,33,0,0,0,0,0,0,0,0,41,2,3,2,2,
0,0,19,0,0,0,0,0,0,0,0,0,0,0,0,0
</chunk>
   <chunk x="0" y="0" width="16" height="16">
13,0,0,0,0,0,0,0,0,0,19,0,0,0,0,0,
13,0,0,0,0,0,0,0,0,0,10,32,30,30,29,30,
22,0,0,0,0,0,0,0,0,0,19,22,0,0,0,0,
41,37,38,0,0,0,0,0,39,40,42,13,0,0,0,0,
0,46,47,37,38,0,39,40,48,49,0,22,0,0,0,0,
0,0,0,46,47,0,48,49,0,0,0,22,0,0,0,0,
0,0,0,55,56,0,57,58,0,0,0,13,0,0,0,0,
0,55,56,64,65,0,66,67,57,58,0,22,18,0,0,0,
30,64,65,0,0,0,0,0,66,67,30,31,0,0,0,0,
0,0,0,0,0,0,0,0,0,0,0,0,0,0,0,0,
0,0,0,0,0,0,0,0,0,0,0,0,0,0,0,0,
0,0,0,0,0,0,0,0,0,0,0,0,0,0,0,0,
0,0,0,0,0,0,0,0,0,0,0,0,0,0,0,0,
0,0,0,0,0,0,0,0,0,0,0,0,0,0,0,0,
3,2,2,2,3,2,3,2,3,2,2,3,2,2,3,2,
0,0,0,0,0,0,0,0,0,0,0,0,0,0,0,0
</chunk>
   <chunk x="16" y="0" width="16" height="16">
0,0,0,0,0,0,0,0,0,0,0,0,0,0,0,0,
29,30,30,30,29,29,30,33,29,30,33,0,0,0,0,0,
0,0,0,0,0,0,0,14,0,0,19,0,0,0,0,0,
0,0,0,0,0,0,0,14,0,0,10,0,0,0,0,0,
0,0,0,0,0,0,0,14,0,0,10,0,0,0,0,0,
0,0,0,0,0,0,0,14,0,0,19,0,0,0,0,0,
0,0,0,0,0,0,0,14,0,0,10,0,0,0,0,0,
0,0,6,7,7,7,7,23,0,0,19,0,0,0,0,0,
0,0,0,0,0,0,0,0,0,0,28,29,29,29,30,29,
0,0,0,0,0,0,0,0,0,0,0,0,0,0,0,0,
0,0,0,0,0,0,0,0,0,0,0,0,0,0,0,0,
0,0,0,0,0,0,0,0,0,0,0,0,0,0,0,0,
0,0,0,0,0,0,0,0,0,0,0,0,0,0,0,0,
0,0,0,0,0,0,0,0,0,0,0,0,0,0,0,0,
3,2,3,2,3,2,2,2,2,3,2,4,0,0,0,0,
0,0,0,0,0,0,0,0,0,0,0,41,3,2,3,3
</chunk>
   <chunk x="32" y="0" width="16" height="16">
0,0,0,0,0,0,0,0,0,0,0,0,0,0,0,0,
0,0,0,0,0,0,0,0,0,0,0,0,0,0,0,0,
0,0,0,0,0,0,0,0,0,0,0,0,0,0,0,0,
0,0,0,0,0,0,0,0,0,0,0,0,0,0,0,0,
0,0,0,0,0,0,0,0,0,0,0,0,0,0,0,0,
0,0,0,0,0,0,0,0,0,0,0,0,0,0,0,0,
0,32,29,30,29,30,29,29,29,30,33,0,0,0,0,0,
0,22,0,0,0,0,0,0,0,0,10,0,0,0,0,0,
30,31,0,0,0,0,0,0,0,0,19,0,0,0,0,0,
0,0,0,0,0,0,0,0,0,0,10,0,0,0,0,0,
0,0,0,0,0,0,0,0,0,0,19,0,0,0,0,0,
0,0,0,0,0,0,0,0,0,0,19,0,0,0,0,0,
0,0,0,0,0,0,0,0,0,0,10,0,0,0,0,0,
0,0,0,0,0,0,0,0,0,0,19,0,0,0,0,0,
1,2,3,2,4,0,0,0,1,2,42,0,0,0,0,0,
42,0,0,0,13,0,0,0,28,29,33,0,0,0,0,0
</chunk>
   <chunk x="48" y="0" width="16" height="16">
13,0,0,0,0,0,0,0,0,0,0,0,19,0,0,0,
22,0,0,0,0,0,0,0,0,0,0,0,19,0,0,0,
13,0,0,0,0,0,0,0,0,0,15,0,19,0,0,0,
22,0,0,0,0,0,0,0,0,0,0,0,19,0,0,0,
22,0,0,0,0,0,0,0,0,0,0,0,19,0,0,0,
22,0,0,0,0,0,0,15,0,0,0,0,19,0,0,0,
13,0,0,0,0,0,0,0,0,0,0,0,10,0,0,0,
22,0,0,0,0,0,0,0,0,0,15,0,10,0,0,0,
13,0,0,0,0,0,0,0,0,0,0,0,19,0,0,0,
13,0,0,0,0,0,0,0,0,0,0,0,10,0,0,0,
22,0,0,0,0,0,0,6,7,8,0,0,19,0,0,0,
13,0,0,0,0,0,0,0,0,0,0,0,10,0,0,0,
13,0,0,0,0,0,0,0,0,0,0,0,28,30,30,30,
13,0,0,0,0,0,0,0,0,0,0,0,0,0,0,0,
13,0,0,0,0,0,0,0,0,0,0,0,0,0,0,0,
22,0,0,0,0,0,0,0,0,0,0,0,0,0,0,0
</chunk>
   <chunk x="64" y="0" width="16" height="16">
0,0,0,0,0,0,0,0,0,0,0,0,0,0,0,0,
0,0,0,0,0,0,0,0,0,0,0,0,0,0,0,0,
0,0,0,0,0,0,0,0,0,0,0,0,0,0,0,0,
0,0,0,0,0,0,0,0,0,0,0,0,0,0,0,0,
0,0,0,0,0,0,0,0,0,0,0,0,0,0,0,0,
0,0,0,0,0,0,0,0,0,0,0,0,0,0,0,0,
0,0,0,0,0,0,0,0,0,0,0,0,0,0,0,0,
0,0,0,0,0,0,0,0,0,0,0,0,0,0,0,0,
0,0,0,0,0,0,0,0,0,0,0,0,0,0,0,0,
0,0,0,0,0,0,0,0,0,0,0,0,0,0,0,0,
0,0,0,0,0,0,0,0,0,0,0,0,0,0,0,0,
0,0,0,0,0,0,0,0,0,0,0,0,0,0,0,0,
30,30,30,30,29,29,30,30,29,29,30,29,30,30,29,29,
0,0,0,0,0,0,0,0,0,0,0,0,0,0,0,0,
0,0,0,0,0,0,0,0,0,0,0,0,0,0,0,0,
0,0,0,0,0,0,0,0,0,0,0,0,0,0,0,0
</chunk>
   <chunk x="80" y="0" width="16" height="16">
0,0,0,0,0,0,0,0,0,0,0,0,0,0,0,0,
0,0,0,0,0,0,0,0,0,0,0,0,0,0,0,0,
0,0,0,0,0,0,0,0,0,0,0,0,0,0,0,0,
0,0,0,0,0,0,0,0,0,0,0,0,0,0,0,0,
0,0,0,0,0,0,0,0,0,0,0,0,0,0,0,0,
0,0,0,0,0,0,0,0,0,0,0,0,0,0,0,0,
0,0,0,0,0,0,0,0,0,0,0,0,0,0,0,0,
0,0,0,0,0,0,0,0,0,0,0,0,0,0,0,0,
0,0,0,0,0,0,0,0,0,0,0,0,0,0,0,0,
0,0,0,0,0,0,0,0,0,0,0,0,0,0,0,0,
0,0,0,0,0,0,0,0,0,0,0,0,0,0,0,0,
0,0,0,0,0,0,0,0,0,0,0,0,0,0,0,0,
33,0,0,0,0,0,0,0,0,0,0,0,0,0,0,0,
10,0,0,0,0,0,0,0,0,0,0,0,0,0,0,0,
19,0,0,0,0,0,0,0,0,0,0,0,0,0,0,0,
10,0,0,0,0,0,0,0,0,0,0,0,0,0,0,0
</chunk>
   <chunk x="-48" y="16" width="16" height="16">
0,0,0,0,0,0,0,13,0,0,0,0,0,0,0,0,
0,0,0,0,0,0,0,13,0,0,0,0,0,0,0,0,
0,0,0,0,0,0,0,41,2,3,2,2,4,0,0,0,
0,0,0,0,0,0,0,0,0,0,0,0,13,0,0,0,
0,0,0,0,0,0,0,0,0,0,0,0,13,0,0,0,
0,0,0,0,0,0,0,0,0,0,0,0,22,0,0,0,
0,0,0,0,0,0,0,0,0,0,0,0,22,0,0,0,
0,0,0,0,0,0,0,0,0,0,0,0,13,0,0,0,
0,0,0,0,0,0,0,0,0,0,0,0,41,2,3,2,
0,0,0,0,0,0,0,0,0,0,0,0,0,0,0,0,
0,0,0,0,0,0,0,0,0,0,0,0,0,0,0,0,
0,0,0,0,0,0,0,0,0,0,0,0,0,0,0,0,
0,0,0,0,0,0,0,0,0,0,0,0,0,0,0,0,
0,0,0,0,0,0,0,0,0,0,0,0,0,0,0,0,
0,0,0,0,0,0,0,0,0,0,0,0,0,0,0,0,
0,0,0,0,0,0,0,0,0,0,0,0,0,0,0,0
</chunk>
   <chunk x="-32" y="16" width="16" height="16">
0,0,0,0,0,0,0,0,0,0,0,0,0,0,0,0,
0,0,0,0,0,0,0,0,0,0,0,0,0,0,0,0,
0,0,0,0,0,0,0,0,0,0,0,0,0,0,0,0,
0,0,0,0,0,0,0,0,0,0,0,0,0,0,0,0,
0,0,0,0,0,0,0,0,0,0,0,0,0,0,0,0,
0,0,0,0,0,0,0,0,0,0,0,0,0,0,0,0,
0,0,0,0,0,0,0,0,0,0,0,0,0,0,0,0,
0,0,0,0,0,0,0,0,0,0,0,0,0,0,0,0,
2,3,2,3,3,3,3,3,3,3,4,0,0,0,0,0,
0,0,0,0,0,0,0,0,0,0,22,0,0,0,0,0,
0,0,0,0,0,0,0,0,0,0,22,0,0,0,0,0,
0,0,0,0,0,0,0,0,0,0,22,0,0,0,0,0,
0,0,0,0,0,0,0,0,0,0,13,0,0,0,0,0,
0,0,0,0,0,0,0,0,0,0,22,0,0,0,0,0,
0,0,0,0,0,0,0,0,0,0,13,0,0,0,0,0,
0,0,0,0,0,0,0,0,0,0,22,0,0,0,0,0
</chunk>
   <chunk x="-16" y="16" width="16" height="16">
0,0,10,0,0,0,0,0,0,0,0,0,0,0,0,0,
0,0,19,0,0,0,0,0,0,0,0,0,0,0,0,0,
0,0,10,0,0,0,0,0,0,0,0,0,0,0,0,0,
0,0,19,0,0,0,0,0,0,0,0,0,0,0,0,0,
0,0,28,30,30,29,30,33,0,0,0,0,0,0,0,0,
0,0,0,0,0,0,0,19,0,0,0,0,0,0,0,0,
0,0,0,0,0,0,0,19,0,0,0,0,0,0,0,0,
0,0,0,0,0,0,0,10,0,0,0,0,0,0,0,0,
0,0,0,0,0,0,0,19,0,32,29,30,29,30,29,30,
0,0,0,0,0,6,7,19,0,13,0,0,0,0,0,0,
0,0,0,0,0,0,0,19,0,22,0,0,0,0,0,0,
0,0,0,0,0,0,0,19,0,13,0,0,0,0,0,0,
0,0,0,0,0,0,0,10,0,22,0,0,0,0,0,0,
0,0,6,7,7,7,7,19,0,13,0,0,0,0,0,0,
0,0,0,0,0,0,0,19,0,22,0,0,0,0,0,0,
0,0,0,0,0,0,0,19,0,13,0,0,0,0,0,0
</chunk>
   <chunk x="0" y="16" width="16" height="16">
0,0,0,0,0,0,0,0,0,0,0,0,0,0,0,0,
0,0,0,0,0,0,0,0,0,0,0,0,0,0,0,0,
0,0,0,0,0,0,0,0,0,0,0,0,0,0,0,0,
0,0,0,0,0,0,0,0,0,0,0,0,0,0,0,0,
0,0,0,0,0,0,0,0,0,0,0,0,0,0,0,0,
0,0,0,0,0,0,0,0,0,0,0,0,0,0,0,0,
0,0,0,0,0,0,0,0,0,0,0,0,0,0,0,0,
0,0,0,0,0,0,0,0,0,0,0,0,0,0,0,0,
30,29,30,29,30,29,30,29,30,29,30,29,30,29,30,29,
0,0,0,0,0,0,0,0,0,0,0,0,0,0,0,0,
0,0,0,0,0,0,0,0,0,0,0,0,0,0,0,0,
0,0,0,0,0,0,0,0,0,0,0,0,0,0,0,0,
0,0,0,0,0,0,0,0,0,0,0,0,0,0,0,0,
0,0,0,0,0,0,0,0,0,0,0,0,0,0,0,0,
0,0,0,0,0,1,2,3,2,3,3,3,2,3,2,2,
0,0,0,0,0,10,0,0,0,0,0,0,0,0,0,0
</chunk>
   <chunk x="16" y="16" width="16" height="16">
0,0,0,0,0,0,0,0,0,0,0,0,0,0,0,0,
0,0,0,0,0,0,0,0,0,0,0,0,0,0,0,0,
0,0,0,0,0,0,0,0,0,0,0,0,0,0,0,0,
0,0,0,0,0,0,0,0,0,0,0,0,0,0,0,0,
0,0,0,0,0,0,0,0,0,0,0,0,0,0,0,0,
0,0,0,0,0,0,0,0,0,0,0,0,0,0,0,0,
0,0,0,0,0,0,0,0,0,0,0,0,0,0,0,0,
0,0,0,0,0,0,0,0,0,0,0,0,0,0,0,0,
30,29,29,30,29,30,30,29,30,30,29,30,29,29,30,29,
0,0,0,0,0,0,0,0,0,0,0,0,0,0,0,0,
0,0,0,0,0,0,0,0,0,0,0,0,0,0,0,0,
0,0,0,0,0,0,0,0,0,0,0,0,0,0,0,0,
0,0,0,0,0,0,0,0,0,0,0,0,0,0,0,0,
0,0,0,0,0,0,0,0,0,0,0,0,0,0,0,0,
3,2,3,2,3,2,2,3,2,3,3,2,3,3,2,3,
0,0,0,0,0,0,0,0,0,0,0,0,0,0,0,0
</chunk>
   <chunk x="32" y="16" width="16" height="16">
0,0,0,0,22,0,0,0,0,0,10,0,0,0,0,0,
0,0,0,0,13,0,0,0,0,0,10,0,0,0,0,0,
0,0,0,0,22,0,0,0,0,0,19,0,0,0,0,0,
0,0,0,0,13,0,0,0,0,0,10,0,0,0,0,0,
0,0,0,0,13,0,0,0,0,0,19,0,0,0,0,0,
0,0,0,0,22,0,0,0,0,0,10,0,0,0,0,0,
0,0,0,0,13,0,0,0,0,0,10,0,0,0,0,0,
0,0,0,0,22,0,0,0,0,0,10,0,0,0,0,0,
29,30,29,30,31,0,0,0,0,0,10,0,32,30,29,30,
0,0,0,0,0,0,0,0,0,0,19,0,13,0,0,0,
0,0,0,0,0,0,0,0,0,0,10,0,22,0,0,0,
0,0,0,0,0,0,0,0,0,0,28,29,31,0,0,0,
0,0,0,0,0,0,0,0,0,0,0,0,0,0,0,0,
0,0,0,0,0,0,0,0,0,0,0,0,0,0,0,0,
2,3,3,3,3,3,3,2,3,3,2,3,2,2,3,2,
0,0,0,0,0,0,0,0,0,0,0,0,0,0,0,0
</chunk>
   <chunk x="48" y="16" width="16" height="16">
13,0,0,0,0,0,0,0,0,0,0,0,0,0,0,0,
22,0,0,0,0,0,0,0,0,0,0,0,0,0,0,0,
22,0,0,0,0,15,0,0,0,6,8,0,0,6,7,8,
13,0,0,0,0,0,0,0,0,0,0,0,0,0,0,0,
22,0,0,0,0,0,0,0,0,0,0,0,0,0,0,0,
41,3,2,2,3,2,3,3,2,3,2,2,3,2,2,3,
0,0,0,0,0,0,0,0,0,0,0,0,0,0,0,0,
0,0,0,0,0,0,0,0,0,0,0,0,0,0,0,0,
30,29,30,29,30,29,29,30,29,30,29,30,29,30,29,30,
0,0,0,0,0,0,0,0,0,0,0,0,0,0,0,0,
0,0,0,0,0,0,0,0,0,0,0,0,0,0,0,0,
0,0,0,0,0,0,0,0,0,0,0,0,0,0,0,0,
0,0,0,0,0,0,0,0,0,0,0,0,0,0,0,0,
0,0,0,0,0,0,0,0,0,0,0,0,0,0,0,0,
3,2,2,2,3,2,3,2,3,4,0,0,0,1,2,0,
0,0,0,0,0,0,0,0,0,41,2,2,3,42,0,0
</chunk>
   <chunk x="64" y="16" width="16" height="16">
0,0,0,0,0,0,0,0,0,0,0,0,0,0,0,0,
0,0,0,0,0,0,0,0,0,0,0,0,0,0,0,0,
0,0,0,0,0,0,0,0,0,0,0,0,0,0,0,0,
0,0,5,0,0,0,0,0,0,0,0,0,0,0,0,0,
0,0,14,0,5,0,0,0,0,0,0,0,0,0,0,0,
2,3,2,2,3,2,4,0,0,0,0,0,0,0,0,0,
0,0,0,0,0,0,22,0,0,0,0,0,0,0,0,0,
0,0,0,0,0,0,22,0,0,0,0,0,0,0,0,0,
29,30,30,33,0,0,13,0,0,0,0,0,0,0,0,0,
0,0,0,10,0,0,13,0,0,0,0,0,0,0,0,0,
0,0,0,19,0,0,22,0,0,0,0,0,0,0,0,0,
0,0,0,19,0,0,13,0,0,0,0,0,0,0,0,0,
0,0,0,10,0,0,13,0,0,0,0,0,0,0,0,0,
0,0,0,19,0,0,22,0,0,0,0,0,0,0,0,0,
0,0,3,42,0,0,13,0,0,0,0,0,0,0,0,0,
0,0,0,0,0,0,13,0,0,0,0,0,0,0,0,0
</chunk>
   <chunk x="80" y="16" width="16" height="16">
10,0,0,0,0,0,0,0,0,0,0,0,0,0,0,0,
10,0,0,0,0,0,0,0,0,0,0,0,0,0,0,0,
19,0,0,0,0,0,0,0,0,0,0,0,0,0,0,0,
19,0,0,0,0,0,0,0,0,0,0,0,0,0,0,0,
10,0,0,0,0,0,0,0,0,0,0,0,0,0,0,0,
10,0,0,0,0,0,0,0,0,0,0,0,0,0,0,0,
10,0,0,0,0,0,0,0,0,0,0,0,0,0,0,0,
10,0,0,0,0,0,0,0,0,0,0,0,0,0,0,0,
19,0,0,0,0,0,0,0,0,0,0,0,0,0,0,0,
10,0,0,0,0,0,0,0,0,0,0,0,0,0,0,0,
10,0,0,0,0,0,0,0,0,0,0,0,0,0,0,0,
19,0,0,0,0,0,0,0,0,0,0,0,0,0,0,0,
19,0,0,0,0,0,0,0,0,0,0,0,0,0,0,0,
10,0,0,0,0,0,0,0,0,0,0,0,0,0,0,0,
19,0,0,0,0,0,0,0,0,0,0,0,0,0,0,0,
10,0,0,0,0,0,0,0,0,0,0,0,0,0,0,0
</chunk>
   <chunk x="-32" y="32" width="16" height="16">
0,0,0,0,0,0,0,0,0,0,41,2,3,4,0,0,
0,0,0,0,0,0,0,0,0,0,0,0,0,22,0,0,
0,0,0,0,0,0,0,0,0,0,0,0,0,22,0,0,
0,0,0,0,0,0,0,0,0,0,0,0,0,41,2,2,
0,0,0,0,0,0,0,0,0,0,0,0,0,0,0,0,
0,0,0,0,0,0,0,0,0,0,0,0,0,0,0,0,
0,0,0,0,0,0,0,0,0,0,0,0,0,0,0,0,
0,0,0,0,0,0,0,0,0,0,0,0,0,0,0,0,
0,0,0,0,0,0,0,0,0,0,0,0,0,0,0,0,
0,0,0,0,0,0,0,0,0,0,0,0,0,0,0,0,
0,0,0,0,0,0,0,0,0,0,0,0,0,0,0,0,
0,0,0,0,0,0,0,0,0,0,0,0,0,0,0,0,
0,0,0,0,0,0,0,0,0,0,0,0,0,0,0,0,
0,0,0,0,0,0,0,0,0,0,0,0,0,0,0,0,
0,0,0,0,0,0,0,0,0,0,0,0,0,0,0,0,
0,0,0,0,0,0,0,0,0,0,0,0,0,0,0,0
</chunk>
   <chunk x="-16" y="32" width="16" height="16">
0,0,0,0,0,0,0,19,0,22,0,0,0,0,0,0,
0,0,0,0,0,0,0,10,0,22,0,0,0,0,0,0,
0,0,0,0,0,0,0,19,0,13,0,0,0,0,0,0,
3,3,4,0,0,0,0,28,30,31,0,0,0,0,0,0,
0,0,13,0,0,0,0,0,0,0,0,0,0,0,0,0,
0,0,22,0,0,0,0,0,0,0,0,0,0,0,0,0,
0,0,41,2,3,2,3,2,3,3,2,3,3,2,3,2,
0,0,0,0,0,0,0,0,0,0,0,0,0,0,0,0,
0,0,0,0,0,0,0,0,0,0,0,0,0,0,0,0,
0,0,0,0,0,0,0,0,0,0,0,0,0,0,0,0,
0,0,0,0,0,0,0,0,0,0,0,0,0,0,0,0,
0,0,0,0,0,0,0,0,0,0,0,0,0,0,0,0,
0,0,0,0,0,0,0,0,0,0,0,0,0,0,0,0,
0,0,0,0,0,0,0,0,0,0,0,0,0,0,0,0,
0,0,0,0,0,0,0,0,0,0,0,0,0,0,0,0,
0,0,0,0,0,0,0,0,0,0,0,0,0,0,0,0
</chunk>
   <chunk x="0" y="32" width="16" height="16">
0,0,0,0,0,28,29,29,29,30,29,30,30,29,29,30,
0,0,0,0,0,0,0,0,0,0,0,0,0,0,0,0,
0,0,0,0,0,0,0,0,0,0,0,0,0,0,0,0,
0,0,0,0,0,0,0,0,0,0,0,0,0,0,0,0,
0,0,0,0,0,0,0,0,0,0,0,0,0,0,0,0,
0,0,0,0,0,0,0,0,0,0,0,0,0,0,0,0,
3,2,3,2,3,2,3,3,2,3,3,2,3,3,2,3,
0,0,0,0,0,0,0,0,0,0,0,0,0,0,0,0,
0,0,0,0,0,0,0,0,0,0,0,0,0,0,0,0,
0,0,0,0,0,0,0,0,0,0,0,0,0,0,0,0,
0,0,0,0,0,0,0,0,0,0,0,0,0,0,0,0,
0,0,0,0,0,0,0,0,0,0,0,0,0,0,0,0,
0,0,0,0,0,0,0,0,0,0,0,0,0,0,0,0,
0,0,0,0,0,0,0,0,0,0,0,0,0,0,0,0,
0,0,0,0,0,0,0,0,0,0,0,0,0,0,0,0,
0,0,0,0,0,0,0,0,0,0,0,0,0,0,0,0
</chunk>
   <chunk x="16" y="32" width="16" height="16">
29,29,30,29,30,29,30,29,30,29,30,29,30,33,0,0,
0,0,0,0,0,0,0,0,0,0,0,0,0,28,29,30,
0,0,0,0,0,0,0,0,0,0,0,0,0,0,0,0,
0,0,0,0,0,0,0,0,0,0,0,0,0,0,0,0,
0,0,0,0,0,0,0,0,0,0,0,0,0,0,0,0,
0,0,0,0,0,0,0,0,0,0,0,0,0,0,0,0,
2,3,3,2,3,3,2,3,3,2,3,2,3,4,0,0,
0,0,0,0,0,0,0,0,0,0,0,0,0,41,2,2,
0,0,0,0,0,0,0,0,0,0,0,0,0,0,0,0,
0,0,0,0,0,0,0,0,0,0,0,0,0,0,0,0,
0,0,0,0,0,0,0,0,0,0,0,0,0,0,0,0,
0,0,0,0,0,0,0,0,0,0,0,0,0,0,0,0,
0,0,0,0,0,0,0,0,0,0,0,0,0,0,0,0,
0,0,0,0,0,0,0,0,0,0,0,0,0,0,0,0,
0,0,0,0,0,0,0,0,0,0,0,0,0,0,0,0,
0,0,0,0,0,0,0,0,0,0,0,0,0,0,0,0
</chunk>
   <chunk x="32" y="32" width="16" height="16">
0,0,0,0,0,32,29,30,29,30,33,0,0,0,0,0,
30,29,30,29,30,31,0,0,0,0,10,0,0,0,0,0,
0,0,0,0,0,0,0,0,0,0,19,0,0,0,0,0,
0,0,0,0,0,0,0,0,0,0,10,0,0,0,0,0,
0,0,0,0,0,0,0,0,0,0,19,0,0,0,0,0,
0,0,0,0,0,0,0,0,0,0,19,0,0,0,0,0,
0,0,0,0,0,1,2,3,2,3,42,0,0,0,0,0,
2,2,3,3,3,42,0,0,0,0,0,0,0,0,0,0,
0,0,0,0,0,0,0,0,0,0,0,0,0,0,0,0,
0,0,0,0,0,0,0,0,0,0,0,0,0,0,0,0,
0,0,0,0,0,0,0,0,0,0,0,0,0,0,0,0,
0,0,0,0,0,0,0,0,0,0,0,0,0,0,0,0,
0,0,0,0,0,0,0,0,0,0,0,0,0,0,0,0,
0,0,0,0,0,0,0,0,0,0,0,0,0,0,0,0,
0,0,0,0,0,0,0,0,0,0,0,0,0,0,0,0,
0,0,0,0,0,0,0,0,0,0,0,0,0,0,0,0
</chunk>
   <chunk x="48" y="32" width="16" height="16">
0,0,0,0,0,0,0,0,0,0,0,0,0,0,0,0,
0,0,0,0,0,0,0,0,0,0,0,0,0,0,0,0,
0,0,0,0,0,0,0,0,0,0,0,0,0,0,0,0,
0,0,0,0,0,0,0,0,0,0,0,0,0,0,0,0,
0,0,0,0,0,0,0,0,0,0,0,0,0,0,0,0,
0,0,0,0,0,0,0,0,0,0,0,0,0,0,0,0,
0,0,0,0,0,0,0,0,0,0,0,0,0,0,0,0,
0,0,0,0,0,0,0,0,0,0,0,0,0,0,0,0,
0,0,0,0,0,0,0,0,0,0,0,0,0,0,0,0,
0,0,0,0,0,0,0,0,0,0,0,0,0,0,0,0,
0,0,0,0,0,0,0,0,0,0,0,0,0,32,0,0,
0,0,0,0,0,0,0,0,0,0,0,32,30,31,0,0,
0,0,0,0,0,0,0,0,0,0,0,13,0,0,0,0,
0,0,0,0,0,0,0,0,0,0,0,22,0,0,0,0,
0,0,0,0,0,0,0,0,0,0,0,13,0,0,0,0,
0,0,0,0,0,0,0,0,0,0,0,13,0,0,0,0
</chunk>
   <chunk x="64" y="32" width="16" height="16">
0,0,0,0,0,0,22,0,0,0,0,0,0,0,0,0,
0,0,0,0,0,0,13,0,0,0,0,0,0,0,0,0,
0,0,0,0,0,0,22,0,0,0,0,0,0,0,0,0,
0,0,0,0,0,0,13,0,0,0,0,0,0,0,0,0,
0,0,0,0,0,0,22,0,0,0,0,0,0,0,0,0,
0,0,0,0,0,0,13,0,0,0,0,0,0,0,0,0,
0,0,0,0,0,0,22,0,0,0,0,0,0,0,0,0,
0,0,0,0,0,0,13,0,0,0,0,0,0,0,0,0,
0,0,0,0,0,0,22,0,0,0,0,0,0,0,0,0,
0,0,0,0,0,0,41,2,3,2,3,4,0,0,0,0,
0,0,0,33,0,32,29,30,29,30,30,31,0,0,0,0,
0,0,0,28,29,31,0,0,0,0,0,0,0,0,0,0,
0,0,0,0,0,0,0,0,0,0,0,0,0,0,0,0,
0,0,0,0,0,0,0,0,0,0,0,0,0,0,0,0,
0,0,0,0,0,0,0,0,0,0,0,0,0,0,0,0,
0,0,0,0,0,0,0,0,0,0,0,0,1,2,3,2
</chunk>
   <chunk x="80" y="32" width="16" height="16">
19,0,0,0,0,0,0,0,0,0,0,0,0,0,0,0,
10,0,0,0,0,0,0,0,0,0,0,0,0,0,0,0,
10,0,0,0,0,0,0,0,0,0,0,0,0,0,0,0,
10,0,0,0,0,0,0,0,0,0,0,0,0,0,0,0,
10,0,0,0,0,0,0,0,0,0,0,0,0,0,0,0,
10,0,0,0,0,0,0,0,0,0,0,0,0,0,0,0,
19,0,0,0,0,0,0,0,0,0,0,0,0,0,0,0,
10,0,0,0,0,0,0,0,0,0,0,0,0,0,0,0,
19,0,0,0,0,0,0,0,0,0,0,0,0,0,0,0,
10,0,0,0,0,0,0,0,0,0,0,0,0,0,0,0,
10,0,0,0,0,0,0,0,0,0,0,0,0,0,0,0,
10,0,0,0,0,0,0,0,0,0,0,0,0,0,0,0,
19,0,0,0,0,0,0,0,0,0,0,0,0,0,0,0,
19,0,0,0,0,0,0,0,0,0,0,0,0,0,0,0,
10,0,0,0,0,0,0,0,0,0,0,0,0,0,0,0,
42,0,0,0,0,0,0,0,0,0,0,0,0,0,0,0
</chunk>
   <chunk x="48" y="48" width="16" height="16">
0,0,0,0,0,0,0,0,0,0,0,22,0,0,0,0,
0,0,0,0,0,0,0,0,0,0,0,22,1,3,2,3,
0,0,0,0,0,0,0,0,0,0,0,41,42,0,0,0,
0,0,0,0,0,0,0,0,0,0,0,0,0,0,0,0,
0,0,0,0,0,0,0,0,0,0,0,0,0,0,0,0,
0,0,0,0,0,0,0,0,0,0,0,0,0,0,0,0,
0,0,0,0,0,0,0,0,0,0,0,0,0,0,0,0,
0,0,0,0,0,0,0,0,0,0,0,0,0,0,0,0,
0,0,0,0,0,0,0,0,0,0,0,0,0,0,0,0,
0,0,0,0,0,0,0,0,0,0,0,0,0,0,0,0,
0,0,0,0,0,0,0,0,0,0,0,0,0,0,0,0,
0,0,0,0,0,0,0,0,0,0,0,0,0,0,0,0,
0,0,0,0,0,0,0,0,0,0,0,0,0,0,0,0,
0,0,0,0,0,0,0,0,0,0,0,0,0,0,0,0,
0,0,0,0,0,0,0,0,0,0,0,0,0,0,0,0,
0,0,0,0,0,0,0,0,0,0,0,0,0,0,0,0
</chunk>
   <chunk x="64" y="48" width="16" height="16">
0,0,0,0,0,1,2,2,3,3,3,4,10,0,0,0,
2,3,2,3,4,19,0,0,0,0,0,13,19,0,0,0,
0,0,0,0,41,42,0,0,0,0,0,41,42,0,0,0,
0,0,0,0,0,0,0,0,0,0,0,0,0,0,0,0,
0,0,0,0,0,0,0,0,0,0,0,0,0,0,0,0,
0,0,0,0,0,0,0,0,0,0,0,0,0,0,0,0,
0,0,0,0,0,0,0,0,0,0,0,0,0,0,0,0,
0,0,0,0,0,0,0,0,0,0,0,0,0,0,0,0,
0,0,0,0,0,0,0,0,0,0,0,0,0,0,0,0,
0,0,0,0,0,0,0,0,0,0,0,0,0,0,0,0,
0,0,0,0,0,0,0,0,0,0,0,0,0,0,0,0,
0,0,0,0,0,0,0,0,0,0,0,0,0,0,0,0,
0,0,0,0,0,0,0,0,0,0,0,0,0,0,0,0,
0,0,0,0,0,0,0,0,0,0,0,0,0,0,0,0,
0,0,0,0,0,0,0,0,0,0,0,0,0,0,0,0,
0,0,0,0,0,0,0,0,0,0,0,0,0,0,0,0
</chunk>
   <chunk x="0" y="80" width="16" height="16">
0,0,0,0,0,0,0,0,0,0,0,0,0,0,0,0,
0,0,0,0,0,0,0,0,0,0,0,0,0,0,0,0,
0,0,0,0,0,0,0,0,0,0,0,0,0,0,0,0,
0,0,0,0,0,0,0,0,0,0,0,0,0,0,0,0,
0,0,0,0,0,0,0,0,0,0,0,0,0,0,0,0,
0,0,0,0,0,0,0,0,0,0,0,0,0,0,0,0,
0,0,0,0,0,0,0,0,0,0,0,0,0,0,0,0,
0,0,0,0,0,0,0,0,0,0,0,0,0,0,0,0,
0,0,0,0,0,0,0,0,0,0,0,0,0,0,0,0,
0,0,0,0,0,0,0,0,0,0,0,0,0,0,0,0,
0,0,0,0,0,0,0,0,0,0,0,0,0,0,0,0,
0,0,0,0,0,0,0,0,0,0,21,0,0,0,0,0,
0,0,0,0,0,0,0,0,0,0,0,0,0,0,0,0,
0,0,0,0,0,0,0,0,0,0,0,0,0,0,0,0,
0,0,0,0,0,0,0,0,0,0,0,0,0,0,0,0,
0,0,0,0,0,0,0,0,0,0,0,0,0,0,0,0
</chunk>
  </data>
 </layer>
</map>
